%
(Header)
(Generated by gcodetools from Inkscape.)
(Using default header. To add your own header create file "header" in the output dir.)
M3
(Header end.)
G21 (All units in mm)

(Start cutting path id: path3048)
(Change tool to Cylindrical cutter)

G00 Z1.000000
G00 X22.033203 Y43.443359

G01 Z-1.000000 F100.0(Penetrate)
G01 X22.000000 Y43.357422 Z-1.000000 F400.000000
G01 X10.150391 Y12.316406 Z-1.000000
G01 X14.837891 Y12.316406 Z-1.000000
G01 X17.648438 Y20.234375 Z-1.000000
G01 X31.373047 Y20.234375 Z-1.000000
G01 X34.185547 Y12.316406 Z-1.000000
G01 X38.810547 Y12.316406 Z-1.000000
G01 X26.949219 Y43.443359 Z-1.000000
G01 X22.033203 Y43.443359 Z-1.000000
G01 X22.033203 Y43.443359 Z-1.000000
G00 Z1.000000

(End cutting path id: path3048)


(Start cutting path id: path3048)
(Change tool to Cylindrical cutter)

G00 Z1.000000
G00 X22.033203 Y43.443359

G01 Z-1.000000 F100.0(Penetrate)
G01 X22.000000 Y43.357422 Z-1.000000 F400.000000
G01 X10.150391 Y12.316406 Z-1.000000
G01 X14.837891 Y12.316406 Z-1.000000
G01 X17.648438 Y20.234375 Z-1.000000
G01 X31.373047 Y20.234375 Z-1.000000
G01 X34.185547 Y12.316406 Z-1.000000
G01 X38.810547 Y12.316406 Z-1.000000
G01 X26.949219 Y43.443359 Z-1.000000
G01 X22.033203 Y43.443359 Z-1.000000
G01 X22.033203 Y43.443359 Z-1.000000
G00 Z1.000000

(End cutting path id: path3048)


(Start cutting path id: path3048)
(Change tool to Cylindrical cutter)

G00 Z1.000000
G00 X22.214844 Y43.177734

G01 Z-1.000000 F100.0(Penetrate)
G01 X26.765625 Y43.177734 Z-1.000000 F400.000000
G01 X38.427734 Y12.582031 Z-1.000000
G01 X34.371094 Y12.582031 Z-1.000000
G01 X31.560547 Y20.498047 Z-1.000000
G01 X17.462891 Y20.498047 Z-1.000000
G01 X14.650391 Y12.582031 Z-1.000000
G01 X10.533203 Y12.582031 Z-1.000000
G01 X22.214844 Y43.177734 Z-1.000000
G01 X22.214844 Y43.177734 Z-1.000000
G00 Z1.000000

(End cutting path id: path3048)


(Start cutting path id: path3048)
(Change tool to Cylindrical cutter)

G00 Z1.000000
G00 X22.214844 Y43.177734

G01 Z-1.000000 F100.0(Penetrate)
G01 X26.765625 Y43.177734 Z-1.000000 F400.000000
G01 X38.427734 Y12.582031 Z-1.000000
G01 X34.371094 Y12.582031 Z-1.000000
G01 X31.560547 Y20.498047 Z-1.000000
G01 X17.462891 Y20.498047 Z-1.000000
G01 X14.650391 Y12.582031 Z-1.000000
G01 X10.533203 Y12.582031 Z-1.000000
G01 X22.214844 Y43.177734 Z-1.000000
G01 X22.214844 Y43.177734 Z-1.000000
G00 Z1.000000

(End cutting path id: path3048)


(Start cutting path id: path3048)
(Change tool to Cylindrical cutter)

G00 Z1.000000
G00 X24.480469 Y39.578125

G01 Z-1.000000 F100.0(Penetrate)
G01 X24.355469 Y39.242188 Z-1.000000 F400.000000
G01 X18.626953 Y23.707031 Z-1.000000
G01 X30.355469 Y23.707031 Z-1.000000
G01 X24.480469 Y39.578125 Z-1.000000
G01 X24.480469 Y39.578125 Z-1.000000
G00 Z1.000000

(End cutting path id: path3048)


(Start cutting path id: path3048)
(Change tool to Cylindrical cutter)

G00 Z1.000000
G00 X24.480469 Y39.578125

G01 Z-1.000000 F100.0(Penetrate)
G01 X24.355469 Y39.242188 Z-1.000000 F400.000000
G01 X18.626953 Y23.707031 Z-1.000000
G01 X30.355469 Y23.707031 Z-1.000000
G01 X24.480469 Y39.578125 Z-1.000000
G01 X24.480469 Y39.578125 Z-1.000000
G00 Z1.000000

(End cutting path id: path3048)


(Start cutting path id: path3048)
(Change tool to Cylindrical cutter)

G00 Z1.000000
G00 X24.480469 Y38.816406

G01 Z-1.000000 F100.0(Penetrate)
G01 X29.974609 Y23.970703 Z-1.000000 F400.000000
G01 X19.007812 Y23.970703 Z-1.000000
G01 X24.480469 Y38.816406 Z-1.000000
G01 X24.480469 Y38.816406 Z-1.000000
G00 Z1.000000

(End cutting path id: path3048)


(Start cutting path id: path3048)
(Change tool to Cylindrical cutter)

G00 Z1.000000
G00 X24.480469 Y38.816406

G01 Z-1.000000 F100.0(Penetrate)
G01 X29.974609 Y23.970703 Z-1.000000 F400.000000
G01 X19.007812 Y23.970703 Z-1.000000
G01 X24.480469 Y38.816406 Z-1.000000
G01 X24.480469 Y38.816406 Z-1.000000
G00 Z1.000000

(End cutting path id: path3048)


(Footer)
M5
G00 X0.0000 Y0.0000
M2
(Using default footer. To add your own footer create file "footer" in the output dir.)
(end)
%