%
(Header)
(Generated by gcodetools from Inkscape.)
(Using default header. To add your own header create file "header" in the output dir.)
M3
(Header end.)
G21 (All units in mm)

(Start cutting path id: path909)
(Change tool to Cylindrical cutter)

G00 Z6.000000
G00 X20.714959 Y20.085828

G01 Z-1.000000 F50.0(Penetrate)
G01 X3.194879 Y20.102158 Z-1.000000 F200.000000
G01 X3.213169 Y49.225599 Z-1.000000
G01 X3.231459 Y78.349041 Z-1.000000
G01 X20.751539 Y78.332711 Z-1.000000
G01 X38.271620 Y78.316381 Z-1.000000
G01 X38.253330 Y49.192940 Z-1.000000
G01 X38.235040 Y20.069498 Z-1.000000
G01 X20.714959 Y20.085828 Z-1.000000
G00 Z6.000000

(End cutting path id: path909)


(Start cutting path id: path909)
(Change tool to Cylindrical cutter)

G00 Z6.000000
G00 X20.714959 Y20.085828

G01 Z-1.000000 F50.0(Penetrate)
G01 X3.194879 Y20.102158 Z-1.000000 F200.000000
G01 X3.213169 Y49.225599 Z-1.000000
G01 X3.231459 Y78.349041 Z-1.000000
G01 X20.751539 Y78.332711 Z-1.000000
G01 X38.271620 Y78.316381 Z-1.000000
G01 X38.253330 Y49.192940 Z-1.000000
G01 X38.235040 Y20.069498 Z-1.000000
G01 X20.714959 Y20.085828 Z-1.000000
G00 Z6.000000

(End cutting path id: path909)


(Start cutting path id: path909)
(Change tool to Cylindrical cutter)

G00 Z6.000000
G00 X21.202254 Y39.758174

G01 Z-1.000000 F50.0(Penetrate)
G01 X20.146828 Y39.759158 Z-1.000000 F200.000000
G01 X20.147371 Y40.623911 Z-1.000000
G02 X20.355403 Y42.173176 Z-1.000000 I5.900487 J-0.003706
G02 X20.695018 Y42.631324 Z-1.000000 I0.757684 J-0.206705
G02 X21.205220 Y42.784324 Z-1.000000 I0.531523 J-0.845272
G02 X21.681176 Y42.652384 Z-1.000000 I0.018331 J-0.858315
G02 X22.045137 Y42.170090 Z-1.000000 I-0.454545 J-0.721498
G02 X22.258259 Y40.677727 Z-1.000000 I-5.095148 J-1.489029
G01 X22.257681 Y39.757189 Z-1.000000
G01 X21.202254 Y39.758174 Z-1.000000
G00 Z6.000000

(End cutting path id: path909)


(Start cutting path id: path909)
(Change tool to Cylindrical cutter)

G00 Z6.000000
G00 X21.202254 Y39.758174

G01 Z-1.000000 F50.0(Penetrate)
G01 X20.146828 Y39.759158 Z-1.000000 F200.000000
G01 X20.147371 Y40.623911 Z-1.000000
G02 X20.355403 Y42.173176 Z-1.000000 I5.900487 J-0.003706
G02 X20.695018 Y42.631324 Z-1.000000 I0.757684 J-0.206705
G02 X21.205220 Y42.784324 Z-1.000000 I0.531523 J-0.845272
G02 X21.681176 Y42.652384 Z-1.000000 I0.018331 J-0.858315
G02 X22.045137 Y42.170090 Z-1.000000 I-0.454545 J-0.721498
G02 X22.258259 Y40.677727 Z-1.000000 I-5.095148 J-1.489029
G01 X22.257681 Y39.757189 Z-1.000000
G01 X21.202254 Y39.758174 Z-1.000000
G00 Z6.000000

(End cutting path id: path909)


(Start cutting path id: path909)
(Change tool to Cylindrical cutter)

G00 Z6.000000
G00 X22.738806 Y42.548146

G01 Z-1.000000 F50.0(Penetrate)
G03 X22.121884 Y43.429768 Z-1.000000 I-1.755622 J-0.571852 F200.000000
G03 X21.212179 Y43.744157 Z-1.000000 I-0.911081 J-1.162934
G03 X20.528445 Y43.601788 Z-1.000000 I-0.001591 J-1.705385
G03 X20.039690 Y43.232451 Z-1.000000 I0.524855 J-1.202615
G03 X19.723586 Y42.587065 Z-1.000000 I1.204070 J-0.989849
G03 X19.525938 Y40.965178 Z-1.000000 I7.858030 J-1.780587
G01 X19.502188 Y39.759759 Z-1.000000
G01 X18.637151 Y39.760565 Z-1.000000
G01 X17.772114 Y39.761371 Z-1.000000
G01 X17.773214 Y41.529350 Z-1.000000
G01 X17.774314 Y43.297330 Z-1.000000
G01 X17.457686 Y43.297625 Z-1.000000
G01 X17.141058 Y43.297920 Z-1.000000
G01 X17.139658 Y41.047764 Z-1.000000
G01 X17.138258 Y38.797609 Z-1.000000
G01 X20.018180 Y38.794909 Z-1.000000
G01 X22.898102 Y38.792209 Z-1.000000
G01 X22.880442 Y40.479843 Z-1.000000
G03 X22.814200 Y42.159502 Z-1.000000 I-29.026291 J-0.303601
G03 X22.738803 Y42.548114 Z-1.000000 I-1.606116 J-0.109991
G01 X22.738806 Y42.548146 Z-1.000000
G00 Z6.000000

(End cutting path id: path909)


(Start cutting path id: path909)
(Change tool to Cylindrical cutter)

G00 Z6.000000
G00 X22.738806 Y42.548146

G01 Z-1.000000 F50.0(Penetrate)
G03 X22.121884 Y43.429768 Z-1.000000 I-1.755622 J-0.571852 F200.000000
G03 X21.212179 Y43.744157 Z-1.000000 I-0.911081 J-1.162934
G03 X20.528445 Y43.601788 Z-1.000000 I-0.001591 J-1.705385
G03 X20.039690 Y43.232451 Z-1.000000 I0.524855 J-1.202615
G03 X19.723586 Y42.587065 Z-1.000000 I1.204070 J-0.989849
G03 X19.525938 Y40.965178 Z-1.000000 I7.858030 J-1.780587
G01 X19.502188 Y39.759759 Z-1.000000
G01 X18.637151 Y39.760565 Z-1.000000
G01 X17.772114 Y39.761371 Z-1.000000
G01 X17.773214 Y41.529350 Z-1.000000
G01 X17.774314 Y43.297330 Z-1.000000
G01 X17.457686 Y43.297625 Z-1.000000
G01 X17.141058 Y43.297920 Z-1.000000
G01 X17.139658 Y41.047764 Z-1.000000
G01 X17.138258 Y38.797609 Z-1.000000
G01 X20.018180 Y38.794909 Z-1.000000
G01 X22.898102 Y38.792209 Z-1.000000
G01 X22.880442 Y40.479843 Z-1.000000
G03 X22.814200 Y42.159502 Z-1.000000 I-29.026291 J-0.303601
G03 X22.738803 Y42.548114 Z-1.000000 I-1.606116 J-0.109991
G01 X22.738806 Y42.548146 Z-1.000000
G00 Z6.000000

(End cutting path id: path909)


(Start cutting path id: path909)
(Change tool to Cylindrical cutter)

G00 Z6.000000
G00 X22.316571 Y46.460717

G01 Z-1.000000 F50.0(Penetrate)
G02 X22.003265 Y46.071940 Z-1.000000 I-0.741334 J0.276792 F200.000000
G02 X21.513450 Y45.944228 Z-1.000000 I-0.439912 J0.684047
G02 X21.111259 Y46.101466 Z-1.000000 I0.043262 J0.703649
G02 X20.821314 Y46.508485 Z-1.000000 I0.596528 J0.731727
G02 X20.752238 Y46.804410 Z-1.000000 I1.174056 J0.430075
G02 X20.690297 Y47.722518 Z-1.000000 I11.401107 J1.230335
G01 X20.665097 Y48.647661 Z-1.000000
G01 X21.028787 Y48.600661 Z-1.000000
G02 X21.660884 Y48.395778 Z-1.000000 I-0.231575 J-1.791945
G02 X22.099336 Y48.018081 Z-1.000000 I-0.655129 J-1.203849
G02 X22.406243 Y47.277329 Z-1.000000 I-1.272085 J-0.961004
G02 X22.316570 Y46.460721 Z-1.000000 I-1.657546 J-0.231209
G01 X22.316571 Y46.460717 Z-1.000000
G00 Z6.000000

(End cutting path id: path909)


(Start cutting path id: path909)
(Change tool to Cylindrical cutter)

G00 Z6.000000
G00 X22.316571 Y46.460717

G01 Z-1.000000 F50.0(Penetrate)
G02 X22.003265 Y46.071940 Z-1.000000 I-0.741334 J0.276792 F200.000000
G02 X21.513450 Y45.944228 Z-1.000000 I-0.439912 J0.684047
G02 X21.111259 Y46.101466 Z-1.000000 I0.043262 J0.703649
G02 X20.821314 Y46.508485 Z-1.000000 I0.596528 J0.731727
G02 X20.752238 Y46.804410 Z-1.000000 I1.174056 J0.430075
G02 X20.690297 Y47.722518 Z-1.000000 I11.401107 J1.230335
G01 X20.665097 Y48.647661 Z-1.000000
G01 X21.028787 Y48.600661 Z-1.000000
G02 X21.660884 Y48.395778 Z-1.000000 I-0.231575 J-1.791945
G02 X22.099336 Y48.018081 Z-1.000000 I-0.655129 J-1.203849
G02 X22.406243 Y47.277329 Z-1.000000 I-1.272085 J-0.961004
G02 X22.316570 Y46.460721 Z-1.000000 I-1.657546 J-0.231209
G01 X22.316571 Y46.460717 Z-1.000000
G00 Z6.000000

(End cutting path id: path909)


(Start cutting path id: path909)
(Change tool to Cylindrical cutter)

G00 Z6.000000
G00 X22.850397 Y47.758661

G01 Z-1.000000 F50.0(Penetrate)
G03 X22.705380 Y48.061327 Z-1.000000 I-1.637668 J-0.598586 F200.000000
G03 X22.491120 Y48.353680 Z-1.000000 I-1.740607 J-1.050966
G01 X22.248599 Y48.629246 Z-1.000000
G01 X22.572553 Y48.628944 Z-1.000000
G01 X22.896508 Y48.628642 Z-1.000000
G01 X22.896770 Y49.046528 Z-1.000000
G01 X22.897033 Y49.464414 Z-1.000000
G01 X21.398609 Y49.465814 Z-1.000000
G03 X19.909889 Y49.413594 Z-1.000000 I-0.019652 J-20.686435
G03 X19.544824 Y49.333855 Z-1.000000 I0.092479 J-1.298945
G03 X18.965999 Y48.933328 Z-1.000000 I0.507137 J-1.351405
G03 X18.589808 Y48.243166 Z-1.000000 I1.354199 J-1.185748
G03 X18.451223 Y47.194269 Z-1.000000 I3.458682 J-0.990579
G03 X18.627268 Y45.932436 Z-1.000000 I5.216379 J0.084567
G01 X18.756101 Y45.450139 Z-1.000000
G01 X19.078668 Y45.430859 Z-1.000000
G01 X19.401235 Y45.411579 Z-1.000000
G01 X19.273187 Y45.798643 Z-1.000000
G02 X19.047291 Y47.475679 Z-1.000000 I4.353150 J1.440100
G02 X19.404303 Y48.332629 Z-1.000000 I1.378162 J-0.071311
G02 X19.697824 Y48.549451 Z-1.000000 I0.690530 J-0.627714
G02 X20.033661 Y48.628487 Z-1.000000 I0.354883 J-0.754925
G02 X20.096934 Y48.574452 Z-1.000000 I0.001434 J-0.062383
G02 X20.152623 Y47.747207 Z-1.000000 I-6.139831 J-0.828825
G03 X20.234456 Y46.438144 Z-1.000000 I10.554536 J0.002699
G03 X20.388214 Y45.866308 Z-1.000000 I2.134573 J0.267367
G03 X20.942293 Y45.229015 Z-1.000000 I1.255208 J0.531798
G03 X21.757413 Y45.045170 Z-1.000000 I0.686453 J1.144620
G03 X22.464592 Y45.361953 Z-1.000000 I-0.117125 J1.209204
G03 X22.922462 Y46.121298 Z-1.000000 I-1.079349 J1.168541
G03 X23.012235 Y46.948618 Z-1.000000 I-2.654278 J0.706547
G03 X22.850392 Y47.758659 Z-1.000000 I-2.703684 J-0.118996
G01 X22.850397 Y47.758661 Z-1.000000
G00 Z6.000000

(End cutting path id: path909)


(Start cutting path id: path909)
(Change tool to Cylindrical cutter)

G00 Z6.000000
G00 X22.850397 Y47.758661

G01 Z-1.000000 F50.0(Penetrate)
G03 X22.705380 Y48.061327 Z-1.000000 I-1.637668 J-0.598586 F200.000000
G03 X22.491120 Y48.353680 Z-1.000000 I-1.740607 J-1.050966
G01 X22.248599 Y48.629246 Z-1.000000
G01 X22.572553 Y48.628944 Z-1.000000
G01 X22.896508 Y48.628642 Z-1.000000
G01 X22.896770 Y49.046528 Z-1.000000
G01 X22.897033 Y49.464414 Z-1.000000
G01 X21.398609 Y49.465814 Z-1.000000
G03 X19.909889 Y49.413594 Z-1.000000 I-0.019652 J-20.686435
G03 X19.544824 Y49.333855 Z-1.000000 I0.092479 J-1.298945
G03 X18.965999 Y48.933328 Z-1.000000 I0.507137 J-1.351405
G03 X18.589808 Y48.243166 Z-1.000000 I1.354199 J-1.185748
G03 X18.451223 Y47.194269 Z-1.000000 I3.458682 J-0.990579
G03 X18.627268 Y45.932436 Z-1.000000 I5.216379 J0.084567
G01 X18.756101 Y45.450139 Z-1.000000
G01 X19.078668 Y45.430859 Z-1.000000
G01 X19.401235 Y45.411579 Z-1.000000
G01 X19.273187 Y45.798643 Z-1.000000
G02 X19.047291 Y47.475679 Z-1.000000 I4.353150 J1.440100
G02 X19.404303 Y48.332629 Z-1.000000 I1.378162 J-0.071311
G02 X19.697824 Y48.549451 Z-1.000000 I0.690530 J-0.627714
G02 X20.033661 Y48.628487 Z-1.000000 I0.354883 J-0.754925
G02 X20.096934 Y48.574452 Z-1.000000 I0.001434 J-0.062383
G02 X20.152623 Y47.747207 Z-1.000000 I-6.139831 J-0.828825
G03 X20.234456 Y46.438144 Z-1.000000 I10.554536 J0.002699
G03 X20.388214 Y45.866308 Z-1.000000 I2.134573 J0.267367
G03 X20.942293 Y45.229015 Z-1.000000 I1.255208 J0.531798
G03 X21.757413 Y45.045170 Z-1.000000 I0.686453 J1.144620
G03 X22.464592 Y45.361953 Z-1.000000 I-0.117125 J1.209204
G03 X22.922462 Y46.121298 Z-1.000000 I-1.079349 J1.168541
G03 X23.012235 Y46.948618 Z-1.000000 I-2.654278 J0.706547
G03 X22.850392 Y47.758659 Z-1.000000 I-2.703684 J-0.118996
G01 X22.850397 Y47.758661 Z-1.000000
G00 Z6.000000

(End cutting path id: path909)


(Start cutting path id: path909)
(Change tool to Cylindrical cutter)

G00 Z6.000000
G00 X21.869647 Y52.101270

G01 Z-1.000000 F50.0(Penetrate)
G01 X20.840606 Y52.102229 Z-1.000000 F200.000000
G01 X20.841494 Y53.516612 Z-1.000000
G01 X20.842382 Y54.930996 Z-1.000000
G01 X21.871423 Y54.930037 Z-1.000000
G01 X22.900464 Y54.929078 Z-1.000000
G01 X22.900747 Y55.379109 Z-1.000000
G01 X22.901029 Y55.829140 Z-1.000000
G01 X20.737405 Y55.831140 Z-1.000000
G01 X18.573781 Y55.833140 Z-1.000000
G01 X18.573498 Y55.383109 Z-1.000000
G01 X18.573215 Y54.933078 Z-1.000000
G01 X19.443942 Y54.932266 Z-1.000000
G01 X20.314669 Y54.931455 Z-1.000000
G01 X20.313781 Y53.517071 Z-1.000000
G01 X20.312893 Y52.102688 Z-1.000000
G01 X19.442166 Y52.103499 Z-1.000000
G01 X18.571439 Y52.104311 Z-1.000000
G01 X18.571177 Y51.686425 Z-1.000000
G01 X18.570914 Y51.268539 Z-1.000000
G01 X20.734539 Y51.266539 Z-1.000000
G01 X22.898163 Y51.264539 Z-1.000000
G01 X22.898426 Y51.682425 Z-1.000000
G01 X22.898688 Y52.100311 Z-1.000000
G01 X21.869647 Y52.101270 Z-1.000000
G00 Z6.000000

(End cutting path id: path909)


(Start cutting path id: path909)
(Change tool to Cylindrical cutter)

G00 Z6.000000
G00 X21.869647 Y52.101270

G01 Z-1.000000 F50.0(Penetrate)
G01 X20.840606 Y52.102229 Z-1.000000 F200.000000
G01 X20.841494 Y53.516612 Z-1.000000
G01 X20.842382 Y54.930996 Z-1.000000
G01 X21.871423 Y54.930037 Z-1.000000
G01 X22.900464 Y54.929078 Z-1.000000
G01 X22.900747 Y55.379109 Z-1.000000
G01 X22.901029 Y55.829140 Z-1.000000
G01 X20.737405 Y55.831140 Z-1.000000
G01 X18.573781 Y55.833140 Z-1.000000
G01 X18.573498 Y55.383109 Z-1.000000
G01 X18.573215 Y54.933078 Z-1.000000
G01 X19.443942 Y54.932266 Z-1.000000
G01 X20.314669 Y54.931455 Z-1.000000
G01 X20.313781 Y53.517071 Z-1.000000
G01 X20.312893 Y52.102688 Z-1.000000
G01 X19.442166 Y52.103499 Z-1.000000
G01 X18.571439 Y52.104311 Z-1.000000
G01 X18.571177 Y51.686425 Z-1.000000
G01 X18.570914 Y51.268539 Z-1.000000
G01 X20.734539 Y51.266539 Z-1.000000
G01 X22.898163 Y51.264539 Z-1.000000
G01 X22.898426 Y51.682425 Z-1.000000
G01 X22.898688 Y52.100311 Z-1.000000
G01 X21.869647 Y52.101270 Z-1.000000
G00 Z6.000000

(End cutting path id: path909)


(Start cutting path id: path909)
(Change tool to Cylindrical cutter)

G00 Z6.000000
G00 X21.966287 Y58.938279

G01 Z-1.000000 F50.0(Penetrate)
G01 X21.056462 Y59.703596 Z-1.000000 F200.000000
G01 X21.056800 Y60.242400 Z-1.000000
G01 X21.057138 Y60.781203 Z-1.000000
G01 X21.980637 Y60.780343 Z-1.000000
G01 X22.904135 Y60.779482 Z-1.000000
G01 X22.904417 Y61.229513 Z-1.000000
G01 X22.904700 Y61.679544 Z-1.000000
G01 X20.736756 Y61.681544 Z-1.000000
G01 X18.568813 Y61.683544 Z-1.000000
G01 X18.585583 Y60.220927 Z-1.000000
G03 X18.649969 Y58.767269 Z-1.000000 I22.183151 J0.254285
G03 X18.723288 Y58.437546 Z-1.000000 I1.191970 J0.092040
G03 X19.198614 Y57.788186 Z-1.000000 I1.404784 J0.529642
G03 X19.824753 Y57.569213 Z-1.000000 I0.631502 J0.801049
G03 X20.424339 Y57.776988 Z-1.000000 I0.004964 J0.954689
G03 X20.893749 Y58.420282 Z-1.000000 I-0.936351 J1.176164
G01 X21.034444 Y58.791451 Z-1.000000
G01 X21.946231 Y58.017487 Z-1.000000
G03 X22.860851 Y57.251224 Z-1.000000 I59.799381 J70.448161
G01 X22.882279 Y57.243501 Z-1.000000
G01 X22.894325 Y57.255304 Z-1.000000
G03 X22.891279 Y57.708200 Z-1.000000 I-8.654045 J0.168249
G01 X22.876069 Y58.172922 Z-1.000000
G01 X21.966287 Y58.938279 Z-1.000000
G00 Z6.000000

(End cutting path id: path909)


(Start cutting path id: path909)
(Change tool to Cylindrical cutter)

G00 Z6.000000
G00 X21.966287 Y58.938279

G01 Z-1.000000 F50.0(Penetrate)
G01 X21.056462 Y59.703596 Z-1.000000 F200.000000
G01 X21.056800 Y60.242400 Z-1.000000
G01 X21.057138 Y60.781203 Z-1.000000
G01 X21.980637 Y60.780343 Z-1.000000
G01 X22.904135 Y60.779482 Z-1.000000
G01 X22.904417 Y61.229513 Z-1.000000
G01 X22.904700 Y61.679544 Z-1.000000
G01 X20.736756 Y61.681544 Z-1.000000
G01 X18.568813 Y61.683544 Z-1.000000
G01 X18.585583 Y60.220927 Z-1.000000
G03 X18.649969 Y58.767269 Z-1.000000 I22.183151 J0.254285
G03 X18.723288 Y58.437546 Z-1.000000 I1.191970 J0.092040
G03 X19.198614 Y57.788186 Z-1.000000 I1.404784 J0.529642
G03 X19.824753 Y57.569213 Z-1.000000 I0.631502 J0.801049
G03 X20.424339 Y57.776988 Z-1.000000 I0.004964 J0.954689
G03 X20.893749 Y58.420282 Z-1.000000 I-0.936351 J1.176164
G01 X21.034444 Y58.791451 Z-1.000000
G01 X21.946231 Y58.017487 Z-1.000000
G03 X22.860851 Y57.251224 Z-1.000000 I59.799381 J70.448161
G01 X22.882279 Y57.243501 Z-1.000000
G01 X22.894325 Y57.255304 Z-1.000000
G03 X22.891279 Y57.708200 Z-1.000000 I-8.654045 J0.168249
G01 X22.876069 Y58.172922 Z-1.000000
G01 X21.966287 Y58.938279 Z-1.000000
G00 Z6.000000

(End cutting path id: path909)


(Start cutting path id: path909)
(Change tool to Cylindrical cutter)

G00 Z6.000000
G00 X20.490723 Y59.206622

G01 Z-1.000000 F50.0(Penetrate)
G02 X20.203393 Y58.638645 Z-1.000000 I-1.161307 J0.230819 F200.000000
G02 X19.815559 Y58.467913 Z-1.000000 I-0.387346 J0.354026
G02 X19.403876 Y58.729675 Z-1.000000 I0.000425 J0.455283
G02 X19.113332 Y59.963315 Z-1.000000 I2.781329 J1.306087
G01 X19.094002 Y60.783033 Z-1.000000
G01 X19.811715 Y60.782364 Z-1.000000
G01 X20.529427 Y60.781695 Z-1.000000
G01 X20.522827 Y60.058437 Z-1.000000
G02 X20.505933 Y59.336243 Z-1.000000 I-25.190987 J0.227977
G02 X20.490697 Y59.206622 Z-1.000000 I-0.823365 J0.031077
G01 X20.490723 Y59.206622 Z-1.000000
G00 Z6.000000

(End cutting path id: path909)


(Start cutting path id: path909)
(Change tool to Cylindrical cutter)

G00 Z6.000000
G00 X20.490723 Y59.206622

G01 Z-1.000000 F50.0(Penetrate)
G02 X20.203393 Y58.638645 Z-1.000000 I-1.161307 J0.230819 F200.000000
G02 X19.815559 Y58.467913 Z-1.000000 I-0.387346 J0.354026
G02 X19.403876 Y58.729675 Z-1.000000 I0.000425 J0.455283
G02 X19.113332 Y59.963315 Z-1.000000 I2.781329 J1.306087
G01 X19.094002 Y60.783033 Z-1.000000
G01 X19.811715 Y60.782364 Z-1.000000
G01 X20.529427 Y60.781695 Z-1.000000
G01 X20.522827 Y60.058437 Z-1.000000
G02 X20.505933 Y59.336243 Z-1.000000 I-25.190987 J0.227977
G02 X20.490697 Y59.206622 Z-1.000000 I-0.823365 J0.031077
G01 X20.490723 Y59.206622 Z-1.000000
G00 Z6.000000

(End cutting path id: path909)


(Footer)
M5
G00 X0.0000 Y0.0000
M2
(Using default footer. To add your own footer create file "footer" in the output dir.)
(end)
%