%
(Header)
(Generated by gcodetools from Inkscape.)
(Using default header. To add your own header create file "header" in the output dir.)
M3
(Header end.)
G21 (All units in mm)
(Start cutting path id: path5053)
(Change tool to Cylindrical cutter)
G00 Z6.000000
G00 X1.225707 Y96.256101
G01 Z-1.000000 F100.0(Penetrate)
G01 X1.225707 Y96.161229 Z-1.000000 F150.000000
G01 X39.174678 Y96.161229 Z-1.000000
G01 X35.759271 Y96.256101 Z-1.000000
G01 X28.074604 Y96.256101 Z-1.000000
G01 X1.225707 Y96.256101 Z-1.000000
G00 Z6.000000
(End cutting path id: path5053)
(Start cutting path id: path5053)
(Change tool to Cylindrical cutter)
G00 Z6.000000
G00 X1.225707 Y96.256101
G01 Z-1.000000 F100.0(Penetrate)
G01 X1.225707 Y96.161229 Z-1.000000 F250.000000
G01 X39.174678 Y96.161229 Z-1.000000
G01 X35.759271 Y96.256101 Z-1.000000
G01 X28.074604 Y96.256101 Z-1.000000
G01 X1.225707 Y96.256101 Z-1.000000
G00 Z6.000000
(End cutting path id: path5053)
(Start cutting path id: path5053)
(Change tool to Cylindrical cutter)
G00 Z6.000000
G00 X1.225707 Y96.066356
G01 Z-1.000000 F100.0(Penetrate)
G01 X1.225707 Y95.971484 Z-1.000000 F250.000000
G01 X39.174678 Y95.971484 Z-1.000000
G01 X35.759271 Y96.066356 Z-1.000000
G01 X28.074604 Y96.066356 Z-1.000000
G01 X1.225707 Y96.066356 Z-1.000000
G00 Z6.000000
(End cutting path id: path5053)
(Start cutting path id: path5053)
(Change tool to Cylindrical cutter)
G00 Z6.000000
G00 X1.225707 Y96.066356
G01 Z-1.000000 F100.0(Penetrate)
G01 X1.225707 Y95.971484 Z-1.000000 F250.000000
G01 X39.174678 Y95.971484 Z-1.000000
G01 X35.759271 Y96.066356 Z-1.000000
G01 X28.074604 Y96.066356 Z-1.000000
G01 X1.225707 Y96.066356 Z-1.000000
G00 Z6.000000
(End cutting path id: path5053)
(Start cutting path id: path5053)
(Change tool to Cylindrical cutter)
G00 Z6.000000
G00 X1.225707 Y95.876611
G01 Z-1.000000 F100.0(Penetrate)
G01 X1.225707 Y95.781739 Z-1.000000 F250.000000
G01 X39.174678 Y95.781739 Z-1.000000
G01 X35.759271 Y95.876611 Z-1.000000
G01 X28.074604 Y95.876611 Z-1.000000
G01 X1.225707 Y95.876611 Z-1.000000
G00 Z6.000000
(End cutting path id: path5053)
(Start cutting path id: path5053)
(Change tool to Cylindrical cutter)
G00 Z6.000000
G00 X1.225707 Y95.876611
G01 Z-1.000000 F100.0(Penetrate)
G01 X1.225707 Y95.781739 Z-1.000000 F250.000000
G01 X39.174678 Y95.781739 Z-1.000000
G01 X35.759271 Y95.876611 Z-1.000000
G01 X28.074604 Y95.876611 Z-1.000000
G01 X1.225707 Y95.876611 Z-1.000000
G00 Z6.000000
(End cutting path id: path5053)
(Start cutting path id: path5053)
(Change tool to Cylindrical cutter)
G00 Z6.000000
G00 X1.225707 Y95.686866
G01 Z-1.000000 F100.0(Penetrate)
G01 X1.225707 Y95.591994 Z-1.000000 F250.000000
G01 X39.174678 Y95.591994 Z-1.000000
G01 X35.759271 Y95.686866 Z-1.000000
G01 X28.074604 Y95.686866 Z-1.000000
G01 X1.225707 Y95.686866 Z-1.000000
G00 Z6.000000
(End cutting path id: path5053)
(Start cutting path id: path5053)
(Change tool to Cylindrical cutter)
G00 Z6.000000
G00 X1.225707 Y95.686866
G01 Z-1.000000 F100.0(Penetrate)
G01 X1.225707 Y95.591994 Z-1.000000 F250.000000
G01 X39.174678 Y95.591994 Z-1.000000
G01 X35.759271 Y95.686866 Z-1.000000
G01 X28.074604 Y95.686866 Z-1.000000
G01 X1.225707 Y95.686866 Z-1.000000
G00 Z6.000000
(End cutting path id: path5053)
(Start cutting path id: path5053)
(Change tool to Cylindrical cutter)
G00 Z6.000000
G00 X1.225707 Y95.497121
G01 Z-1.000000 F100.0(Penetrate)
G01 X1.225707 Y95.402248 Z-1.000000 F250.000000
G01 X39.174678 Y95.402248 Z-1.000000
G01 X35.759271 Y95.497121 Z-1.000000
G01 X28.074604 Y95.497121 Z-1.000000
G01 X1.225707 Y95.497121 Z-1.000000
G00 Z6.000000
(End cutting path id: path5053)
(Start cutting path id: path5053)
(Change tool to Cylindrical cutter)
G00 Z6.000000
G00 X1.225707 Y95.497121
G01 Z-1.000000 F100.0(Penetrate)
G01 X1.225707 Y95.402248 Z-1.000000 F250.000000
G01 X39.174678 Y95.402248 Z-1.000000
G01 X35.759271 Y95.497121 Z-1.000000
G01 X28.074604 Y95.497121 Z-1.000000
G01 X1.225707 Y95.497121 Z-1.000000
G00 Z6.000000
(End cutting path id: path5053)
(Start cutting path id: path5053)
(Change tool to Cylindrical cutter)
G00 Z6.000000
G00 X1.225707 Y95.307377
G01 Z-1.000000 F100.0(Penetrate)
G01 X1.225707 Y95.212504 Z-1.000000 F250.000000
G01 X39.174678 Y95.212504 Z-1.000000
G01 X35.759271 Y95.307377 Z-1.000000
G01 X28.074604 Y95.307377 Z-1.000000
G01 X1.225707 Y95.307377 Z-1.000000
G00 Z6.000000
(End cutting path id: path5053)
(Start cutting path id: path5053)
(Change tool to Cylindrical cutter)
G00 Z6.000000
G00 X1.225707 Y95.307377
G01 Z-1.000000 F100.0(Penetrate)
G01 X1.225707 Y95.212504 Z-1.000000 F250.000000
G01 X39.174678 Y95.212504 Z-1.000000
G01 X35.759271 Y95.307377 Z-1.000000
G01 X28.074604 Y95.307377 Z-1.000000
G01 X1.225707 Y95.307377 Z-1.000000
G00 Z6.000000
(End cutting path id: path5053)
(Start cutting path id: path5053)
(Change tool to Cylindrical cutter)
G00 Z6.000000
G00 X1.225707 Y95.117632
G01 Z-1.000000 F100.0(Penetrate)
G01 X1.225707 Y95.022760 Z-1.000000 F250.000000
G01 X39.174678 Y95.022760 Z-1.000000
G01 X35.759271 Y95.117632 Z-1.000000
G01 X28.074604 Y95.117632 Z-1.000000
G01 X1.225707 Y95.117632 Z-1.000000
G00 Z6.000000
(End cutting path id: path5053)
(Start cutting path id: path5053)
(Change tool to Cylindrical cutter)
G00 Z6.000000
G00 X1.225707 Y95.117632
G01 Z-1.000000 F100.0(Penetrate)
G01 X1.225707 Y95.022760 Z-1.000000 F250.000000
G01 X39.174678 Y95.022760 Z-1.000000
G01 X35.759271 Y95.117632 Z-1.000000
G01 X28.074604 Y95.117632 Z-1.000000
G01 X1.225707 Y95.117632 Z-1.000000
G00 Z6.000000
(End cutting path id: path5053)
(Start cutting path id: path5053)
(Change tool to Cylindrical cutter)
G00 Z6.000000
G00 X1.225707 Y94.927887
G01 Z-1.000000 F100.0(Penetrate)
G01 X1.225707 Y94.833015 Z-1.000000 F250.000000
G01 X39.174678 Y94.833015 Z-1.000000
G01 X35.759271 Y94.927887 Z-1.000000
G01 X28.074604 Y94.927887 Z-1.000000
G01 X1.225707 Y94.927887 Z-1.000000
G00 Z6.000000
(End cutting path id: path5053)
(Start cutting path id: path5053)
(Change tool to Cylindrical cutter)
G00 Z6.000000
G00 X1.225707 Y94.927887
G01 Z-1.000000 F100.0(Penetrate)
G01 X1.225707 Y94.833015 Z-1.000000 F250.000000
G01 X39.174678 Y94.833015 Z-1.000000
G01 X35.759271 Y94.927887 Z-1.000000
G01 X28.074604 Y94.927887 Z-1.000000
G01 X1.225707 Y94.927887 Z-1.000000
G00 Z6.000000
(End cutting path id: path5053)
(Start cutting path id: path5053)
(Change tool to Cylindrical cutter)
G00 Z6.000000
G00 X1.225707 Y94.738142
G01 Z-1.000000 F100.0(Penetrate)
G01 X1.225707 Y94.643270 Z-1.000000 F250.000000
G01 X39.174678 Y94.643270 Z-1.000000
G01 X35.759271 Y94.738142 Z-1.000000
G01 X28.074604 Y94.738142 Z-1.000000
G01 X1.225707 Y94.738142 Z-1.000000
G00 Z6.000000
(End cutting path id: path5053)
(Start cutting path id: path5053)
(Change tool to Cylindrical cutter)
G00 Z6.000000
G00 X1.225707 Y94.738142
G01 Z-1.000000 F100.0(Penetrate)
G01 X1.225707 Y94.643270 Z-1.000000 F250.000000
G01 X39.174678 Y94.643270 Z-1.000000
G01 X35.759271 Y94.738142 Z-1.000000
G01 X28.074604 Y94.738142 Z-1.000000
G01 X1.225707 Y94.738142 Z-1.000000
G00 Z6.000000
(End cutting path id: path5053)
(Start cutting path id: path5053)
(Change tool to Cylindrical cutter)
G00 Z6.000000
G00 X1.225707 Y94.548397
G01 Z-1.000000 F100.0(Penetrate)
G01 X1.225707 Y94.453524 Z-1.000000 F250.000000
G01 X39.174678 Y94.453524 Z-1.000000
G01 X35.759271 Y94.548397 Z-1.000000
G01 X28.074604 Y94.548397 Z-1.000000
G01 X1.225707 Y94.548397 Z-1.000000
G00 Z6.000000
(End cutting path id: path5053)
(Start cutting path id: path5053)
(Change tool to Cylindrical cutter)
G00 Z6.000000
G00 X1.225707 Y94.548397
G01 Z-1.000000 F100.0(Penetrate)
G01 X1.225707 Y94.453524 Z-1.000000 F250.000000
G01 X39.174678 Y94.453524 Z-1.000000
G01 X35.759271 Y94.548397 Z-1.000000
G01 X28.074604 Y94.548397 Z-1.000000
G01 X1.225707 Y94.548397 Z-1.000000
G00 Z6.000000
(End cutting path id: path5053)
(Start cutting path id: path5053)
(Change tool to Cylindrical cutter)
G00 Z6.000000
G00 X1.225707 Y94.358652
G01 Z-1.000000 F100.0(Penetrate)
G01 X1.225707 Y94.263780 Z-1.000000 F250.000000
G01 X39.174678 Y94.263780 Z-1.000000
G01 X35.759271 Y94.358652 Z-1.000000
G01 X28.074604 Y94.358652 Z-1.000000
G01 X1.225707 Y94.358652 Z-1.000000
G00 Z6.000000
(End cutting path id: path5053)
(Start cutting path id: path5053)
(Change tool to Cylindrical cutter)
G00 Z6.000000
G00 X1.225707 Y94.358652
G01 Z-1.000000 F100.0(Penetrate)
G01 X1.225707 Y94.263780 Z-1.000000 F250.000000
G01 X39.174678 Y94.263780 Z-1.000000
G01 X35.759271 Y94.358652 Z-1.000000
G01 X28.074604 Y94.358652 Z-1.000000
G01 X1.225707 Y94.358652 Z-1.000000
G00 Z6.000000
(End cutting path id: path5053)
(Start cutting path id: path5053)
(Change tool to Cylindrical cutter)
G00 Z6.000000
G00 X1.225707 Y94.168907
G01 Z-1.000000 F100.0(Penetrate)
G01 X1.225707 Y94.074034 Z-1.000000 F250.000000
G01 X39.174678 Y94.074034 Z-1.000000
G01 X35.759271 Y94.168907 Z-1.000000
G01 X28.074604 Y94.168907 Z-1.000000
G01 X1.225707 Y94.168907 Z-1.000000
G00 Z6.000000
(End cutting path id: path5053)
(Start cutting path id: path5053)
(Change tool to Cylindrical cutter)
G00 Z6.000000
G00 X1.225707 Y94.168907
G01 Z-1.000000 F100.0(Penetrate)
G01 X1.225707 Y94.074034 Z-1.000000 F250.000000
G01 X39.174678 Y94.074034 Z-1.000000
G01 X35.759271 Y94.168907 Z-1.000000
G01 X28.074604 Y94.168907 Z-1.000000
G01 X1.225707 Y94.168907 Z-1.000000
G00 Z6.000000
(End cutting path id: path5053)
(Start cutting path id: path5053)
(Change tool to Cylindrical cutter)
G00 Z6.000000
G00 X1.225707 Y93.979163
G01 Z-1.000000 F100.0(Penetrate)
G01 X1.225707 Y93.884291 Z-1.000000 F250.000000
G01 X39.174678 Y93.884291 Z-1.000000
G01 X35.759271 Y93.979163 Z-1.000000
G01 X28.074604 Y93.979163 Z-1.000000
G01 X1.225707 Y93.979163 Z-1.000000
G00 Z6.000000
(End cutting path id: path5053)
(Start cutting path id: path5053)
(Change tool to Cylindrical cutter)
G00 Z6.000000
G00 X1.225707 Y93.979163
G01 Z-1.000000 F100.0(Penetrate)
G01 X1.225707 Y93.884291 Z-1.000000 F250.000000
G01 X39.174678 Y93.884291 Z-1.000000
G01 X35.759271 Y93.979163 Z-1.000000
G01 X28.074604 Y93.979163 Z-1.000000
G01 X1.225707 Y93.979163 Z-1.000000
G00 Z6.000000
(End cutting path id: path5053)
(Start cutting path id: path5053)
(Change tool to Cylindrical cutter)
G00 Z6.000000
G00 X1.225707 Y93.789418
G01 Z-1.000000 F100.0(Penetrate)
G01 X1.225707 Y93.694546 Z-1.000000 F250.000000
G01 X39.174678 Y93.694546 Z-1.000000
G01 X35.759271 Y93.789418 Z-1.000000
G01 X28.074604 Y93.789418 Z-1.000000
G01 X1.225707 Y93.789418 Z-1.000000
G00 Z6.000000
(End cutting path id: path5053)
(Start cutting path id: path5053)
(Change tool to Cylindrical cutter)
G00 Z6.000000
G00 X1.225707 Y93.789418
G01 Z-1.000000 F100.0(Penetrate)
G01 X1.225707 Y93.694546 Z-1.000000 F250.000000
G01 X39.174678 Y93.694546 Z-1.000000
G01 X35.759271 Y93.789418 Z-1.000000
G01 X28.074604 Y93.789418 Z-1.000000
G01 X1.225707 Y93.789418 Z-1.000000
G00 Z6.000000
(End cutting path id: path5053)
(Start cutting path id: path5053)
(Change tool to Cylindrical cutter)
G00 Z6.000000
G00 X1.225707 Y93.599673
G01 Z-1.000000 F100.0(Penetrate)
G01 X1.225707 Y93.504801 Z-1.000000 F250.000000
G01 X39.174678 Y93.504801 Z-1.000000
G01 X35.759271 Y93.599673 Z-1.000000
G01 X28.074604 Y93.599673 Z-1.000000
G01 X1.225707 Y93.599673 Z-1.000000
G00 Z6.000000
(End cutting path id: path5053)
(Start cutting path id: path5053)
(Change tool to Cylindrical cutter)
G00 Z6.000000
G00 X1.225707 Y93.599673
G01 Z-1.000000 F100.0(Penetrate)
G01 X1.225707 Y93.504801 Z-1.000000 F250.000000
G01 X39.174678 Y93.504801 Z-1.000000
G01 X35.759271 Y93.599673 Z-1.000000
G01 X28.074604 Y93.599673 Z-1.000000
G01 X1.225707 Y93.599673 Z-1.000000
G00 Z6.000000
(End cutting path id: path5053)
(Start cutting path id: path5053)
(Change tool to Cylindrical cutter)
G00 Z6.000000
G00 X1.225707 Y93.409928
G01 Z-1.000000 F100.0(Penetrate)
G01 X1.225707 Y93.315056 Z-1.000000 F250.000000
G01 X39.174678 Y93.315056 Z-1.000000
G01 X35.759271 Y93.409928 Z-1.000000
G01 X28.074604 Y93.409928 Z-1.000000
G01 X1.225707 Y93.409928 Z-1.000000
G00 Z6.000000
(End cutting path id: path5053)
(Start cutting path id: path5053)
(Change tool to Cylindrical cutter)
G00 Z6.000000
G00 X1.225707 Y93.409928
G01 Z-1.000000 F100.0(Penetrate)
G01 X1.225707 Y93.315056 Z-1.000000 F250.000000
G01 X39.174678 Y93.315056 Z-1.000000
G01 X35.759271 Y93.409928 Z-1.000000
G01 X28.074604 Y93.409928 Z-1.000000
G01 X1.225707 Y93.409928 Z-1.000000
G00 Z6.000000
(End cutting path id: path5053)
(Start cutting path id: path5053)
(Change tool to Cylindrical cutter)
G00 Z6.000000
G00 X1.225707 Y93.220183
G01 Z-1.000000 F100.0(Penetrate)
G01 X1.225707 Y93.125310 Z-1.000000 F250.000000
G01 X39.174678 Y93.125310 Z-1.000000
G01 X35.759271 Y93.220183 Z-1.000000
G01 X28.074604 Y93.220183 Z-1.000000
G01 X1.225707 Y93.220183 Z-1.000000
G00 Z6.000000
(End cutting path id: path5053)
(Start cutting path id: path5053)
(Change tool to Cylindrical cutter)
G00 Z6.000000
G00 X1.225707 Y93.220183
G01 Z-1.000000 F100.0(Penetrate)
G01 X1.225707 Y93.125310 Z-1.000000 F250.000000
G01 X39.174678 Y93.125310 Z-1.000000
G01 X35.759271 Y93.220183 Z-1.000000
G01 X28.074604 Y93.220183 Z-1.000000
G01 X1.225707 Y93.220183 Z-1.000000
G00 Z6.000000
(End cutting path id: path5053)
(Start cutting path id: path5053)
(Change tool to Cylindrical cutter)
G00 Z6.000000
G00 X1.225707 Y93.030438
G01 Z-1.000000 F100.0(Penetrate)
G01 X1.225707 Y92.935566 Z-1.000000 F250.000000
G01 X39.174678 Y92.935566 Z-1.000000
G01 X35.759271 Y93.030438 Z-1.000000
G01 X28.074604 Y93.030438 Z-1.000000
G01 X1.225707 Y93.030438 Z-1.000000
G00 Z6.000000
(End cutting path id: path5053)
(Start cutting path id: path5053)
(Change tool to Cylindrical cutter)
G00 Z6.000000
G00 X1.225707 Y93.030438
G01 Z-1.000000 F100.0(Penetrate)
G01 X1.225707 Y92.935566 Z-1.000000 F250.000000
G01 X39.174678 Y92.935566 Z-1.000000
G01 X35.759271 Y93.030438 Z-1.000000
G01 X28.074604 Y93.030438 Z-1.000000
G01 X1.225707 Y93.030438 Z-1.000000
G00 Z6.000000
(End cutting path id: path5053)
(Start cutting path id: path5053)
(Change tool to Cylindrical cutter)
G00 Z6.000000
G00 X1.225707 Y92.840693
G01 Z-1.000000 F100.0(Penetrate)
G01 X1.225707 Y92.745820 Z-1.000000 F250.000000
G01 X39.174678 Y92.745820 Z-1.000000
G01 X35.759271 Y92.840693 Z-1.000000
G01 X28.074604 Y92.840693 Z-1.000000
G01 X1.225707 Y92.840693 Z-1.000000
G00 Z6.000000
(End cutting path id: path5053)
(Start cutting path id: path5053)
(Change tool to Cylindrical cutter)
G00 Z6.000000
G00 X1.225707 Y92.840693
G01 Z-1.000000 F100.0(Penetrate)
G01 X1.225707 Y92.745820 Z-1.000000 F250.000000
G01 X39.174678 Y92.745820 Z-1.000000
G01 X35.759271 Y92.840693 Z-1.000000
G01 X28.074604 Y92.840693 Z-1.000000
G01 X1.225707 Y92.840693 Z-1.000000
G00 Z6.000000
(End cutting path id: path5053)
(Start cutting path id: path5053)
(Change tool to Cylindrical cutter)
G00 Z6.000000
G00 X1.225707 Y92.650948
G01 Z-1.000000 F100.0(Penetrate)
G01 X1.225707 Y92.556077 Z-1.000000 F250.000000
G01 X39.174678 Y92.556077 Z-1.000000
G01 X35.759271 Y92.650948 Z-1.000000
G01 X28.074604 Y92.650948 Z-1.000000
G01 X1.225707 Y92.650948 Z-1.000000
G00 Z6.000000
(End cutting path id: path5053)
(Start cutting path id: path5053)
(Change tool to Cylindrical cutter)
G00 Z6.000000
G00 X1.225707 Y92.650948
G01 Z-1.000000 F100.0(Penetrate)
G01 X1.225707 Y92.556077 Z-1.000000 F250.000000
G01 X39.174678 Y92.556077 Z-1.000000
G01 X35.759271 Y92.650948 Z-1.000000
G01 X28.074604 Y92.650948 Z-1.000000
G01 X1.225707 Y92.650948 Z-1.000000
G00 Z6.000000
(End cutting path id: path5053)
(Start cutting path id: path5053)
(Change tool to Cylindrical cutter)
G00 Z6.000000
G00 X1.225707 Y92.461204
G01 Z-1.000000 F100.0(Penetrate)
G01 X1.225707 Y92.366332 Z-1.000000 F250.000000
G01 X39.174678 Y92.366332 Z-1.000000
G01 X35.759271 Y92.461204 Z-1.000000
G01 X28.074604 Y92.461204 Z-1.000000
G01 X1.225707 Y92.461204 Z-1.000000
G00 Z6.000000
(End cutting path id: path5053)
(Start cutting path id: path5053)
(Change tool to Cylindrical cutter)
G00 Z6.000000
G00 X1.225707 Y92.461204
G01 Z-1.000000 F100.0(Penetrate)
G01 X1.225707 Y92.366332 Z-1.000000 F250.000000
G01 X39.174678 Y92.366332 Z-1.000000
G01 X35.759271 Y92.461204 Z-1.000000
G01 X28.074604 Y92.461204 Z-1.000000
G01 X1.225707 Y92.461204 Z-1.000000
G00 Z6.000000
(End cutting path id: path5053)
(Start cutting path id: path5053)
(Change tool to Cylindrical cutter)
G00 Z6.000000
G00 X1.225707 Y92.271459
G01 Z-1.000000 F100.0(Penetrate)
G01 X1.225707 Y92.176587 Z-1.000000 F250.000000
G01 X39.174678 Y92.176587 Z-1.000000
G01 X35.759271 Y92.271459 Z-1.000000
G01 X28.074604 Y92.271459 Z-1.000000
G01 X1.225707 Y92.271459 Z-1.000000
G00 Z6.000000
(End cutting path id: path5053)
(Start cutting path id: path5053)
(Change tool to Cylindrical cutter)
G00 Z6.000000
G00 X1.225707 Y92.271459
G01 Z-1.000000 F100.0(Penetrate)
G01 X1.225707 Y92.176587 Z-1.000000 F250.000000
G01 X39.174678 Y92.176587 Z-1.000000
G01 X35.759271 Y92.271459 Z-1.000000
G01 X28.074604 Y92.271459 Z-1.000000
G01 X1.225707 Y92.271459 Z-1.000000
G00 Z6.000000
(End cutting path id: path5053)
(Start cutting path id: path5053)
(Change tool to Cylindrical cutter)
G00 Z6.000000
G00 X1.225707 Y92.081714
G01 Z-1.000000 F100.0(Penetrate)
G01 X1.225707 Y91.986842 Z-1.000000 F250.000000
G01 X39.174678 Y91.986842 Z-1.000000
G01 X35.759271 Y92.081714 Z-1.000000
G01 X28.074604 Y92.081714 Z-1.000000
G01 X1.225707 Y92.081714 Z-1.000000
G00 Z6.000000
(End cutting path id: path5053)
(Start cutting path id: path5053)
(Change tool to Cylindrical cutter)
G00 Z6.000000
G00 X1.225707 Y92.081714
G01 Z-1.000000 F100.0(Penetrate)
G01 X1.225707 Y91.986842 Z-1.000000 F250.000000
G01 X39.174678 Y91.986842 Z-1.000000
G01 X35.759271 Y92.081714 Z-1.000000
G01 X28.074604 Y92.081714 Z-1.000000
G01 X1.225707 Y92.081714 Z-1.000000
G00 Z6.000000
(End cutting path id: path5053)
(Start cutting path id: path5053)
(Change tool to Cylindrical cutter)
G00 Z6.000000
G00 X1.225707 Y91.891969
G01 Z-1.000000 F100.0(Penetrate)
G01 X1.225707 Y91.797096 Z-1.000000 F250.000000
G01 X39.174678 Y91.797096 Z-1.000000
G01 X35.759271 Y91.891969 Z-1.000000
G01 X28.074604 Y91.891969 Z-1.000000
G01 X1.225707 Y91.891969 Z-1.000000
G00 Z6.000000
(End cutting path id: path5053)
(Start cutting path id: path5053)
(Change tool to Cylindrical cutter)
G00 Z6.000000
G00 X1.225707 Y91.891969
G01 Z-1.000000 F100.0(Penetrate)
G01 X1.225707 Y91.797096 Z-1.000000 F250.000000
G01 X39.174678 Y91.797096 Z-1.000000
G01 X35.759271 Y91.891969 Z-1.000000
G01 X28.074604 Y91.891969 Z-1.000000
G01 X1.225707 Y91.891969 Z-1.000000
G00 Z6.000000
(End cutting path id: path5053)
(Start cutting path id: path5053)
(Change tool to Cylindrical cutter)
G00 Z6.000000
G00 X1.225707 Y91.702224
G01 Z-1.000000 F100.0(Penetrate)
G01 X1.225707 Y91.607352 Z-1.000000 F250.000000
G01 X39.174678 Y91.607352 Z-1.000000
G01 X35.759271 Y91.702224 Z-1.000000
G01 X28.074604 Y91.702224 Z-1.000000
G01 X1.225707 Y91.702224 Z-1.000000
G00 Z6.000000
(End cutting path id: path5053)
(Start cutting path id: path5053)
(Change tool to Cylindrical cutter)
G00 Z6.000000
G00 X1.225707 Y91.702224
G01 Z-1.000000 F100.0(Penetrate)
G01 X1.225707 Y91.607352 Z-1.000000 F250.000000
G01 X39.174678 Y91.607352 Z-1.000000
G01 X35.759271 Y91.702224 Z-1.000000
G01 X28.074604 Y91.702224 Z-1.000000
G01 X1.225707 Y91.702224 Z-1.000000
G00 Z6.000000
(End cutting path id: path5053)
(Start cutting path id: path5053)
(Change tool to Cylindrical cutter)
G00 Z6.000000
G00 X1.225707 Y91.512479
G01 Z-1.000000 F100.0(Penetrate)
G01 X1.225707 Y91.417606 Z-1.000000 F250.000000
G01 X39.174678 Y91.417606 Z-1.000000
G01 X35.759271 Y91.512479 Z-1.000000
G01 X28.074604 Y91.512479 Z-1.000000
G01 X1.225707 Y91.512479 Z-1.000000
G00 Z6.000000
(End cutting path id: path5053)
(Start cutting path id: path5053)
(Change tool to Cylindrical cutter)
G00 Z6.000000
G00 X1.225707 Y91.512479
G01 Z-1.000000 F100.0(Penetrate)
G01 X1.225707 Y91.417606 Z-1.000000 F250.000000
G01 X39.174678 Y91.417606 Z-1.000000
G01 X35.759271 Y91.512479 Z-1.000000
G01 X28.074604 Y91.512479 Z-1.000000
G01 X1.225707 Y91.512479 Z-1.000000
G00 Z6.000000
(End cutting path id: path5053)
(Start cutting path id: path5053)
(Change tool to Cylindrical cutter)
G00 Z6.000000
G00 X1.225707 Y91.322734
G01 Z-1.000000 F100.0(Penetrate)
G01 X1.225707 Y91.227863 Z-1.000000 F250.000000
G01 X39.174678 Y91.227863 Z-1.000000
G01 X35.759271 Y91.322734 Z-1.000000
G01 X28.074604 Y91.322734 Z-1.000000
G01 X1.225707 Y91.322734 Z-1.000000
G00 Z6.000000
(End cutting path id: path5053)
(Start cutting path id: path5053)
(Change tool to Cylindrical cutter)
G00 Z6.000000
G00 X1.225707 Y91.322734
G01 Z-1.000000 F100.0(Penetrate)
G01 X1.225707 Y91.227863 Z-1.000000 F250.000000
G01 X39.174678 Y91.227863 Z-1.000000
G01 X35.759271 Y91.322734 Z-1.000000
G01 X28.074604 Y91.322734 Z-1.000000
G01 X1.225707 Y91.322734 Z-1.000000
G00 Z6.000000
(End cutting path id: path5053)
(Start cutting path id: path5053)
(Change tool to Cylindrical cutter)
G00 Z6.000000
G00 X1.225707 Y91.132990
G01 Z-1.000000 F100.0(Penetrate)
G01 X1.225707 Y91.038118 Z-1.000000 F250.000000
G01 X39.174678 Y91.038118 Z-1.000000
G01 X35.759271 Y91.132990 Z-1.000000
G01 X28.074604 Y91.132990 Z-1.000000
G01 X1.225707 Y91.132990 Z-1.000000
G00 Z6.000000
(End cutting path id: path5053)
(Start cutting path id: path5053)
(Change tool to Cylindrical cutter)
G00 Z6.000000
G00 X1.225707 Y91.132990
G01 Z-1.000000 F100.0(Penetrate)
G01 X1.225707 Y91.038118 Z-1.000000 F250.000000
G01 X39.174678 Y91.038118 Z-1.000000
G01 X35.759271 Y91.132990 Z-1.000000
G01 X28.074604 Y91.132990 Z-1.000000
G01 X1.225707 Y91.132990 Z-1.000000
G00 Z6.000000
(End cutting path id: path5053)
(Start cutting path id: path5053)
(Change tool to Cylindrical cutter)
G00 Z6.000000
G00 X1.225707 Y90.943245
G01 Z-1.000000 F100.0(Penetrate)
G01 X1.225707 Y90.848372 Z-1.000000 F250.000000
G01 X39.174678 Y90.848372 Z-1.000000
G01 X35.759271 Y90.943245 Z-1.000000
G01 X28.074604 Y90.943245 Z-1.000000
G01 X1.225707 Y90.943245 Z-1.000000
G00 Z6.000000
(End cutting path id: path5053)
(Start cutting path id: path5053)
(Change tool to Cylindrical cutter)
G00 Z6.000000
G00 X1.225707 Y90.943245
G01 Z-1.000000 F100.0(Penetrate)
G01 X1.225707 Y90.848372 Z-1.000000 F250.000000
G01 X39.174678 Y90.848372 Z-1.000000
G01 X35.759271 Y90.943245 Z-1.000000
G01 X28.074604 Y90.943245 Z-1.000000
G01 X1.225707 Y90.943245 Z-1.000000
G00 Z6.000000
(End cutting path id: path5053)
(Start cutting path id: path5053)
(Change tool to Cylindrical cutter)
G00 Z6.000000
G00 X1.225707 Y90.753500
G01 Z-1.000000 F100.0(Penetrate)
G01 X1.225707 Y90.658628 Z-1.000000 F250.000000
G01 X39.174678 Y90.658628 Z-1.000000
G01 X35.759271 Y90.753500 Z-1.000000
G01 X28.074604 Y90.753500 Z-1.000000
G01 X1.225707 Y90.753500 Z-1.000000
G00 Z6.000000
(End cutting path id: path5053)
(Start cutting path id: path5053)
(Change tool to Cylindrical cutter)
G00 Z6.000000
G00 X1.225707 Y90.753500
G01 Z-1.000000 F100.0(Penetrate)
G01 X1.225707 Y90.658628 Z-1.000000 F250.000000
G01 X39.174678 Y90.658628 Z-1.000000
G01 X35.759271 Y90.753500 Z-1.000000
G01 X28.074604 Y90.753500 Z-1.000000
G01 X1.225707 Y90.753500 Z-1.000000
G00 Z6.000000
(End cutting path id: path5053)
(Start cutting path id: path5053)
(Change tool to Cylindrical cutter)
G00 Z6.000000
G00 X1.225707 Y90.563755
G01 Z-1.000000 F100.0(Penetrate)
G01 X1.225707 Y90.468882 Z-1.000000 F250.000000
G01 X39.174678 Y90.468882 Z-1.000000
G01 X35.759271 Y90.563755 Z-1.000000
G01 X28.074604 Y90.563755 Z-1.000000
G01 X1.225707 Y90.563755 Z-1.000000
G00 Z6.000000
(End cutting path id: path5053)
(Start cutting path id: path5053)
(Change tool to Cylindrical cutter)
G00 Z6.000000
G00 X1.225707 Y90.563755
G01 Z-1.000000 F100.0(Penetrate)
G01 X1.225707 Y90.468882 Z-1.000000 F250.000000
G01 X39.174678 Y90.468882 Z-1.000000
G01 X35.759271 Y90.563755 Z-1.000000
G01 X28.074604 Y90.563755 Z-1.000000
G01 X1.225707 Y90.563755 Z-1.000000
G00 Z6.000000
(End cutting path id: path5053)
(Start cutting path id: path5053)
(Change tool to Cylindrical cutter)
G00 Z6.000000
G00 X1.225707 Y90.374010
G01 Z-1.000000 F100.0(Penetrate)
G01 X1.225707 Y90.279138 Z-1.000000 F250.000000
G01 X39.174678 Y90.279138 Z-1.000000
G01 X35.759271 Y90.374010 Z-1.000000
G01 X28.074604 Y90.374010 Z-1.000000
G01 X1.225707 Y90.374010 Z-1.000000
G00 Z6.000000
(End cutting path id: path5053)
(Start cutting path id: path5053)
(Change tool to Cylindrical cutter)
G00 Z6.000000
G00 X1.225707 Y90.374010
G01 Z-1.000000 F100.0(Penetrate)
G01 X1.225707 Y90.279138 Z-1.000000 F250.000000
G01 X39.174678 Y90.279138 Z-1.000000
G01 X35.759271 Y90.374010 Z-1.000000
G01 X28.074604 Y90.374010 Z-1.000000
G01 X1.225707 Y90.374010 Z-1.000000
G00 Z6.000000
(End cutting path id: path5053)
(Start cutting path id: path5053)
(Change tool to Cylindrical cutter)
G00 Z6.000000
G00 X1.225707 Y90.184265
G01 Z-1.000000 F100.0(Penetrate)
G01 X1.225707 Y90.089393 Z-1.000000 F250.000000
G01 X39.174678 Y90.089393 Z-1.000000
G01 X35.759271 Y90.184265 Z-1.000000
G01 X28.074604 Y90.184265 Z-1.000000
G01 X1.225707 Y90.184265 Z-1.000000
G00 Z6.000000
(End cutting path id: path5053)
(Start cutting path id: path5053)
(Change tool to Cylindrical cutter)
G00 Z6.000000
G00 X1.225707 Y90.184265
G01 Z-1.000000 F100.0(Penetrate)
G01 X1.225707 Y90.089393 Z-1.000000 F250.000000
G01 X39.174678 Y90.089393 Z-1.000000
G01 X35.759271 Y90.184265 Z-1.000000
G01 X28.074604 Y90.184265 Z-1.000000
G01 X1.225707 Y90.184265 Z-1.000000
G00 Z6.000000
(End cutting path id: path5053)
(Start cutting path id: path5053)
(Change tool to Cylindrical cutter)
G00 Z6.000000
G00 X1.225707 Y89.994520
G01 Z-1.000000 F100.0(Penetrate)
G01 X1.225707 Y89.899650 Z-1.000000 F250.000000
G01 X39.174678 Y89.899650 Z-1.000000
G01 X35.759271 Y89.994520 Z-1.000000
G01 X28.074604 Y89.994520 Z-1.000000
G01 X1.225707 Y89.994520 Z-1.000000
G00 Z6.000000
(End cutting path id: path5053)
(Start cutting path id: path5053)
(Change tool to Cylindrical cutter)
G00 Z6.000000
G00 X1.225707 Y89.994520
G01 Z-1.000000 F100.0(Penetrate)
G01 X1.225707 Y89.899650 Z-1.000000 F250.000000
G01 X39.174678 Y89.899650 Z-1.000000
G01 X35.759271 Y89.994520 Z-1.000000
G01 X28.074604 Y89.994520 Z-1.000000
G01 X1.225707 Y89.994520 Z-1.000000
G00 Z6.000000
(End cutting path id: path5053)
(Start cutting path id: path5053)
(Change tool to Cylindrical cutter)
G00 Z6.000000
G00 X1.225707 Y89.804776
G01 Z-1.000000 F100.0(Penetrate)
G01 X1.225707 Y89.709906 Z-1.000000 F250.000000
G01 X39.174678 Y89.709906 Z-1.000000
G01 X35.759271 Y89.804776 Z-1.000000
G01 X28.074604 Y89.804776 Z-1.000000
G01 X1.225707 Y89.804776 Z-1.000000
G00 Z6.000000
(End cutting path id: path5053)
(Start cutting path id: path5053)
(Change tool to Cylindrical cutter)
G00 Z6.000000
G00 X1.225707 Y89.804776
G01 Z-1.000000 F100.0(Penetrate)
G01 X1.225707 Y89.709906 Z-1.000000 F250.000000
G01 X39.174678 Y89.709906 Z-1.000000
G01 X35.759271 Y89.804776 Z-1.000000
G01 X28.074604 Y89.804776 Z-1.000000
G01 X1.225707 Y89.804776 Z-1.000000
G00 Z6.000000
(End cutting path id: path5053)
(Start cutting path id: path5053)
(Change tool to Cylindrical cutter)
G00 Z6.000000
G00 X1.225707 Y89.615031
G01 Z-1.000000 F100.0(Penetrate)
G01 X1.225707 Y89.520161 Z-1.000000 F250.000000
G01 X39.174678 Y89.520161 Z-1.000000
G01 X35.759271 Y89.615031 Z-1.000000
G01 X28.074604 Y89.615031 Z-1.000000
G01 X1.225707 Y89.615031 Z-1.000000
G00 Z6.000000
(End cutting path id: path5053)
(Start cutting path id: path5053)
(Change tool to Cylindrical cutter)
G00 Z6.000000
G00 X1.225707 Y89.615031
G01 Z-1.000000 F100.0(Penetrate)
G01 X1.225707 Y89.520161 Z-1.000000 F250.000000
G01 X39.174678 Y89.520161 Z-1.000000
G01 X35.759271 Y89.615031 Z-1.000000
G01 X28.074604 Y89.615031 Z-1.000000
G01 X1.225707 Y89.615031 Z-1.000000
G00 Z6.000000
(End cutting path id: path5053)
(Start cutting path id: path5053)
(Change tool to Cylindrical cutter)
G00 Z6.000000
G00 X1.225707 Y89.425286
G01 Z-1.000000 F100.0(Penetrate)
G01 X1.225707 Y89.330416 Z-1.000000 F250.000000
G01 X39.174678 Y89.330416 Z-1.000000
G01 X35.759271 Y89.425286 Z-1.000000
G01 X28.074604 Y89.425286 Z-1.000000
G01 X1.225707 Y89.425286 Z-1.000000
G00 Z6.000000
(End cutting path id: path5053)
(Start cutting path id: path5053)
(Change tool to Cylindrical cutter)
G00 Z6.000000
G00 X1.225707 Y89.425286
G01 Z-1.000000 F100.0(Penetrate)
G01 X1.225707 Y89.330416 Z-1.000000 F250.000000
G01 X39.174678 Y89.330416 Z-1.000000
G01 X35.759271 Y89.425286 Z-1.000000
G01 X28.074604 Y89.425286 Z-1.000000
G01 X1.225707 Y89.425286 Z-1.000000
G00 Z6.000000
(End cutting path id: path5053)
(Start cutting path id: path5053)
(Change tool to Cylindrical cutter)
G00 X1.225707 Y89.235541
G01 Z-1.000000 F100.0(Penetrate)
G01 X1.225707 Y89.140671 Z-1.000000 F250.000000
G01 X39.174678 Y89.140671 Z-1.000000
G01 X35.759271 Y89.235541 Z-1.000000
G01 X28.074604 Y89.235541 Z-1.000000
G01 X1.225707 Y89.235541 Z-1.000000
(End cutting path id: path5053)
(Start cutting path id: path5053)
(Change tool to Cylindrical cutter)
G00 Z6.000000
G00 X1.225707 Y89.235541
G01 Z-1.000000 F100.0(Penetrate)
G01 X1.225707 Y89.140671 Z-1.000000 F250.000000
G01 X39.174678 Y89.140671 Z-1.000000
G01 X35.759271 Y89.235541 Z-1.000000
G01 X28.074604 Y89.235541 Z-1.000000
G01 X1.225707 Y89.235541 Z-1.000000
G00 Z6.000000
(End cutting path id: path5053)
(Start cutting path id: path5053)
(Change tool to Cylindrical cutter)
G00 Z6.000000
G00 X1.225707 Y89.045796
G01 Z-1.000000 F100.0(Penetrate)
G01 X1.225707 Y88.950926 Z-1.000000 F250.000000
G01 X39.174678 Y88.950926 Z-1.000000
G01 X35.759271 Y89.045796 Z-1.000000
G01 X28.074604 Y89.045796 Z-1.000000
G01 X1.225707 Y89.045796 Z-1.000000
G00 Z6.000000
(End cutting path id: path5053)
(Start cutting path id: path5053)
(Change tool to Cylindrical cutter)
G00 Z6.000000
G00 X1.225707 Y89.045796
G01 Z-1.000000 F100.0(Penetrate)
G01 X1.225707 Y88.950926 Z-1.000000 F250.000000
G01 X39.174678 Y88.950926 Z-1.000000
G01 X35.759271 Y89.045796 Z-1.000000
G01 X28.074604 Y89.045796 Z-1.000000
G01 X1.225707 Y89.045796 Z-1.000000
G00 Z6.000000
(End cutting path id: path5053)
(Start cutting path id: path5053)
(Change tool to Cylindrical cutter)
G00 Z6.000000
G00 X1.225707 Y88.856051
G01 Z-1.000000 F100.0(Penetrate)
G01 X1.225707 Y88.761181 Z-1.000000 F250.000000
G01 X39.174678 Y88.761181 Z-1.000000
G01 X35.759271 Y88.856051 Z-1.000000
G01 X28.074604 Y88.856051 Z-1.000000
G01 X1.225707 Y88.856051 Z-1.000000
G00 Z6.000000
(End cutting path id: path5053)
(Start cutting path id: path5053)
(Change tool to Cylindrical cutter)
G00 Z6.000000
G00 X1.225707 Y88.856051
G01 Z-1.000000 F100.0(Penetrate)
G01 X1.225707 Y88.761181 Z-1.000000 F250.000000
G01 X39.174678 Y88.761181 Z-1.000000
G01 X35.759271 Y88.856051 Z-1.000000
G01 X28.074604 Y88.856051 Z-1.000000
G01 X1.225707 Y88.856051 Z-1.000000
G00 Z6.000000
(End cutting path id: path5053)
(Start cutting path id: path5053)
(Change tool to Cylindrical cutter)
G00 Z6.000000
G00 X1.225707 Y88.666306
G01 Z-1.000000 F100.0(Penetrate)
G01 X1.225707 Y88.571436 Z-1.000000 F250.000000
G01 X39.174678 Y88.571436 Z-1.000000
G01 X35.759271 Y88.666306 Z-1.000000
G01 X28.074604 Y88.666306 Z-1.000000
G01 X1.225707 Y88.666306 Z-1.000000
G00 Z6.000000
(End cutting path id: path5053)
(Start cutting path id: path5053)
(Change tool to Cylindrical cutter)
G00 Z6.000000
G00 X1.225707 Y88.666306
G01 Z-1.000000 F100.0(Penetrate)
G01 X1.225707 Y88.571436 Z-1.000000 F250.000000
G01 X39.174678 Y88.571436 Z-1.000000
G01 X35.759271 Y88.666306 Z-1.000000
G01 X28.074604 Y88.666306 Z-1.000000
G01 X1.225707 Y88.666306 Z-1.000000
G00 Z6.000000
(End cutting path id: path5053)
(Start cutting path id: path5053)
(Change tool to Cylindrical cutter)
G00 Z6.000000
G00 X1.225707 Y88.476562
G01 Z-1.000000 F100.0(Penetrate)
G01 X1.225707 Y88.381692 Z-1.000000 F250.000000
G01 X39.174678 Y88.381692 Z-1.000000
G01 X35.759271 Y88.476562 Z-1.000000
G01 X28.074604 Y88.476562 Z-1.000000
G01 X1.225707 Y88.476562 Z-1.000000
G00 Z6.000000
(End cutting path id: path5053)
(Start cutting path id: path5053)
(Change tool to Cylindrical cutter)
G00 Z6.000000
G00 X1.225707 Y88.476562
G01 Z-1.000000 F100.0(Penetrate)
G01 X1.225707 Y88.381692 Z-1.000000 F250.000000
G01 X39.174678 Y88.381692 Z-1.000000
G01 X35.759271 Y88.476562 Z-1.000000
G01 X28.074604 Y88.476562 Z-1.000000
G01 X1.225707 Y88.476562 Z-1.000000
G00 Z6.000000
(End cutting path id: path5053)
(Start cutting path id: path5053)
(Change tool to Cylindrical cutter)
G00 Z6.000000
G00 X1.225707 Y88.286817
G01 Z-1.000000 F100.0(Penetrate)
G01 X1.225707 Y88.191947 Z-1.000000 F250.000000
G01 X39.174678 Y88.191947 Z-1.000000
G01 X35.759271 Y88.286817 Z-1.000000
G01 X28.074604 Y88.286817 Z-1.000000
G01 X1.225707 Y88.286817 Z-1.000000
G00 Z6.000000
(End cutting path id: path5053)
(Start cutting path id: path5053)
(Change tool to Cylindrical cutter)
G00 Z6.000000
G00 X1.225707 Y88.286817
G01 Z-1.000000 F100.0(Penetrate)
G01 X1.225707 Y88.191947 Z-1.000000 F250.000000
G01 X39.174678 Y88.191947 Z-1.000000
G01 X35.759271 Y88.286817 Z-1.000000
G01 X28.074604 Y88.286817 Z-1.000000
G01 X1.225707 Y88.286817 Z-1.000000
G00 Z6.000000
(End cutting path id: path5053)
(Start cutting path id: path5053)
(Change tool to Cylindrical cutter)
G00 Z6.000000
G00 X1.225707 Y88.097072
G01 Z-1.000000 F100.0(Penetrate)
G01 X1.225707 Y88.002202 Z-1.000000 F250.000000
G01 X39.174678 Y88.002202 Z-1.000000
G01 X35.759271 Y88.097072 Z-1.000000
G01 X28.074604 Y88.097072 Z-1.000000
G01 X1.225707 Y88.097072 Z-1.000000
G00 Z6.000000
(End cutting path id: path5053)
(Start cutting path id: path5053)
(Change tool to Cylindrical cutter)
G00 Z6.000000
G00 X1.225707 Y88.097072
G01 Z-1.000000 F100.0(Penetrate)
G01 X1.225707 Y88.002202 Z-1.000000 F250.000000
G01 X39.174678 Y88.002202 Z-1.000000
G01 X35.759271 Y88.097072 Z-1.000000
G01 X28.074604 Y88.097072 Z-1.000000
G01 X1.225707 Y88.097072 Z-1.000000
G00 Z6.000000
(End cutting path id: path5053)
(Start cutting path id: path5053)
(Change tool to Cylindrical cutter)
G00 Z6.000000
G00 X1.225707 Y87.907327
G01 Z-1.000000 F100.0(Penetrate)
G01 X1.225707 Y87.812457 Z-1.000000 F250.000000
G01 X39.174678 Y87.812457 Z-1.000000
G01 X35.759271 Y87.907327 Z-1.000000
G01 X28.074604 Y87.907327 Z-1.000000
G01 X1.225707 Y87.907327 Z-1.000000
G00 Z6.000000
(End cutting path id: path5053)
(Start cutting path id: path5053)
(Change tool to Cylindrical cutter)
G00 Z6.000000
G00 X1.225707 Y87.907327
G01 Z-1.000000 F100.0(Penetrate)
G01 X1.225707 Y87.812457 Z-1.000000 F250.000000
G01 X39.174678 Y87.812457 Z-1.000000
G01 X35.759271 Y87.907327 Z-1.000000
G01 X28.074604 Y87.907327 Z-1.000000
G01 X1.225707 Y87.907327 Z-1.000000
G00 Z6.000000
(End cutting path id: path5053)
(Start cutting path id: path5053)
(Change tool to Cylindrical cutter)
G00 Z6.000000
G00 X1.225707 Y87.717582
G01 Z-1.000000 F100.0(Penetrate)
G01 X1.225707 Y87.622712 Z-1.000000 F250.000000
G01 X39.174678 Y87.622712 Z-1.000000
G01 X35.759271 Y87.717582 Z-1.000000
G01 X28.074604 Y87.717582 Z-1.000000
G01 X1.225707 Y87.717582 Z-1.000000
G00 Z6.000000
(End cutting path id: path5053)
(Start cutting path id: path5053)
(Change tool to Cylindrical cutter)
G00 Z6.000000
G00 X1.225707 Y87.717582
G01 Z-1.000000 F100.0(Penetrate)
G01 X1.225707 Y87.622712 Z-1.000000 F250.000000
G01 X39.174678 Y87.622712 Z-1.000000
G01 X35.759271 Y87.717582 Z-1.000000
G01 X28.074604 Y87.717582 Z-1.000000
G01 X1.225707 Y87.717582 Z-1.000000
G00 Z6.000000
(End cutting path id: path5053)
(Start cutting path id: path5053)
(Change tool to Cylindrical cutter)
G00 Z6.000000
G00 X1.225707 Y87.527837
G01 Z-1.000000 F100.0(Penetrate)
G01 X1.225707 Y87.432967 Z-1.000000 F250.000000
G01 X39.174678 Y87.432967 Z-1.000000
G01 X35.759271 Y87.527837 Z-1.000000
G01 X28.074604 Y87.527837 Z-1.000000
G01 X1.225707 Y87.527837 Z-1.000000
G00 Z6.000000
(End cutting path id: path5053)
(Start cutting path id: path5053)
(Change tool to Cylindrical cutter)
G00 Z6.000000
G00 X1.225707 Y87.527837
G01 Z-1.000000 F100.0(Penetrate)
G01 X1.225707 Y87.432967 Z-1.000000 F250.000000
G01 X39.174678 Y87.432967 Z-1.000000
G01 X35.759271 Y87.527837 Z-1.000000
G01 X28.074604 Y87.527837 Z-1.000000
G01 X1.225707 Y87.527837 Z-1.000000
G00 Z6.000000
(End cutting path id: path5053)
(Start cutting path id: path5053)
(Change tool to Cylindrical cutter)
G00 Z6.000000
G00 X1.225707 Y87.338092
G01 Z-1.000000 F100.0(Penetrate)
G01 X1.225707 Y87.243222 Z-1.000000 F250.000000
G01 X39.174678 Y87.243222 Z-1.000000
G01 X35.759271 Y87.338092 Z-1.000000
G01 X28.074604 Y87.338092 Z-1.000000
G01 X1.225707 Y87.338092 Z-1.000000
G00 Z6.000000
(End cutting path id: path5053)
(Start cutting path id: path5053)
(Change tool to Cylindrical cutter)
G00 Z6.000000
G00 X1.225707 Y87.338092
G01 Z-1.000000 F100.0(Penetrate)
G01 X1.225707 Y87.243222 Z-1.000000 F250.000000
G01 X39.174678 Y87.243222 Z-1.000000
G01 X35.759271 Y87.338092 Z-1.000000
G01 X28.074604 Y87.338092 Z-1.000000
G01 X1.225707 Y87.338092 Z-1.000000
G00 Z6.000000
(End cutting path id: path5053)
(Start cutting path id: path5053)
(Change tool to Cylindrical cutter)
G00 Z6.000000
G00 X1.225707 Y87.148348
G01 Z-1.000000 F100.0(Penetrate)
G01 X1.225707 Y87.053478 Z-1.000000 F250.000000
G01 X39.174678 Y87.053478 Z-1.000000
G01 X35.759271 Y87.148348 Z-1.000000
G01 X28.074604 Y87.148348 Z-1.000000
G01 X1.225707 Y87.148348 Z-1.000000
G00 Z6.000000
(End cutting path id: path5053)
(Start cutting path id: path5053)
(Change tool to Cylindrical cutter)
G00 Z6.000000
G00 X1.225707 Y87.148348
G01 Z-1.000000 F100.0(Penetrate)
G01 X1.225707 Y87.053478 Z-1.000000 F250.000000
G01 X39.174678 Y87.053478 Z-1.000000
G01 X35.759271 Y87.148348 Z-1.000000
G01 X28.074604 Y87.148348 Z-1.000000
G01 X1.225707 Y87.148348 Z-1.000000
G00 Z6.000000
(End cutting path id: path5053)
(Start cutting path id: path5053)
(Change tool to Cylindrical cutter)
G00 Z6.000000
G00 X1.225707 Y86.958603
G01 Z-1.000000 F100.0(Penetrate)
G01 X1.225707 Y86.863733 Z-1.000000 F250.000000
G01 X39.174678 Y86.863733 Z-1.000000
G01 X35.759271 Y86.958603 Z-1.000000
G01 X28.074604 Y86.958603 Z-1.000000
G01 X1.225707 Y86.958603 Z-1.000000
G00 Z6.000000
(End cutting path id: path5053)
(Start cutting path id: path5053)
(Change tool to Cylindrical cutter)
G00 Z6.000000
G00 X1.225707 Y86.958603
G01 Z-1.000000 F100.0(Penetrate)
G01 X1.225707 Y86.863733 Z-1.000000 F250.000000
G01 X39.174678 Y86.863733 Z-1.000000
G01 X35.759271 Y86.958603 Z-1.000000
G01 X28.074604 Y86.958603 Z-1.000000
G01 X1.225707 Y86.958603 Z-1.000000
G00 Z6.000000
(End cutting path id: path5053)
(Start cutting path id: path5053)
(Change tool to Cylindrical cutter)
G00 Z6.000000
G00 X1.225707 Y86.768858
G01 Z-1.000000 F100.0(Penetrate)
G01 X1.225707 Y86.673988 Z-1.000000 F250.000000
G01 X39.174678 Y86.673988 Z-1.000000
G01 X35.759271 Y86.768858 Z-1.000000
G01 X28.074604 Y86.768858 Z-1.000000
G01 X1.225707 Y86.768858 Z-1.000000
G00 Z6.000000
(End cutting path id: path5053)
(Start cutting path id: path5053)
(Change tool to Cylindrical cutter)
G00 Z6.000000
G00 X1.225707 Y86.768858
G01 Z-1.000000 F100.0(Penetrate)
G01 X1.225707 Y86.673988 Z-1.000000 F250.000000
G01 X39.174678 Y86.673988 Z-1.000000
G01 X35.759271 Y86.768858 Z-1.000000
G01 X28.074604 Y86.768858 Z-1.000000
G01 X1.225707 Y86.768858 Z-1.000000
G00 Z6.000000
(End cutting path id: path5053)
(Start cutting path id: path5053)
(Change tool to Cylindrical cutter)
G00 Z6.000000
G00 X1.225707 Y86.579113
G01 Z-1.000000 F100.0(Penetrate)
G01 X1.225707 Y86.484243 Z-1.000000 F250.000000
G01 X39.174678 Y86.484243 Z-1.000000
G01 X35.759271 Y86.579113 Z-1.000000
G01 X28.074604 Y86.579113 Z-1.000000
G01 X1.225707 Y86.579113 Z-1.000000
G00 Z6.000000
(End cutting path id: path5053)
(Start cutting path id: path5053)
(Change tool to Cylindrical cutter)
G00 Z6.000000
G00 X1.225707 Y86.579113
G01 Z-1.000000 F100.0(Penetrate)
G01 X1.225707 Y86.484243 Z-1.000000 F250.000000
G01 X39.174678 Y86.484243 Z-1.000000
G01 X35.759271 Y86.579113 Z-1.000000
G01 X28.074604 Y86.579113 Z-1.000000
G01 X1.225707 Y86.579113 Z-1.000000
G00 Z6.000000
(End cutting path id: path5053)
(Start cutting path id: path5053)
(Change tool to Cylindrical cutter)
G00 Z6.000000
G00 X1.225707 Y86.389368
G01 Z-1.000000 F100.0(Penetrate)
G01 X1.225707 Y86.294498 Z-1.000000 F250.000000
G01 X39.174678 Y86.294498 Z-1.000000
G01 X35.759271 Y86.389368 Z-1.000000
G01 X28.074604 Y86.389368 Z-1.000000
G01 X1.225707 Y86.389368 Z-1.000000
G00 Z6.000000
(End cutting path id: path5053)
(Start cutting path id: path5053)
(Change tool to Cylindrical cutter)
G00 Z6.000000
G00 X1.225707 Y86.389368
G01 Z-1.000000 F100.0(Penetrate)
G01 X1.225707 Y86.294498 Z-1.000000 F250.000000
G01 X39.174678 Y86.294498 Z-1.000000
G01 X35.759271 Y86.389368 Z-1.000000
G01 X28.074604 Y86.389368 Z-1.000000
G01 X1.225707 Y86.389368 Z-1.000000
G00 Z6.000000
(End cutting path id: path5053)
(Start cutting path id: path5053)
(Change tool to Cylindrical cutter)
G00 Z6.000000
G00 X1.225707 Y86.199623
G01 Z-1.000000 F100.0(Penetrate)
G01 X1.225707 Y86.104753 Z-1.000000 F250.000000
G01 X39.174678 Y86.104753 Z-1.000000
G01 X35.759271 Y86.199623 Z-1.000000
G01 X28.074604 Y86.199623 Z-1.000000
G01 X1.225707 Y86.199623 Z-1.000000
G00 Z6.000000
(End cutting path id: path5053)
(Start cutting path id: path5053)
(Change tool to Cylindrical cutter)
G00 Z6.000000
G00 X1.225707 Y86.199623
G01 Z-1.000000 F100.0(Penetrate)
G01 X1.225707 Y86.104753 Z-1.000000 F250.000000
G01 X39.174678 Y86.104753 Z-1.000000
G01 X35.759271 Y86.199623 Z-1.000000
G01 X28.074604 Y86.199623 Z-1.000000
G01 X1.225707 Y86.199623 Z-1.000000
G00 Z6.000000
(End cutting path id: path5053)
(Start cutting path id: path5053)
(Change tool to Cylindrical cutter)
G00 Z6.000000
G00 X1.225707 Y86.009878
G01 Z-1.000000 F100.0(Penetrate)
G01 X1.225707 Y85.915008 Z-1.000000 F250.000000
G01 X39.174678 Y85.915008 Z-1.000000
G01 X35.759271 Y86.009878 Z-1.000000
G01 X28.074604 Y86.009878 Z-1.000000
G01 X1.225707 Y86.009878 Z-1.000000
G00 Z6.000000
(End cutting path id: path5053)
(Start cutting path id: path5053)
(Change tool to Cylindrical cutter)
G00 Z6.000000
G00 X1.225707 Y86.009878
G01 Z-1.000000 F100.0(Penetrate)
G01 X1.225707 Y85.915008 Z-1.000000 F250.000000
G01 X39.174678 Y85.915008 Z-1.000000
G01 X35.759271 Y86.009878 Z-1.000000
G01 X28.074604 Y86.009878 Z-1.000000
G01 X1.225707 Y86.009878 Z-1.000000
G00 Z6.000000
(End cutting path id: path5053)
(Start cutting path id: path5053)
(Change tool to Cylindrical cutter)
G00 Z6.000000
G00 X1.225707 Y85.820134
G01 Z-1.000000 F100.0(Penetrate)
G01 X1.225707 Y85.725264 Z-1.000000 F250.000000
G01 X39.174678 Y85.725264 Z-1.000000
G01 X35.759271 Y85.820134 Z-1.000000
G01 X28.074604 Y85.820134 Z-1.000000
G01 X1.225707 Y85.820134 Z-1.000000
G00 Z6.000000
(End cutting path id: path5053)
(Start cutting path id: path5053)
(Change tool to Cylindrical cutter)
G00 Z6.000000
G00 X1.225707 Y85.820134
G01 Z-1.000000 F100.0(Penetrate)
G01 X1.225707 Y85.725264 Z-1.000000 F250.000000
G01 X39.174678 Y85.725264 Z-1.000000
G01 X35.759271 Y85.820134 Z-1.000000
G01 X28.074604 Y85.820134 Z-1.000000
G01 X1.225707 Y85.820134 Z-1.000000
G00 Z6.000000
(End cutting path id: path5053)
(Start cutting path id: path5053)
(Change tool to Cylindrical cutter)
G00 Z6.000000
G00 X1.225707 Y85.630389
G01 Z-1.000000 F100.0(Penetrate)
G01 X1.225707 Y85.535519 Z-1.000000 F250.000000
G01 X39.174678 Y85.535519 Z-1.000000
G01 X35.759271 Y85.630389 Z-1.000000
G01 X28.074604 Y85.630389 Z-1.000000
G01 X1.225707 Y85.630389 Z-1.000000
G00 Z6.000000
(End cutting path id: path5053)
(Start cutting path id: path5053)
(Change tool to Cylindrical cutter)
G00 Z6.000000
G00 X1.225707 Y85.630389
G01 Z-1.000000 F100.0(Penetrate)
G01 X1.225707 Y85.535519 Z-1.000000 F250.000000
G01 X39.174678 Y85.535519 Z-1.000000
G01 X35.759271 Y85.630389 Z-1.000000
G01 X28.074604 Y85.630389 Z-1.000000
G01 X1.225707 Y85.630389 Z-1.000000
G00 Z6.000000
(End cutting path id: path5053)
(Start cutting path id: path5053)
(Change tool to Cylindrical cutter)
G00 Z6.000000
G00 X1.225707 Y85.440644
G01 Z-1.000000 F100.0(Penetrate)
G01 X1.225707 Y85.345774 Z-1.000000 F250.000000
G01 X39.174678 Y85.345774 Z-1.000000
G01 X35.759271 Y85.440644 Z-1.000000
G01 X28.074604 Y85.440644 Z-1.000000
G01 X1.225707 Y85.440644 Z-1.000000
G00 Z6.000000
(End cutting path id: path5053)
(Start cutting path id: path5053)
(Change tool to Cylindrical cutter)
G00 Z6.000000
G00 X1.225707 Y85.440644
G01 Z-1.000000 F100.0(Penetrate)
G01 X1.225707 Y85.345774 Z-1.000000 F250.000000
G01 X39.174678 Y85.345774 Z-1.000000
G01 X35.759271 Y85.440644 Z-1.000000
G01 X28.074604 Y85.440644 Z-1.000000
G01 X1.225707 Y85.440644 Z-1.000000
G00 Z6.000000
(End cutting path id: path5053)
(Start cutting path id: path5053)
(Change tool to Cylindrical cutter)
G00 Z6.000000
G00 X1.225707 Y85.250899
G01 Z-1.000000 F100.0(Penetrate)
G01 X1.225707 Y85.156029 Z-1.000000 F250.000000
G01 X10.523205 Y85.156029 Z-1.000000
G01 X7.677032 Y85.250899 Z-1.000000
G01 X1.225707 Y85.250899 Z-1.000000
G00 Z6.000000
(End cutting path id: path5053)
(Start cutting path id: path5053)
(Change tool to Cylindrical cutter)
G00 Z6.000000
G00 X1.225707 Y85.250899
G01 Z-1.000000 F100.0(Penetrate)
G01 X1.225707 Y85.156029 Z-1.000000 F250.000000
G01 X10.523205 Y85.156029 Z-1.000000
G01 X7.677032 Y85.250899 Z-1.000000
G01 X1.225707 Y85.250899 Z-1.000000
G00 Z6.000000
(End cutting path id: path5053)
(Start cutting path id: path5053)
(Change tool to Cylindrical cutter)
G00 Z6.000000
G00 X1.225707 Y85.061154
G01 Z-1.000000 F100.0(Penetrate)
G01 X1.225707 Y84.966284 Z-1.000000 F250.000000
G01 X10.523205 Y84.966284 Z-1.000000
G01 X7.677032 Y85.061154 Z-1.000000
G01 X1.225707 Y85.061154 Z-1.000000
G00 Z6.000000
(End cutting path id: path5053)
(Start cutting path id: path5053)
(Change tool to Cylindrical cutter)
G00 Z6.000000
G00 X1.225707 Y85.061154
G01 Z-1.000000 F100.0(Penetrate)
G01 X1.225707 Y84.966284 Z-1.000000 F250.000000
G01 X10.523205 Y84.966284 Z-1.000000
G01 X7.677032 Y85.061154 Z-1.000000
G01 X1.225707 Y85.061154 Z-1.000000
G00 Z6.000000
(End cutting path id: path5053)
(Start cutting path id: path5053)
(Change tool to Cylindrical cutter)
G00 Z6.000000
G00 X1.225707 Y84.871409
G01 Z-1.000000 F100.0(Penetrate)
G01 X1.225707 Y84.776539 Z-1.000000 F250.000000
G01 X10.523205 Y84.776539 Z-1.000000
G01 X7.677032 Y84.871409 Z-1.000000
G01 X1.225707 Y84.871409 Z-1.000000
G00 Z6.000000
(End cutting path id: path5053)
(Start cutting path id: path5053)
(Change tool to Cylindrical cutter)
G00 Z6.000000
G00 X1.225707 Y84.871409
G01 Z-1.000000 F100.0(Penetrate)
G01 X1.225707 Y84.776539 Z-1.000000 F250.000000
G01 X10.523205 Y84.776539 Z-1.000000
G01 X7.677032 Y84.871409 Z-1.000000
G01 X1.225707 Y84.871409 Z-1.000000
G00 Z6.000000
(End cutting path id: path5053)
(Start cutting path id: path5053)
(Change tool to Cylindrical cutter)
G00 Z6.000000
G00 X1.225707 Y84.681664
G01 Z-1.000000 F100.0(Penetrate)
G01 X1.225707 Y84.586794 Z-1.000000 F250.000000
G01 X10.523205 Y84.586794 Z-1.000000
G01 X7.677032 Y84.681664 Z-1.000000
G01 X1.225707 Y84.681664 Z-1.000000
G00 Z6.000000
(End cutting path id: path5053)
(Start cutting path id: path5053)
(Change tool to Cylindrical cutter)
G00 Z6.000000
G00 X1.225707 Y84.681664
G01 Z-1.000000 F100.0(Penetrate)
G01 X1.225707 Y84.586794 Z-1.000000 F250.000000
G01 X10.523205 Y84.586794 Z-1.000000
G01 X7.677032 Y84.681664 Z-1.000000
G01 X1.225707 Y84.681664 Z-1.000000
G00 Z6.000000
(End cutting path id: path5053)
(Start cutting path id: path5053)
(Change tool to Cylindrical cutter)
G00 Z6.000000
G00 X1.225707 Y84.491920
G01 Z-1.000000 F100.0(Penetrate)
G01 X1.225707 Y84.397050 Z-1.000000 F250.000000
G01 X10.523205 Y84.397050 Z-1.000000
G01 X7.677032 Y84.491920 Z-1.000000
G01 X1.225707 Y84.491920 Z-1.000000
G00 Z6.000000
(End cutting path id: path5053)
(Start cutting path id: path5053)
(Change tool to Cylindrical cutter)
G00 Z6.000000
G00 X1.225707 Y84.491920
G01 Z-1.000000 F100.0(Penetrate)
G01 X1.225707 Y84.397050 Z-1.000000 F250.000000
G01 X10.523205 Y84.397050 Z-1.000000
G01 X7.677032 Y84.491920 Z-1.000000
G01 X1.225707 Y84.491920 Z-1.000000
G00 Z6.000000
(End cutting path id: path5053)
(Start cutting path id: path5053)
(Change tool to Cylindrical cutter)
G00 Z6.000000
G00 X1.225707 Y84.302175
G01 Z-1.000000 F100.0(Penetrate)
G01 X1.225707 Y84.207305 Z-1.000000 F250.000000
G01 X10.523205 Y84.207305 Z-1.000000
G01 X7.677032 Y84.302175 Z-1.000000
G01 X1.225707 Y84.302175 Z-1.000000
G00 Z6.000000
(End cutting path id: path5053)
(Start cutting path id: path5053)
(Change tool to Cylindrical cutter)
G00 Z6.000000
G00 X1.225707 Y84.302175
G01 Z-1.000000 F100.0(Penetrate)
G01 X1.225707 Y84.207305 Z-1.000000 F250.000000
G01 X10.523205 Y84.207305 Z-1.000000
G01 X7.677032 Y84.302175 Z-1.000000
G01 X1.225707 Y84.302175 Z-1.000000
G00 Z6.000000
(End cutting path id: path5053)
(Start cutting path id: path5053)
(Change tool to Cylindrical cutter)
G00 Z6.000000
G00 X1.225707 Y84.112430
G01 Z-1.000000 F100.0(Penetrate)
G01 X1.225707 Y84.017560 Z-1.000000 F250.000000
G01 X10.523205 Y84.017560 Z-1.000000
G01 X7.677032 Y84.112430 Z-1.000000
G01 X1.225707 Y84.112430 Z-1.000000
G00 Z6.000000
(End cutting path id: path5053)
(Start cutting path id: path5053)
(Change tool to Cylindrical cutter)
G00 Z6.000000
G00 X1.225707 Y84.112430
G01 Z-1.000000 F100.0(Penetrate)
G01 X1.225707 Y84.017560 Z-1.000000 F250.000000
G01 X10.523205 Y84.017560 Z-1.000000
G01 X7.677032 Y84.112430 Z-1.000000
G01 X1.225707 Y84.112430 Z-1.000000
G00 Z6.000000
(End cutting path id: path5053)
(Start cutting path id: path5053)
(Change tool to Cylindrical cutter)
G00 Z6.000000
G00 X1.225707 Y83.922685
G01 Z-1.000000 F100.0(Penetrate)
G01 X1.225707 Y83.827815 Z-1.000000 F250.000000
G01 X10.523205 Y83.827815 Z-1.000000
G01 X7.677032 Y83.922685 Z-1.000000
G01 X1.225707 Y83.922685 Z-1.000000
G00 Z6.000000
(End cutting path id: path5053)
(Start cutting path id: path5053)
(Change tool to Cylindrical cutter)
G00 Z6.000000
G00 X1.225707 Y83.922685
G01 Z-1.000000 F100.0(Penetrate)
G01 X1.225707 Y83.827815 Z-1.000000 F250.000000
G01 X10.523205 Y83.827815 Z-1.000000
G01 X7.677032 Y83.922685 Z-1.000000
G01 X1.225707 Y83.922685 Z-1.000000
G00 Z6.000000
(End cutting path id: path5053)
(Start cutting path id: path5053)
(Change tool to Cylindrical cutter)
G00 Z6.000000
G00 X1.225707 Y83.732940
G01 Z-1.000000 F100.0(Penetrate)
G01 X1.225707 Y83.638070 Z-1.000000 F250.000000
G01 X10.523205 Y83.638070 Z-1.000000
G01 X7.677032 Y83.732940 Z-1.000000
G01 X1.225707 Y83.732940 Z-1.000000
G00 Z6.000000
(End cutting path id: path5053)
(Start cutting path id: path5053)
(Change tool to Cylindrical cutter)
G00 Z6.000000
G00 X1.225707 Y83.732940
G01 Z-1.000000 F100.0(Penetrate)
G01 X1.225707 Y83.638070 Z-1.000000 F250.000000
G01 X10.523205 Y83.638070 Z-1.000000
G01 X7.677032 Y83.732940 Z-1.000000
G01 X1.225707 Y83.732940 Z-1.000000
G00 Z6.000000
(End cutting path id: path5053)
(Start cutting path id: path5053)
(Change tool to Cylindrical cutter)
G00 Z6.000000
G00 X1.225707 Y83.543195
G01 Z-1.000000 F100.0(Penetrate)
G01 X1.225707 Y83.448325 Z-1.000000 F250.000000
G01 X10.523205 Y83.448325 Z-1.000000
G01 X7.677032 Y83.543195 Z-1.000000
G01 X1.225707 Y83.543195 Z-1.000000
G00 Z6.000000
(End cutting path id: path5053)
(Start cutting path id: path5053)
(Change tool to Cylindrical cutter)
G00 Z6.000000
G00 X1.225707 Y83.543195
G01 Z-1.000000 F100.0(Penetrate)
G01 X1.225707 Y83.448325 Z-1.000000 F250.000000
G01 X10.523205 Y83.448325 Z-1.000000
G01 X7.677032 Y83.543195 Z-1.000000
G01 X1.225707 Y83.543195 Z-1.000000
G00 Z6.000000
(End cutting path id: path5053)
(Start cutting path id: path5053)
(Change tool to Cylindrical cutter)
G00 Z6.000000
G00 X1.225707 Y83.353450
G01 Z-1.000000 F100.0(Penetrate)
G01 X1.225707 Y83.258580 Z-1.000000 F250.000000
G01 X10.523205 Y83.258580 Z-1.000000
G01 X7.677032 Y83.353450 Z-1.000000
G01 X1.225707 Y83.353450 Z-1.000000
G00 Z6.000000
(End cutting path id: path5053)
(Start cutting path id: path5053)
(Change tool to Cylindrical cutter)
G00 Z6.000000
G00 X1.225707 Y83.353450
G01 Z-1.000000 F100.0(Penetrate)
G01 X1.225707 Y83.258580 Z-1.000000 F250.000000
G01 X10.523205 Y83.258580 Z-1.000000
G01 X7.677032 Y83.353450 Z-1.000000
G01 X1.225707 Y83.353450 Z-1.000000
G00 Z6.000000
(End cutting path id: path5053)
(Start cutting path id: path5053)
(Change tool to Cylindrical cutter)
G00 Z6.000000
G00 X1.225707 Y83.163705
G01 Z-1.000000 F100.0(Penetrate)
G01 X1.225707 Y83.068835 Z-1.000000 F250.000000
G01 X10.523205 Y83.068835 Z-1.000000
G01 X7.677032 Y83.163705 Z-1.000000
G01 X1.225707 Y83.163705 Z-1.000000
G00 Z6.000000
(End cutting path id: path5053)
(Start cutting path id: path5053)
(Change tool to Cylindrical cutter)
G00 Z6.000000
G00 X1.225707 Y83.163705
G01 Z-1.000000 F100.0(Penetrate)
G01 X1.225707 Y83.068835 Z-1.000000 F250.000000
G01 X10.523205 Y83.068835 Z-1.000000
G01 X7.677032 Y83.163705 Z-1.000000
G01 X1.225707 Y83.163705 Z-1.000000
G00 Z6.000000
(End cutting path id: path5053)
(Start cutting path id: path5053)
(Change tool to Cylindrical cutter)
G00 Z6.000000
G00 X1.225707 Y82.973961
G01 Z-1.000000 F100.0(Penetrate)
G01 X1.225707 Y82.879091 Z-1.000000 F250.000000
G01 X10.523205 Y82.879091 Z-1.000000
G01 X7.677032 Y82.973961 Z-1.000000
G01 X1.225707 Y82.973961 Z-1.000000
G00 Z6.000000
(End cutting path id: path5053)
(Start cutting path id: path5053)
(Change tool to Cylindrical cutter)
G00 Z6.000000
G00 X1.225707 Y82.973961
G01 Z-1.000000 F100.0(Penetrate)
G01 X1.225707 Y82.879091 Z-1.000000 F250.000000
G01 X10.523205 Y82.879091 Z-1.000000
G01 X7.677032 Y82.973961 Z-1.000000
G01 X1.225707 Y82.973961 Z-1.000000
G00 Z6.000000
(End cutting path id: path5053)
(Start cutting path id: path5053)
(Change tool to Cylindrical cutter)
G00 Z6.000000
G00 X1.225707 Y82.784216
G01 Z-1.000000 F100.0(Penetrate)
G01 X1.225707 Y82.689346 Z-1.000000 F250.000000
G01 X10.523205 Y82.689346 Z-1.000000
G01 X7.677032 Y82.784216 Z-1.000000
G01 X1.225707 Y82.784216 Z-1.000000
G00 Z6.000000
(End cutting path id: path5053)
(Start cutting path id: path5053)
(Change tool to Cylindrical cutter)
G00 Z6.000000
G00 X1.225707 Y82.784216
G01 Z-1.000000 F100.0(Penetrate)
G01 X1.225707 Y82.689346 Z-1.000000 F250.000000
G01 X10.523205 Y82.689346 Z-1.000000
G01 X7.677032 Y82.784216 Z-1.000000
G01 X1.225707 Y82.784216 Z-1.000000
G00 Z6.000000
(End cutting path id: path5053)
(Start cutting path id: path5053)
(Change tool to Cylindrical cutter)
G00 Z6.000000
G00 X1.225707 Y82.594471
G01 Z-1.000000 F100.0(Penetrate)
G01 X1.225707 Y82.499601 Z-1.000000 F250.000000
G01 X10.523205 Y82.499601 Z-1.000000
G01 X7.677032 Y82.594471 Z-1.000000
G01 X1.225707 Y82.594471 Z-1.000000
G00 Z6.000000
(End cutting path id: path5053)
(Start cutting path id: path5053)
(Change tool to Cylindrical cutter)
G00 Z6.000000
G00 X1.225707 Y82.594471
G01 Z-1.000000 F100.0(Penetrate)
G01 X1.225707 Y82.499601 Z-1.000000 F250.000000
G01 X10.523205 Y82.499601 Z-1.000000
G01 X7.677032 Y82.594471 Z-1.000000
G01 X1.225707 Y82.594471 Z-1.000000
G00 Z6.000000
(End cutting path id: path5053)
(Start cutting path id: path5053)
(Change tool to Cylindrical cutter)
G00 Z6.000000
G00 X1.225707 Y82.404726
G01 Z-1.000000 F100.0(Penetrate)
G01 X1.225707 Y82.309856 Z-1.000000 F250.000000
G01 X10.523205 Y82.309856 Z-1.000000
G01 X7.677032 Y82.404726 Z-1.000000
G01 X1.225707 Y82.404726 Z-1.000000
G00 Z6.000000
(End cutting path id: path5053)
(Start cutting path id: path5053)
(Change tool to Cylindrical cutter)
G00 Z6.000000
G00 X1.225707 Y82.404726
G01 Z-1.000000 F100.0(Penetrate)
G01 X1.225707 Y82.309856 Z-1.000000 F250.000000
G01 X10.523205 Y82.309856 Z-1.000000
G01 X7.677032 Y82.404726 Z-1.000000
G01 X1.225707 Y82.404726 Z-1.000000
G00 Z6.000000
(End cutting path id: path5053)
(Start cutting path id: path5053)
(Change tool to Cylindrical cutter)
G00 Z6.000000
G00 X1.225707 Y82.214981
G01 Z-1.000000 F100.0(Penetrate)
G01 X1.225707 Y82.120111 Z-1.000000 F250.000000
G01 X10.523205 Y82.120111 Z-1.000000
G01 X7.677032 Y82.214981 Z-1.000000
G01 X1.225707 Y82.214981 Z-1.000000
G00 Z6.000000
(End cutting path id: path5053)
(Start cutting path id: path5053)
(Change tool to Cylindrical cutter)
G00 Z6.000000
G00 X1.225707 Y82.214981
G01 Z-1.000000 F100.0(Penetrate)
G01 X1.225707 Y82.120111 Z-1.000000 F250.000000
G01 X10.523205 Y82.120111 Z-1.000000
G01 X7.677032 Y82.214981 Z-1.000000
G01 X1.225707 Y82.214981 Z-1.000000
G00 Z6.000000
(End cutting path id: path5053)
(Start cutting path id: path5053)
(Change tool to Cylindrical cutter)
G00 Z6.000000
G00 X1.225707 Y82.025236
G01 Z-1.000000 F100.0(Penetrate)
G01 X1.225707 Y81.930366 Z-1.000000 F250.000000
G01 X10.523205 Y81.930366 Z-1.000000
G01 X7.677032 Y82.025236 Z-1.000000
G01 X1.225707 Y82.025236 Z-1.000000
G00 Z6.000000
(End cutting path id: path5053)
(Start cutting path id: path5053)
(Change tool to Cylindrical cutter)
G00 Z6.000000
G00 X1.225707 Y82.025236
G01 Z-1.000000 F100.0(Penetrate)
G01 X1.225707 Y81.930366 Z-1.000000 F250.000000
G01 X10.523205 Y81.930366 Z-1.000000
G01 X7.677032 Y82.025236 Z-1.000000
G01 X1.225707 Y82.025236 Z-1.000000
G00 Z6.000000
(End cutting path id: path5053)
(Start cutting path id: path5053)
(Change tool to Cylindrical cutter)
G00 Z6.000000
G00 X1.225707 Y81.835491
G01 Z-1.000000 F100.0(Penetrate)
G01 X1.225707 Y81.740621 Z-1.000000 F250.000000
G01 X10.523205 Y81.740621 Z-1.000000
G01 X7.677032 Y81.835491 Z-1.000000
G01 X1.225707 Y81.835491 Z-1.000000
G00 Z6.000000
(End cutting path id: path5053)
(Start cutting path id: path5053)
(Change tool to Cylindrical cutter)
G00 Z6.000000
G00 X1.225707 Y81.835491
G01 Z-1.000000 F100.0(Penetrate)
G01 X1.225707 Y81.740621 Z-1.000000 F250.000000
G01 X10.523205 Y81.740621 Z-1.000000
G01 X7.677032 Y81.835491 Z-1.000000
G01 X1.225707 Y81.835491 Z-1.000000
G00 Z6.000000
(End cutting path id: path5053)
(Start cutting path id: path5053)
(Change tool to Cylindrical cutter)
G00 Z6.000000
G00 X1.225707 Y81.645747
G01 Z-1.000000 F100.0(Penetrate)
G01 X1.225707 Y81.550877 Z-1.000000 F250.000000
G01 X10.523205 Y81.550877 Z-1.000000
G01 X7.677032 Y81.645747 Z-1.000000
G01 X1.225707 Y81.645747 Z-1.000000
G00 Z6.000000
(End cutting path id: path5053)
(Start cutting path id: path5053)
(Change tool to Cylindrical cutter)
G00 Z6.000000
G00 X1.225707 Y81.645747
G01 Z-1.000000 F100.0(Penetrate)
G01 X1.225707 Y81.550877 Z-1.000000 F250.000000
G01 X10.523205 Y81.550877 Z-1.000000
G01 X7.677032 Y81.645747 Z-1.000000
G01 X1.225707 Y81.645747 Z-1.000000
G00 Z6.000000
(End cutting path id: path5053)
(Start cutting path id: path5053)
(Change tool to Cylindrical cutter)
G00 Z6.000000
G00 X1.225707 Y81.456002
G01 Z-1.000000 F100.0(Penetrate)
G01 X1.225707 Y81.361132 Z-1.000000 F250.000000
G01 X10.523205 Y81.361132 Z-1.000000
G01 X7.677032 Y81.456002 Z-1.000000
G01 X1.225707 Y81.456002 Z-1.000000
G00 Z6.000000
(End cutting path id: path5053)
(Start cutting path id: path5053)
(Change tool to Cylindrical cutter)
G00 Z6.000000
G00 X1.225707 Y81.456002
G01 Z-1.000000 F100.0(Penetrate)
G01 X1.225707 Y81.361132 Z-1.000000 F250.000000
G01 X10.523205 Y81.361132 Z-1.000000
G01 X7.677032 Y81.456002 Z-1.000000
G01 X1.225707 Y81.456002 Z-1.000000
G00 Z6.000000
(End cutting path id: path5053)
(Start cutting path id: path5053)
(Change tool to Cylindrical cutter)
G00 Z6.000000
G00 X1.225707 Y81.266257
G01 Z-1.000000 F100.0(Penetrate)
G01 X1.225707 Y81.171387 Z-1.000000 F250.000000
G01 X10.523205 Y81.171387 Z-1.000000
G01 X7.677032 Y81.266257 Z-1.000000
G01 X1.225707 Y81.266257 Z-1.000000
G00 Z6.000000
(End cutting path id: path5053)
(Start cutting path id: path5053)
(Change tool to Cylindrical cutter)
G00 Z6.000000
G00 X1.225707 Y81.266257
G01 Z-1.000000 F100.0(Penetrate)
G01 X1.225707 Y81.171387 Z-1.000000 F250.000000
G01 X10.523205 Y81.171387 Z-1.000000
G01 X7.677032 Y81.266257 Z-1.000000
G01 X1.225707 Y81.266257 Z-1.000000
G00 Z6.000000
(End cutting path id: path5053)
(Start cutting path id: path5053)
(Change tool to Cylindrical cutter)
G00 Z6.000000
G00 X1.225707 Y81.076512
G01 Z-1.000000 F100.0(Penetrate)
G01 X1.225707 Y80.981642 Z-1.000000 F250.000000
G01 X10.523205 Y80.981642 Z-1.000000
G01 X7.677032 Y81.076512 Z-1.000000
G01 X1.225707 Y81.076512 Z-1.000000
G00 Z6.000000
(End cutting path id: path5053)
(Start cutting path id: path5053)
(Change tool to Cylindrical cutter)
G00 Z6.000000
G00 X1.225707 Y81.076512
G01 Z-1.000000 F100.0(Penetrate)
G01 X1.225707 Y80.981642 Z-1.000000 F250.000000
G01 X10.523205 Y80.981642 Z-1.000000
G01 X7.677032 Y81.076512 Z-1.000000
G01 X1.225707 Y81.076512 Z-1.000000
G00 Z6.000000
(End cutting path id: path5053)
(Start cutting path id: path5053)
(Change tool to Cylindrical cutter)
G00 Z6.000000
G00 X1.225707 Y80.886767
G01 Z-1.000000 F100.0(Penetrate)
G01 X1.225707 Y80.791897 Z-1.000000 F250.000000
G01 X10.523205 Y80.791897 Z-1.000000
G01 X7.677032 Y80.886767 Z-1.000000
G01 X1.225707 Y80.886767 Z-1.000000
G00 Z6.000000
(End cutting path id: path5053)
(Start cutting path id: path5053)
(Change tool to Cylindrical cutter)
G00 Z6.000000
G00 X1.225707 Y80.886767
G01 Z-1.000000 F100.0(Penetrate)
G01 X1.225707 Y80.791897 Z-1.000000 F250.000000
G01 X10.523205 Y80.791897 Z-1.000000
G01 X7.677032 Y80.886767 Z-1.000000
G01 X1.225707 Y80.886767 Z-1.000000
G00 Z6.000000
(End cutting path id: path5053)
(Start cutting path id: path5053)
(Change tool to Cylindrical cutter)
G00 Z6.000000
G00 X1.225707 Y80.697022
G01 Z-1.000000 F100.0(Penetrate)
G01 X1.225707 Y80.602152 Z-1.000000 F250.000000
G01 X10.523205 Y80.602152 Z-1.000000
G01 X7.677032 Y80.697022 Z-1.000000
G01 X1.225707 Y80.697022 Z-1.000000
G00 Z6.000000
(End cutting path id: path5053)
(Start cutting path id: path5053)
(Change tool to Cylindrical cutter)
G00 Z6.000000
G00 X1.225707 Y80.697022
G01 Z-1.000000 F100.0(Penetrate)
G01 X1.225707 Y80.602152 Z-1.000000 F250.000000
G01 X10.523205 Y80.602152 Z-1.000000
G01 X7.677032 Y80.697022 Z-1.000000
G01 X1.225707 Y80.697022 Z-1.000000
G00 Z6.000000
(End cutting path id: path5053)
(Start cutting path id: path5053)
(Change tool to Cylindrical cutter)
G00 Z6.000000
G00 X1.225707 Y80.507277
G01 Z-1.000000 F100.0(Penetrate)
G01 X1.225707 Y80.412407 Z-1.000000 F250.000000
G01 X10.523205 Y80.412407 Z-1.000000
G01 X7.677032 Y80.507277 Z-1.000000
G01 X1.225707 Y80.507277 Z-1.000000
G00 Z6.000000
(End cutting path id: path5053)
(Start cutting path id: path5053)
(Change tool to Cylindrical cutter)
G00 Z6.000000
G00 X1.225707 Y80.507277
G01 Z-1.000000 F100.0(Penetrate)
G01 X1.225707 Y80.412407 Z-1.000000 F250.000000
G01 X10.523205 Y80.412407 Z-1.000000
G01 X7.677032 Y80.507277 Z-1.000000
G01 X1.225707 Y80.507277 Z-1.000000
G00 Z6.000000
(End cutting path id: path5053)
(Start cutting path id: path5053)
(Change tool to Cylindrical cutter)
G00 Z6.000000
G00 X1.225707 Y80.317533
G01 Z-1.000000 F100.0(Penetrate)
G01 X1.225707 Y80.222663 Z-1.000000 F250.000000
G01 X10.523205 Y80.222663 Z-1.000000
G01 X7.677032 Y80.317533 Z-1.000000
G01 X1.225707 Y80.317533 Z-1.000000
G00 Z6.000000
(End cutting path id: path5053)
(Start cutting path id: path5053)
(Change tool to Cylindrical cutter)
G00 Z6.000000
G00 X1.225707 Y80.317533
G01 Z-1.000000 F100.0(Penetrate)
G01 X1.225707 Y80.222663 Z-1.000000 F250.000000
G01 X10.523205 Y80.222663 Z-1.000000
G01 X7.677032 Y80.317533 Z-1.000000
G01 X1.225707 Y80.317533 Z-1.000000
G00 Z6.000000
(End cutting path id: path5053)
(Start cutting path id: path5053)
(Change tool to Cylindrical cutter)
G00 Z6.000000
G00 X1.225707 Y80.127788
G01 Z-1.000000 F100.0(Penetrate)
G01 X1.225707 Y80.032918 Z-1.000000 F250.000000
G01 X10.523205 Y80.032918 Z-1.000000
G01 X7.677032 Y80.127788 Z-1.000000
G01 X1.225707 Y80.127788 Z-1.000000
G00 Z6.000000
(End cutting path id: path5053)
(Start cutting path id: path5053)
(Change tool to Cylindrical cutter)
G00 Z6.000000
G00 X1.225707 Y80.127788
G01 Z-1.000000 F100.0(Penetrate)
G01 X1.225707 Y80.032918 Z-1.000000 F250.000000
G01 X10.523205 Y80.032918 Z-1.000000
G01 X7.677032 Y80.127788 Z-1.000000
G01 X1.225707 Y80.127788 Z-1.000000
G00 Z6.000000
(End cutting path id: path5053)
(Start cutting path id: path5053)
(Change tool to Cylindrical cutter)
G00 Z6.000000
G00 X1.225707 Y79.938043
G01 Z-1.000000 F100.0(Penetrate)
G01 X1.225707 Y79.843173 Z-1.000000 F250.000000
G01 X10.523205 Y79.843173 Z-1.000000
G01 X7.677032 Y79.938043 Z-1.000000
G01 X1.225707 Y79.938043 Z-1.000000
G00 Z6.000000
(End cutting path id: path5053)
(Start cutting path id: path5053)
(Change tool to Cylindrical cutter)
G00 Z6.000000
G00 X1.225707 Y79.938043
G01 Z-1.000000 F100.0(Penetrate)
G01 X1.225707 Y79.843173 Z-1.000000 F250.000000
G01 X10.523205 Y79.843173 Z-1.000000
G01 X7.677032 Y79.938043 Z-1.000000
G01 X1.225707 Y79.938043 Z-1.000000
G00 Z6.000000
(End cutting path id: path5053)
(Start cutting path id: path5053)
(Change tool to Cylindrical cutter)
G00 Z6.000000
G00 X1.225707 Y79.748298
G01 Z-1.000000 F100.0(Penetrate)
G01 X1.225707 Y79.653428 Z-1.000000 F250.000000
G01 X10.523205 Y79.653428 Z-1.000000
G01 X7.677032 Y79.748298 Z-1.000000
G01 X1.225707 Y79.748298 Z-1.000000
G00 Z6.000000
(End cutting path id: path5053)
(Start cutting path id: path5053)
(Change tool to Cylindrical cutter)
G00 Z6.000000
G00 X1.225707 Y79.748298
G01 Z-1.000000 F100.0(Penetrate)
G01 X1.225707 Y79.653428 Z-1.000000 F250.000000
G01 X10.523205 Y79.653428 Z-1.000000
G01 X7.677032 Y79.748298 Z-1.000000
G01 X1.225707 Y79.748298 Z-1.000000
G00 Z6.000000
(End cutting path id: path5053)
(Start cutting path id: path5053)
(Change tool to Cylindrical cutter)
G00 Z6.000000
G00 X1.225707 Y79.558553
G01 Z-1.000000 F100.0(Penetrate)
G01 X1.225707 Y79.463683 Z-1.000000 F250.000000
G01 X10.523205 Y79.463683 Z-1.000000
G01 X7.677032 Y79.558553 Z-1.000000
G01 X1.225707 Y79.558553 Z-1.000000
G00 Z6.000000
(End cutting path id: path5053)
(Start cutting path id: path5053)
(Change tool to Cylindrical cutter)
G00 Z6.000000
G00 X1.225707 Y79.558553
G01 Z-1.000000 F100.0(Penetrate)
G01 X1.225707 Y79.463683 Z-1.000000 F250.000000
G01 X10.523205 Y79.463683 Z-1.000000
G01 X7.677032 Y79.558553 Z-1.000000
G01 X1.225707 Y79.558553 Z-1.000000
G00 Z6.000000
(End cutting path id: path5053)
(Start cutting path id: path5053)
(Change tool to Cylindrical cutter)
G00 Z6.000000
G00 X1.225707 Y79.368808
G01 Z-1.000000 F100.0(Penetrate)
G01 X1.225707 Y79.273938 Z-1.000000 F250.000000
G01 X10.523205 Y79.273938 Z-1.000000
G01 X7.677032 Y79.368808 Z-1.000000
G01 X1.225707 Y79.368808 Z-1.000000
G00 Z6.000000
(End cutting path id: path5053)
(Start cutting path id: path5053)
(Change tool to Cylindrical cutter)
G00 Z6.000000
G00 X1.225707 Y79.368808
G01 Z-1.000000 F100.0(Penetrate)
G01 X1.225707 Y79.273938 Z-1.000000 F250.000000
G01 X10.523205 Y79.273938 Z-1.000000
G01 X7.677032 Y79.368808 Z-1.000000
G01 X1.225707 Y79.368808 Z-1.000000
G00 Z6.000000
(End cutting path id: path5053)
(Start cutting path id: path5053)
(Change tool to Cylindrical cutter)
G00 Z6.000000
G00 X1.225707 Y79.179063
G01 Z-1.000000 F100.0(Penetrate)
G01 X1.225707 Y79.084193 Z-1.000000 F250.000000
G01 X10.523205 Y79.084193 Z-1.000000
G01 X7.677032 Y79.179063 Z-1.000000
G01 X1.225707 Y79.179063 Z-1.000000
G00 Z6.000000
(End cutting path id: path5053)
(Start cutting path id: path5053)
(Change tool to Cylindrical cutter)
G00 Z6.000000
G00 X1.225707 Y79.179063
G01 Z-1.000000 F100.0(Penetrate)
G01 X1.225707 Y79.084193 Z-1.000000 F250.000000
G01 X10.523205 Y79.084193 Z-1.000000
G01 X7.677032 Y79.179063 Z-1.000000
G01 X1.225707 Y79.179063 Z-1.000000
G00 Z6.000000
(End cutting path id: path5053)
(Start cutting path id: path5053)
(Change tool to Cylindrical cutter)
G00 Z6.000000
G00 X1.225707 Y78.989319
G01 Z-1.000000 F100.0(Penetrate)
G01 X1.225707 Y78.894449 Z-1.000000 F250.000000
G01 X10.523205 Y78.894449 Z-1.000000
G01 X7.677032 Y78.989319 Z-1.000000
G01 X1.225707 Y78.989319 Z-1.000000
G00 Z6.000000
(End cutting path id: path5053)
(Start cutting path id: path5053)
(Change tool to Cylindrical cutter)
G00 Z6.000000
G00 X1.225707 Y78.989319
G01 Z-1.000000 F100.0(Penetrate)
G01 X1.225707 Y78.894449 Z-1.000000 F250.000000
G01 X10.523205 Y78.894449 Z-1.000000
G01 X7.677032 Y78.989319 Z-1.000000
G01 X1.225707 Y78.989319 Z-1.000000
G00 Z6.000000
(End cutting path id: path5053)
(Start cutting path id: path5053)
(Change tool to Cylindrical cutter)
G00 Z6.000000
G00 X1.225707 Y78.799574
G01 Z-1.000000 F100.0(Penetrate)
G01 X1.225707 Y78.704704 Z-1.000000 F250.000000
G01 X10.523205 Y78.704704 Z-1.000000
G01 X7.677032 Y78.799574 Z-1.000000
G01 X1.225707 Y78.799574 Z-1.000000
G00 Z6.000000
(End cutting path id: path5053)
(Start cutting path id: path5053)
(Change tool to Cylindrical cutter)
G00 Z6.000000
G00 X1.225707 Y78.799574
G01 Z-1.000000 F100.0(Penetrate)
G01 X1.225707 Y78.704704 Z-1.000000 F250.000000
G01 X10.523205 Y78.704704 Z-1.000000
G01 X7.677032 Y78.799574 Z-1.000000
G01 X1.225707 Y78.799574 Z-1.000000
G00 Z6.000000
(End cutting path id: path5053)
(Start cutting path id: path5053)
(Change tool to Cylindrical cutter)
G00 Z6.000000
G00 X1.225707 Y78.609829
G01 Z-1.000000 F100.0(Penetrate)
G01 X1.225707 Y78.514959 Z-1.000000 F250.000000
G01 X10.523205 Y78.514959 Z-1.000000
G01 X7.677032 Y78.609829 Z-1.000000
G01 X1.225707 Y78.609829 Z-1.000000
G00 Z6.000000
(End cutting path id: path5053)
(Start cutting path id: path5053)
(Change tool to Cylindrical cutter)
G00 Z6.000000
G00 X1.225707 Y78.609829
G01 Z-1.000000 F100.0(Penetrate)
G01 X1.225707 Y78.514959 Z-1.000000 F250.000000
G01 X10.523205 Y78.514959 Z-1.000000
G01 X7.677032 Y78.609829 Z-1.000000
G01 X1.225707 Y78.609829 Z-1.000000
G00 Z6.000000
(End cutting path id: path5053)
(Start cutting path id: path5053)
(Change tool to Cylindrical cutter)
G00 Z6.000000
G00 X1.225707 Y78.420084
G01 Z-1.000000 F100.0(Penetrate)
G01 X1.225707 Y78.325214 Z-1.000000 F250.000000
G01 X10.523205 Y78.325214 Z-1.000000
G01 X7.677032 Y78.420084 Z-1.000000
G01 X1.225707 Y78.420084 Z-1.000000
G00 Z6.000000
(End cutting path id: path5053)
(Start cutting path id: path5053)
(Change tool to Cylindrical cutter)
G00 Z6.000000
G00 X1.225707 Y78.420084
G01 Z-1.000000 F100.0(Penetrate)
G01 X1.225707 Y78.325214 Z-1.000000 F250.000000
G01 X10.523205 Y78.325214 Z-1.000000
G01 X7.677032 Y78.420084 Z-1.000000
G01 X1.225707 Y78.420084 Z-1.000000
G00 Z6.000000
(End cutting path id: path5053)
(Start cutting path id: path5053)
(Change tool to Cylindrical cutter)
G00 Z6.000000
G00 X1.225707 Y78.230339
G01 Z-1.000000 F100.0(Penetrate)
G01 X1.225707 Y78.135469 Z-1.000000 F250.000000
G01 X10.523205 Y78.135469 Z-1.000000
G01 X7.677032 Y78.230339 Z-1.000000
G01 X1.225707 Y78.230339 Z-1.000000
G00 Z6.000000
(End cutting path id: path5053)
(Start cutting path id: path5053)
(Change tool to Cylindrical cutter)
G00 Z6.000000
G00 X1.225707 Y78.230339
G01 Z-1.000000 F100.0(Penetrate)
G01 X1.225707 Y78.135469 Z-1.000000 F250.000000
G01 X10.523205 Y78.135469 Z-1.000000
G01 X7.677032 Y78.230339 Z-1.000000
G01 X1.225707 Y78.230339 Z-1.000000
G00 Z6.000000
(End cutting path id: path5053)
(Start cutting path id: path5053)
(Change tool to Cylindrical cutter)
G00 Z6.000000
G00 X1.225707 Y78.040594
G01 Z-1.000000 F100.0(Penetrate)
G01 X1.225707 Y77.945724 Z-1.000000 F250.000000
G01 X10.523205 Y77.945724 Z-1.000000
G01 X7.677032 Y78.040594 Z-1.000000
G01 X1.225707 Y78.040594 Z-1.000000
G00 Z6.000000
(End cutting path id: path5053)
(Start cutting path id: path5053)
(Change tool to Cylindrical cutter)
G00 Z6.000000
G00 X1.225707 Y78.040594
G01 Z-1.000000 F100.0(Penetrate)
G01 X1.225707 Y77.945724 Z-1.000000 F250.000000
G01 X10.523205 Y77.945724 Z-1.000000
G01 X7.677032 Y78.040594 Z-1.000000
G01 X1.225707 Y78.040594 Z-1.000000
G00 Z6.000000
(End cutting path id: path5053)
(Start cutting path id: path5053)
(Change tool to Cylindrical cutter)
G00 Z6.000000
G00 X1.225707 Y77.850849
G01 Z-1.000000 F100.0(Penetrate)
G01 X1.225707 Y77.755979 Z-1.000000 F250.000000
G01 X10.523205 Y77.755979 Z-1.000000
G01 X7.677032 Y77.850849 Z-1.000000
G01 X1.225707 Y77.850849 Z-1.000000
G00 Z6.000000
(End cutting path id: path5053)
(Start cutting path id: path5053)
(Change tool to Cylindrical cutter)
G00 Z6.000000
G00 X1.225707 Y77.850849
G01 Z-1.000000 F100.0(Penetrate)
G01 X1.225707 Y77.755979 Z-1.000000 F250.000000
G01 X10.523205 Y77.755979 Z-1.000000
G01 X7.677032 Y77.850849 Z-1.000000
G01 X1.225707 Y77.850849 Z-1.000000
G00 Z6.000000
(End cutting path id: path5053)
(Start cutting path id: path5053)
(Change tool to Cylindrical cutter)
G00 Z6.000000
G00 X1.225707 Y77.661105
G01 Z-1.000000 F100.0(Penetrate)
G01 X1.225707 Y77.566235 Z-1.000000 F250.000000
G01 X10.523205 Y77.566235 Z-1.000000
G01 X7.677032 Y77.661105 Z-1.000000
G01 X1.225707 Y77.661105 Z-1.000000
G00 Z6.000000
(End cutting path id: path5053)
(Start cutting path id: path5053)
(Change tool to Cylindrical cutter)
G00 Z6.000000
G00 X1.225707 Y77.661105
G01 Z-1.000000 F100.0(Penetrate)
G01 X1.225707 Y77.566235 Z-1.000000 F250.000000
G01 X10.523205 Y77.566235 Z-1.000000
G01 X7.677032 Y77.661105 Z-1.000000
G01 X1.225707 Y77.661105 Z-1.000000
G00 Z6.000000
(End cutting path id: path5053)
(Start cutting path id: path5053)
(Change tool to Cylindrical cutter)
G00 Z6.000000
G00 X1.225707 Y77.471360
G01 Z-1.000000 F100.0(Penetrate)
G01 X1.225707 Y77.376490 Z-1.000000 F250.000000
G01 X10.523205 Y77.376490 Z-1.000000
G01 X7.677032 Y77.471360 Z-1.000000
G01 X1.225707 Y77.471360 Z-1.000000
G00 Z6.000000
(End cutting path id: path5053)
(Start cutting path id: path5053)
(Change tool to Cylindrical cutter)
G00 Z6.000000
G00 X1.225707 Y77.471360
G01 Z-1.000000 F100.0(Penetrate)
G01 X1.225707 Y77.376490 Z-1.000000 F250.000000
G01 X10.523205 Y77.376490 Z-1.000000
G01 X7.677032 Y77.471360 Z-1.000000
G01 X1.225707 Y77.471360 Z-1.000000
G00 Z6.000000
(End cutting path id: path5053)
(Start cutting path id: path5053)
(Change tool to Cylindrical cutter)
G00 Z6.000000
G00 X1.225707 Y77.281615
G01 Z-1.000000 F100.0(Penetrate)
G01 X1.225707 Y77.186745 Z-1.000000 F250.000000
G01 X10.523205 Y77.186745 Z-1.000000
G01 X7.677032 Y77.281615 Z-1.000000
G01 X1.225707 Y77.281615 Z-1.000000
G00 Z6.000000
(End cutting path id: path5053)
(Start cutting path id: path5053)
(Change tool to Cylindrical cutter)
G00 Z6.000000
G00 X1.225707 Y77.281615
G01 Z-1.000000 F100.0(Penetrate)
G01 X1.225707 Y77.186745 Z-1.000000 F250.000000
G01 X10.523205 Y77.186745 Z-1.000000
G01 X7.677032 Y77.281615 Z-1.000000
G01 X1.225707 Y77.281615 Z-1.000000
G00 Z6.000000
(End cutting path id: path5053)
(Start cutting path id: path5053)
(Change tool to Cylindrical cutter)
G00 Z6.000000
G00 X1.225707 Y77.091870
G01 Z-1.000000 F100.0(Penetrate)
G01 X1.225707 Y76.997000 Z-1.000000 F250.000000
G01 X10.523205 Y76.997000 Z-1.000000
G01 X7.677032 Y77.091870 Z-1.000000
G01 X1.225707 Y77.091870 Z-1.000000
G00 Z6.000000
(End cutting path id: path5053)
(Start cutting path id: path5053)
(Change tool to Cylindrical cutter)
G00 Z6.000000
G00 X1.225707 Y77.091870
G01 Z-1.000000 F100.0(Penetrate)
G01 X1.225707 Y76.997000 Z-1.000000 F250.000000
G01 X10.523205 Y76.997000 Z-1.000000
G01 X7.677032 Y77.091870 Z-1.000000
G01 X1.225707 Y77.091870 Z-1.000000
G00 Z6.000000
(End cutting path id: path5053)
(Start cutting path id: path5053)
(Change tool to Cylindrical cutter)
G00 Z6.000000
G00 X1.225707 Y76.902125
G01 Z-1.000000 F100.0(Penetrate)
G01 X1.225707 Y76.807255 Z-1.000000 F250.000000
G01 X10.523205 Y76.807255 Z-1.000000
G01 X7.677032 Y76.902125 Z-1.000000
G01 X1.225707 Y76.902125 Z-1.000000
G00 Z6.000000
(End cutting path id: path5053)
(Start cutting path id: path5053)
(Change tool to Cylindrical cutter)
G00 Z6.000000
G00 X1.225707 Y76.902125
G01 Z-1.000000 F100.0(Penetrate)
G01 X1.225707 Y76.807255 Z-1.000000 F250.000000
G01 X10.523205 Y76.807255 Z-1.000000
G01 X7.677032 Y76.902125 Z-1.000000
G01 X1.225707 Y76.902125 Z-1.000000
G00 Z6.000000
(End cutting path id: path5053)
(Start cutting path id: path5053)
(Change tool to Cylindrical cutter)
G00 Z6.000000
G00 X1.225707 Y76.712380
G01 Z-1.000000 F100.0(Penetrate)
G01 X1.225707 Y76.617510 Z-1.000000 F250.000000
G01 X10.523205 Y76.617510 Z-1.000000
G01 X7.677032 Y76.712380 Z-1.000000
G01 X1.225707 Y76.712380 Z-1.000000
G00 Z6.000000
(End cutting path id: path5053)
(Start cutting path id: path5053)
(Change tool to Cylindrical cutter)
G00 Z6.000000
G00 X1.225707 Y76.712380
G01 Z-1.000000 F100.0(Penetrate)
G01 X1.225707 Y76.617510 Z-1.000000 F250.000000
G01 X10.523205 Y76.617510 Z-1.000000
G01 X7.677032 Y76.712380 Z-1.000000
G01 X1.225707 Y76.712380 Z-1.000000
G00 Z6.000000
(End cutting path id: path5053)
(Start cutting path id: path5053)
(Change tool to Cylindrical cutter)
G00 Z6.000000
G00 X1.225707 Y76.522635
G01 Z-1.000000 F100.0(Penetrate)
G01 X1.225707 Y76.427765 Z-1.000000 F250.000000
G01 X10.523205 Y76.427765 Z-1.000000
G01 X7.677032 Y76.522635 Z-1.000000
G01 X1.225707 Y76.522635 Z-1.000000
G00 Z6.000000
(End cutting path id: path5053)
(Start cutting path id: path5053)
(Change tool to Cylindrical cutter)
G00 Z6.000000
G00 X1.225707 Y76.522635
G01 Z-1.000000 F100.0(Penetrate)
G01 X1.225707 Y76.427765 Z-1.000000 F250.000000
G01 X10.523205 Y76.427765 Z-1.000000
G01 X7.677032 Y76.522635 Z-1.000000
G01 X1.225707 Y76.522635 Z-1.000000
G00 Z6.000000
(End cutting path id: path5053)
(Start cutting path id: path5053)
(Change tool to Cylindrical cutter)
G00 Z6.000000
G00 X1.225707 Y76.332891
G01 Z-1.000000 F100.0(Penetrate)
G01 X1.225707 Y76.238021 Z-1.000000 F250.000000
G01 X10.523205 Y76.238021 Z-1.000000
G01 X7.677032 Y76.332891 Z-1.000000
G01 X1.225707 Y76.332891 Z-1.000000
G00 Z6.000000
(End cutting path id: path5053)
(Start cutting path id: path5053)
(Change tool to Cylindrical cutter)
G00 Z6.000000
G00 X1.225707 Y76.332891
G01 Z-1.000000 F100.0(Penetrate)
G01 X1.225707 Y76.238021 Z-1.000000 F250.000000
G01 X10.523205 Y76.238021 Z-1.000000
G01 X7.677032 Y76.332891 Z-1.000000
G01 X1.225707 Y76.332891 Z-1.000000
G00 Z6.000000
(End cutting path id: path5053)
(Start cutting path id: path5053)
(Change tool to Cylindrical cutter)
G00 Z6.000000
G00 X1.225707 Y76.143146
G01 Z-1.000000 F100.0(Penetrate)
G01 X1.225707 Y76.048276 Z-1.000000 F250.000000
G01 X10.523205 Y76.048276 Z-1.000000
G01 X7.677032 Y76.143146 Z-1.000000
G01 X1.225707 Y76.143146 Z-1.000000
G00 Z6.000000
(End cutting path id: path5053)
(Start cutting path id: path5053)
(Change tool to Cylindrical cutter)
G00 Z6.000000
G00 X1.225707 Y76.143146
G01 Z-1.000000 F100.0(Penetrate)
G01 X1.225707 Y76.048276 Z-1.000000 F250.000000
G01 X10.523205 Y76.048276 Z-1.000000
G01 X7.677032 Y76.143146 Z-1.000000
G01 X1.225707 Y76.143146 Z-1.000000
G00 Z6.000000
(End cutting path id: path5053)
(Start cutting path id: path5053)
(Change tool to Cylindrical cutter)
G00 Z6.000000
G00 X1.225707 Y75.953401
G01 Z-1.000000 F100.0(Penetrate)
G01 X1.225707 Y75.858531 Z-1.000000 F250.000000
G01 X10.523205 Y75.858531 Z-1.000000
G01 X7.677032 Y75.953401 Z-1.000000
G01 X1.225707 Y75.953401 Z-1.000000
G00 Z6.000000
(End cutting path id: path5053)
(Start cutting path id: path5053)
(Change tool to Cylindrical cutter)
G00 Z6.000000
G00 X1.225707 Y75.953401
G01 Z-1.000000 F100.0(Penetrate)
G01 X1.225707 Y75.858531 Z-1.000000 F250.000000
G01 X10.523205 Y75.858531 Z-1.000000
G01 X7.677032 Y75.953401 Z-1.000000
G01 X1.225707 Y75.953401 Z-1.000000
G00 Z6.000000
(End cutting path id: path5053)
(Start cutting path id: path5053)
(Change tool to Cylindrical cutter)
G00 Z6.000000
G00 X1.225707 Y75.763656
G01 Z-1.000000 F100.0(Penetrate)
G01 X1.225707 Y75.668786 Z-1.000000 F250.000000
G01 X10.618077 Y75.668786 Z-1.000000
G01 X7.771904 Y75.763656 Z-1.000000
G01 X1.225707 Y75.763656 Z-1.000000
G00 Z6.000000
(End cutting path id: path5053)
(Start cutting path id: path5053)
(Change tool to Cylindrical cutter)
G00 Z6.000000
G00 X1.225707 Y75.763656
G01 Z-1.000000 F100.0(Penetrate)
G01 X1.225707 Y75.668786 Z-1.000000 F250.000000
G01 X10.618077 Y75.668786 Z-1.000000
G01 X7.771904 Y75.763656 Z-1.000000
G01 X1.225707 Y75.763656 Z-1.000000
G00 Z6.000000
(End cutting path id: path5053)
(Start cutting path id: path5053)
(Change tool to Cylindrical cutter)
G00 Z6.000000
G00 X1.225707 Y75.573911
G01 Z-1.000000 F100.0(Penetrate)
G01 X1.225707 Y75.479041 Z-1.000000 F250.000000
G01 X10.618077 Y75.479041 Z-1.000000
G01 X7.771904 Y75.573911 Z-1.000000
G01 X1.225707 Y75.573911 Z-1.000000
G00 Z6.000000
(End cutting path id: path5053)
(Start cutting path id: path5053)
(Change tool to Cylindrical cutter)
G00 Z6.000000
G00 X1.225707 Y75.573911
G01 Z-1.000000 F100.0(Penetrate)
G01 X1.225707 Y75.479041 Z-1.000000 F250.000000
G01 X10.618077 Y75.479041 Z-1.000000
G01 X7.771904 Y75.573911 Z-1.000000
G01 X1.225707 Y75.573911 Z-1.000000
G00 Z6.000000
(End cutting path id: path5053)
(Start cutting path id: path5053)
(Change tool to Cylindrical cutter)
G00 Z6.000000
G00 X1.225707 Y75.384166
G01 Z-1.000000 F100.0(Penetrate)
G01 X1.225707 Y75.289296 Z-1.000000 F250.000000
G01 X10.618077 Y75.289296 Z-1.000000
G01 X7.771904 Y75.384166 Z-1.000000
G01 X1.225707 Y75.384166 Z-1.000000
G00 Z6.000000
(End cutting path id: path5053)
(Start cutting path id: path5053)
(Change tool to Cylindrical cutter)
G00 Z6.000000
G00 X1.225707 Y75.384166
G01 Z-1.000000 F100.0(Penetrate)
G01 X1.225707 Y75.289296 Z-1.000000 F250.000000
G01 X10.618077 Y75.289296 Z-1.000000
G01 X7.771904 Y75.384166 Z-1.000000
G01 X1.225707 Y75.384166 Z-1.000000
G00 Z6.000000
(End cutting path id: path5053)
(Start cutting path id: path5053)
(Change tool to Cylindrical cutter)
G00 Z6.000000
G00 X1.225707 Y75.194421
G01 Z-1.000000 F100.0(Penetrate)
G01 X1.225707 Y75.099551 Z-1.000000 F250.000000
G01 X10.618077 Y75.099551 Z-1.000000
G01 X7.771904 Y75.194421 Z-1.000000
G01 X1.225707 Y75.194421 Z-1.000000
G00 Z6.000000
(End cutting path id: path5053)
(Start cutting path id: path5053)
(Change tool to Cylindrical cutter)
G00 Z6.000000
G00 X1.225707 Y75.194421
G01 Z-1.000000 F100.0(Penetrate)
G01 X1.225707 Y75.099551 Z-1.000000 F250.000000
G01 X10.618077 Y75.099551 Z-1.000000
G01 X7.771904 Y75.194421 Z-1.000000
G01 X1.225707 Y75.194421 Z-1.000000
G00 Z6.000000
(End cutting path id: path5053)
(Start cutting path id: path5053)
(Change tool to Cylindrical cutter)
G00 Z6.000000
G00 X1.225707 Y75.004677
G01 Z-1.000000 F100.0(Penetrate)
G01 X1.225707 Y74.909807 Z-1.000000 F250.000000
G01 X10.712950 Y74.909807 Z-1.000000
G01 X7.771904 Y75.004677 Z-1.000000
G01 X1.225707 Y75.004677 Z-1.000000
G00 Z6.000000
(End cutting path id: path5053)
(Start cutting path id: path5053)
(Change tool to Cylindrical cutter)
G00 Z6.000000
G00 X1.225707 Y75.004677
G01 Z-1.000000 F100.0(Penetrate)
G01 X1.225707 Y74.909807 Z-1.000000 F250.000000
G01 X10.712950 Y74.909807 Z-1.000000
G01 X7.771904 Y75.004677 Z-1.000000
G01 X1.225707 Y75.004677 Z-1.000000
G00 Z6.000000
(End cutting path id: path5053)
(Start cutting path id: path5053)
(Change tool to Cylindrical cutter)
G00 Z6.000000
G00 X1.225707 Y74.814932
G01 Z-1.000000 F100.0(Penetrate)
G01 X1.225707 Y74.720062 Z-1.000000 F250.000000
G01 X10.712950 Y74.720062 Z-1.000000
G01 X7.771904 Y74.814932 Z-1.000000
G01 X1.225707 Y74.814932 Z-1.000000
G00 Z6.000000
(End cutting path id: path5053)
(Start cutting path id: path5053)
(Change tool to Cylindrical cutter)
G00 Z6.000000
G00 X1.225707 Y74.814932
G01 Z-1.000000 F100.0(Penetrate)
G01 X1.225707 Y74.720062 Z-1.000000 F250.000000
G01 X10.712950 Y74.720062 Z-1.000000
G01 X7.771904 Y74.814932 Z-1.000000
G01 X1.225707 Y74.814932 Z-1.000000
G00 Z6.000000
(End cutting path id: path5053)
(Start cutting path id: path5053)
(Change tool to Cylindrical cutter)
G00 Z6.000000
G00 X1.225707 Y74.625187
G01 Z-1.000000 F100.0(Penetrate)
G01 X1.225707 Y74.530317 Z-1.000000 F250.000000
G01 X10.807822 Y74.530317 Z-1.000000
G01 X7.866777 Y74.625187 Z-1.000000
G01 X1.225707 Y74.625187 Z-1.000000
G00 Z6.000000
(End cutting path id: path5053)
(Start cutting path id: path5053)
(Change tool to Cylindrical cutter)
G00 Z6.000000
G00 X1.225707 Y74.625187
G01 Z-1.000000 F100.0(Penetrate)
G01 X1.225707 Y74.530317 Z-1.000000 F250.000000
G01 X10.807822 Y74.530317 Z-1.000000
G01 X7.866777 Y74.625187 Z-1.000000
G01 X1.225707 Y74.625187 Z-1.000000
G00 Z6.000000
(End cutting path id: path5053)
(Start cutting path id: path5053)
(Change tool to Cylindrical cutter)
G00 Z6.000000
G00 X1.225707 Y74.435442
G01 Z-1.000000 F100.0(Penetrate)
G01 X1.225707 Y74.340572 Z-1.000000 F250.000000
G01 X10.807822 Y74.340572 Z-1.000000
G01 X7.866777 Y74.435442 Z-1.000000
G01 X1.225707 Y74.435442 Z-1.000000
G00 Z6.000000
(End cutting path id: path5053)
(Start cutting path id: path5053)
(Change tool to Cylindrical cutter)
G00 Z6.000000
G00 X1.225707 Y74.435442
G01 Z-1.000000 F100.0(Penetrate)
G01 X1.225707 Y74.340572 Z-1.000000 F250.000000
G01 X10.807822 Y74.340572 Z-1.000000
G01 X7.866777 Y74.435442 Z-1.000000
G01 X1.225707 Y74.435442 Z-1.000000
G00 Z6.000000
(End cutting path id: path5053)
(Start cutting path id: path5053)
(Change tool to Cylindrical cutter)
G00 Z6.000000
G00 X1.225707 Y74.245697
G01 Z-1.000000 F100.0(Penetrate)
G01 X1.225707 Y74.150827 Z-1.000000 F250.000000
G01 X10.902695 Y74.150827 Z-1.000000
G01 X7.961649 Y74.245697 Z-1.000000
G01 X1.225707 Y74.245697 Z-1.000000
G00 Z6.000000
(End cutting path id: path5053)
(Start cutting path id: path5053)
(Change tool to Cylindrical cutter)
G00 Z6.000000
G00 X1.225707 Y74.245697
G01 Z-1.000000 F100.0(Penetrate)
G01 X1.225707 Y74.150827 Z-1.000000 F250.000000
G01 X10.902695 Y74.150827 Z-1.000000
G01 X7.961649 Y74.245697 Z-1.000000
G01 X1.225707 Y74.245697 Z-1.000000
G00 Z6.000000
(End cutting path id: path5053)
(Start cutting path id: path5053)
(Change tool to Cylindrical cutter)
G00 Z6.000000
G00 X1.225707 Y74.055952
G01 Z-1.000000 F100.0(Penetrate)
G01 X1.225707 Y73.961082 Z-1.000000 F250.000000
G01 X10.902695 Y73.961082 Z-1.000000
G01 X7.961649 Y74.055952 Z-1.000000
G01 X1.225707 Y74.055952 Z-1.000000
G00 Z6.000000
(End cutting path id: path5053)
(Start cutting path id: path5053)
(Change tool to Cylindrical cutter)
G00 Z6.000000
G00 X1.225707 Y74.055952
G01 Z-1.000000 F100.0(Penetrate)
G01 X1.225707 Y73.961082 Z-1.000000 F250.000000
G01 X10.902695 Y73.961082 Z-1.000000
G01 X7.961649 Y74.055952 Z-1.000000
G01 X1.225707 Y74.055952 Z-1.000000
G00 Z6.000000
(End cutting path id: path5053)
(Start cutting path id: path5053)
(Change tool to Cylindrical cutter)
G00 Z6.000000
G00 X1.225707 Y73.866207
G01 Z-1.000000 F100.0(Penetrate)
G01 X1.225707 Y73.771337 Z-1.000000 F250.000000
G01 X10.997567 Y73.771337 Z-1.000000
G01 X8.056522 Y73.866207 Z-1.000000
G01 X1.225707 Y73.866207 Z-1.000000
G00 Z6.000000
(End cutting path id: path5053)
(Start cutting path id: path5053)
(Change tool to Cylindrical cutter)
G00 Z6.000000
G00 X1.225707 Y73.866207
G01 Z-1.000000 F100.0(Penetrate)
G01 X1.225707 Y73.771337 Z-1.000000 F250.000000
G01 X10.997567 Y73.771337 Z-1.000000
G01 X8.056522 Y73.866207 Z-1.000000
G01 X1.225707 Y73.866207 Z-1.000000
G00 Z6.000000
(End cutting path id: path5053)
(Start cutting path id: path5053)
(Change tool to Cylindrical cutter)
G00 Z6.000000
G00 X1.225707 Y73.676463
G01 Z-1.000000 F100.0(Penetrate)
G01 X1.225707 Y73.581593 Z-1.000000 F250.000000
G01 X11.092439 Y73.581593 Z-1.000000
G01 X8.056522 Y73.676463 Z-1.000000
G01 X1.225707 Y73.676463 Z-1.000000
G00 Z6.000000
(End cutting path id: path5053)
(Start cutting path id: path5053)
(Change tool to Cylindrical cutter)
G00 Z6.000000
G00 X1.225707 Y73.676463
G01 Z-1.000000 F100.0(Penetrate)
G01 X1.225707 Y73.581593 Z-1.000000 F250.000000
G01 X11.092439 Y73.581593 Z-1.000000
G01 X8.056522 Y73.676463 Z-1.000000
G01 X1.225707 Y73.676463 Z-1.000000
G00 Z6.000000
(End cutting path id: path5053)
(Start cutting path id: path5053)
(Change tool to Cylindrical cutter)
G00 Z6.000000
G00 X1.225707 Y73.486718
G01 Z-1.000000 F100.0(Penetrate)
G01 X1.225707 Y73.391848 Z-1.000000 F250.000000
G01 X11.092439 Y73.391848 Z-1.000000
G01 X8.056522 Y73.486718 Z-1.000000
G01 X1.225707 Y73.486718 Z-1.000000
G00 Z6.000000
(End cutting path id: path5053)
(Start cutting path id: path5053)
(Change tool to Cylindrical cutter)
G00 Z6.000000
G00 X1.225707 Y73.486718
G01 Z-1.000000 F100.0(Penetrate)
G01 X1.225707 Y73.391848 Z-1.000000 F250.000000
G01 X11.092439 Y73.391848 Z-1.000000
G01 X8.056522 Y73.486718 Z-1.000000
G01 X1.225707 Y73.486718 Z-1.000000
G00 Z6.000000
(End cutting path id: path5053)
(Start cutting path id: path5053)
(Change tool to Cylindrical cutter)
G00 Z6.000000
G00 X1.225707 Y73.296973
G01 Z-1.000000 F100.0(Penetrate)
G01 X1.225707 Y73.202103 Z-1.000000 F250.000000
G01 X11.187312 Y73.202103 Z-1.000000
G01 X8.151394 Y73.296973 Z-1.000000
G01 X1.225707 Y73.296973 Z-1.000000
G00 Z6.000000
(End cutting path id: path5053)
(Start cutting path id: path5053)
(Change tool to Cylindrical cutter)
G00 Z6.000000
G00 X1.225707 Y73.296973
G01 Z-1.000000 F100.0(Penetrate)
G01 X1.225707 Y73.202103 Z-1.000000 F250.000000
G01 X11.187312 Y73.202103 Z-1.000000
G01 X8.151394 Y73.296973 Z-1.000000
G01 X1.225707 Y73.296973 Z-1.000000
G00 Z6.000000
(End cutting path id: path5053)
(Start cutting path id: path5053)
(Change tool to Cylindrical cutter)
G00 Z6.000000
G00 X1.225707 Y73.107228
G01 Z-1.000000 F100.0(Penetrate)
G01 X1.225707 Y73.012358 Z-1.000000 F250.000000
G01 X11.282184 Y73.012358 Z-1.000000
G01 X8.246266 Y73.107228 Z-1.000000
G01 X1.225707 Y73.107228 Z-1.000000
G00 Z6.000000
(End cutting path id: path5053)
(Start cutting path id: path5053)
(Change tool to Cylindrical cutter)
G00 Z6.000000
G00 X1.225707 Y73.107228
G01 Z-1.000000 F100.0(Penetrate)
G01 X1.225707 Y73.012358 Z-1.000000 F250.000000
G01 X11.282184 Y73.012358 Z-1.000000
G01 X8.246266 Y73.107228 Z-1.000000
G01 X1.225707 Y73.107228 Z-1.000000
G00 Z6.000000
(End cutting path id: path5053)
(Start cutting path id: path5053)
(Change tool to Cylindrical cutter)
G00 Z6.000000
G00 X1.225707 Y72.917483
G01 Z-1.000000 F100.0(Penetrate)
G01 X1.225707 Y72.822613 Z-1.000000 F250.000000
G01 X11.377057 Y72.822613 Z-1.000000
G01 X8.246266 Y72.917483 Z-1.000000
G01 X1.225707 Y72.917483 Z-1.000000
G00 Z6.000000
(End cutting path id: path5053)
(Start cutting path id: path5053)
(Change tool to Cylindrical cutter)
G00 Z6.000000
G00 X1.225707 Y72.917483
G01 Z-1.000000 F100.0(Penetrate)
G01 X1.225707 Y72.822613 Z-1.000000 F250.000000
G01 X11.377057 Y72.822613 Z-1.000000
G01 X8.246266 Y72.917483 Z-1.000000
G01 X1.225707 Y72.917483 Z-1.000000
G00 Z6.000000
(End cutting path id: path5053)
(Start cutting path id: path5053)
(Change tool to Cylindrical cutter)
G00 Z6.000000
G00 X1.225707 Y72.727738
G01 Z-1.000000 F100.0(Penetrate)
G01 X1.225707 Y72.632868 Z-1.000000 F250.000000
G01 X11.471929 Y72.632868 Z-1.000000
G01 X8.341139 Y72.727738 Z-1.000000
G01 X1.225707 Y72.727738 Z-1.000000
G00 Z6.000000
(End cutting path id: path5053)
(Start cutting path id: path5053)
(Change tool to Cylindrical cutter)
G00 Z6.000000
G00 X1.225707 Y72.727738
G01 Z-1.000000 F100.0(Penetrate)
G01 X1.225707 Y72.632868 Z-1.000000 F250.000000
G01 X11.471929 Y72.632868 Z-1.000000
G01 X8.341139 Y72.727738 Z-1.000000
G01 X1.225707 Y72.727738 Z-1.000000
G00 Z6.000000
(End cutting path id: path5053)
(Start cutting path id: path5053)
(Change tool to Cylindrical cutter)
G00 Z6.000000
G00 X1.225707 Y72.537993
G01 Z-1.000000 F100.0(Penetrate)
G01 X1.225707 Y72.443123 Z-1.000000 F250.000000
G01 X11.566802 Y72.443123 Z-1.000000
G01 X8.436011 Y72.537993 Z-1.000000
G01 X1.225707 Y72.537993 Z-1.000000
G00 Z6.000000
(End cutting path id: path5053)
(Start cutting path id: path5053)
(Change tool to Cylindrical cutter)
G00 Z6.000000
G00 X1.225707 Y72.537993
G01 Z-1.000000 F100.0(Penetrate)
G01 X1.225707 Y72.443123 Z-1.000000 F250.000000
G01 X11.566802 Y72.443123 Z-1.000000
G01 X8.436011 Y72.537993 Z-1.000000
G01 X1.225707 Y72.537993 Z-1.000000
G00 Z6.000000
(End cutting path id: path5053)
(Start cutting path id: path5053)
(Change tool to Cylindrical cutter)
G00 Z6.000000
G00 X1.225707 Y72.348249
G01 Z-1.000000 F100.0(Penetrate)
G01 X1.225707 Y72.253379 Z-1.000000 F250.000000
G01 X11.661674 Y72.253379 Z-1.000000
G01 X8.436011 Y72.348249 Z-1.000000
G01 X1.225707 Y72.348249 Z-1.000000
G00 Z6.000000
(End cutting path id: path5053)
(Start cutting path id: path5053)
(Change tool to Cylindrical cutter)
G00 Z6.000000
G00 X1.225707 Y72.348249
G01 Z-1.000000 F100.0(Penetrate)
G01 X1.225707 Y72.253379 Z-1.000000 F250.000000
G01 X11.661674 Y72.253379 Z-1.000000
G01 X8.436011 Y72.348249 Z-1.000000
G01 X1.225707 Y72.348249 Z-1.000000
G00 Z6.000000
(End cutting path id: path5053)
(Start cutting path id: path5053)
(Change tool to Cylindrical cutter)
G00 Z6.000000
G00 X1.225707 Y72.158504
G01 Z-1.000000 F100.0(Penetrate)
G01 X1.225707 Y72.063634 Z-1.000000 F250.000000
G01 X11.851419 Y72.063634 Z-1.000000
G01 X8.625756 Y72.158504 Z-1.000000
G01 X1.225707 Y72.158504 Z-1.000000
G00 Z6.000000
(End cutting path id: path5053)
(Start cutting path id: path5053)
(Change tool to Cylindrical cutter)
G00 Z6.000000
G00 X1.225707 Y72.158504
G01 Z-1.000000 F100.0(Penetrate)
G01 X1.225707 Y72.063634 Z-1.000000 F250.000000
G01 X11.851419 Y72.063634 Z-1.000000
G01 X8.625756 Y72.158504 Z-1.000000
G01 X1.225707 Y72.158504 Z-1.000000
G00 Z6.000000
(End cutting path id: path5053)
(Start cutting path id: path5053)
(Change tool to Cylindrical cutter)
G00 Z6.000000
G00 X1.225707 Y71.968759
G01 Z-1.000000 F100.0(Penetrate)
G01 X1.225707 Y71.873889 Z-1.000000 F250.000000
G01 X11.946291 Y71.873889 Z-1.000000
G01 X8.720629 Y71.968759 Z-1.000000
G01 X1.225707 Y71.968759 Z-1.000000
G00 Z6.000000
(End cutting path id: path5053)
(Start cutting path id: path5053)
(Change tool to Cylindrical cutter)
G00 Z6.000000
G00 X1.225707 Y71.968759
G01 Z-1.000000 F100.0(Penetrate)
G01 X1.225707 Y71.873889 Z-1.000000 F250.000000
G01 X11.946291 Y71.873889 Z-1.000000
G01 X8.720629 Y71.968759 Z-1.000000
G01 X1.225707 Y71.968759 Z-1.000000
G00 Z6.000000
(End cutting path id: path5053)
(Start cutting path id: path5053)
(Change tool to Cylindrical cutter)
G00 Z6.000000
G00 X1.225707 Y71.779014
G01 Z-1.000000 F100.0(Penetrate)
G01 X1.225707 Y71.684144 Z-1.000000 F250.000000
G01 X12.136036 Y71.684144 Z-1.000000
G01 X8.815501 Y71.779014 Z-1.000000
G01 X1.225707 Y71.779014 Z-1.000000
G00 Z6.000000
(End cutting path id: path5053)
(Start cutting path id: path5053)
(Change tool to Cylindrical cutter)
G00 Z6.000000
G00 X1.225707 Y71.779014
G01 Z-1.000000 F100.0(Penetrate)
G01 X1.225707 Y71.684144 Z-1.000000 F250.000000
G01 X12.136036 Y71.684144 Z-1.000000
G01 X8.815501 Y71.779014 Z-1.000000
G01 X1.225707 Y71.779014 Z-1.000000
G00 Z6.000000
(End cutting path id: path5053)
(Start cutting path id: path5053)
(Change tool to Cylindrical cutter)
G00 Z6.000000
G00 X1.225707 Y71.589269
G01 Z-1.000000 F100.0(Penetrate)
G01 X1.225707 Y71.494399 Z-1.000000 F250.000000
G01 X12.325781 Y71.494399 Z-1.000000
G01 X8.910373 Y71.589269 Z-1.000000
G01 X1.225707 Y71.589269 Z-1.000000
G00 Z6.000000
(End cutting path id: path5053)
(Start cutting path id: path5053)
(Change tool to Cylindrical cutter)
G00 Z6.000000
G00 X1.225707 Y71.589269
G01 Z-1.000000 F100.0(Penetrate)
G01 X1.225707 Y71.494399 Z-1.000000 F250.000000
G01 X12.325781 Y71.494399 Z-1.000000
G01 X8.910373 Y71.589269 Z-1.000000
G01 X1.225707 Y71.589269 Z-1.000000
G00 Z6.000000
(End cutting path id: path5053)
(Start cutting path id: path5053)
(Change tool to Cylindrical cutter)
G00 Z6.000000
G00 X1.225707 Y71.399524
G01 Z-1.000000 F100.0(Penetrate)
G01 X1.225707 Y71.304654 Z-1.000000 F250.000000
G01 X12.515526 Y71.304654 Z-1.000000
G01 X9.100118 Y71.399524 Z-1.000000
G01 X1.225707 Y71.399524 Z-1.000000
G00 Z6.000000
(End cutting path id: path5053)
(Start cutting path id: path5053)
(Change tool to Cylindrical cutter)
G00 Z6.000000
G00 X1.225707 Y71.399524
G01 Z-1.000000 F100.0(Penetrate)
G01 X1.225707 Y71.304654 Z-1.000000 F250.000000
G01 X12.515526 Y71.304654 Z-1.000000
G01 X9.100118 Y71.399524 Z-1.000000
G01 X1.225707 Y71.399524 Z-1.000000
G00 Z6.000000
(End cutting path id: path5053)
(Start cutting path id: path5053)
(Change tool to Cylindrical cutter)
G00 Z6.000000
G00 X1.225707 Y71.209779
G01 Z-1.000000 F100.0(Penetrate)
G01 X1.225707 Y71.114909 Z-1.000000 F250.000000
G01 X12.705271 Y71.114909 Z-1.000000
G03 X10.986646 Y71.336348 Z-1.000000 I-1.260630 J-3.003968
G02 X9.194991 Y71.209779 Z-1.000000 I-1.791655 J12.617635
G01 X1.225707 Y71.209779 Z-1.000000
G00 Z6.000000
(End cutting path id: path5053)
(Start cutting path id: path5053)
(Change tool to Cylindrical cutter)
G00 Z6.000000
G00 X1.225707 Y71.209779
G01 Z-1.000000 F100.0(Penetrate)
G01 X1.225707 Y71.114909 Z-1.000000 F250.000000
G01 X12.705271 Y71.114909 Z-1.000000
G03 X10.986646 Y71.336348 Z-1.000000 I-1.260630 J-3.003968
G02 X9.194991 Y71.209779 Z-1.000000 I-1.791655 J12.617635
G01 X1.225707 Y71.209779 Z-1.000000
G00 Z6.000000
(End cutting path id: path5053)
(Start cutting path id: path5053)
(Change tool to Cylindrical cutter)
G00 Z6.000000
G00 X1.225707 Y71.020035
G01 Z-1.000000 F100.0(Penetrate)
G01 X1.225707 Y70.925165 Z-1.000000 F250.000000
G01 X12.895016 Y70.925165 Z-1.000000
G03 X11.176390 Y71.146604 Z-1.000000 I-1.260630 J-3.003973
G02 X9.384736 Y71.020035 Z-1.000000 I-1.791654 J12.617637
G01 X1.225707 Y71.020035 Z-1.000000
G00 Z6.000000
(End cutting path id: path5053)
