%
(Header)
(Generated by gcodetools from Inkscape.)
(Using default header. To add your own header create file "header" in the output dir.)
M3 S320
(Header end.)
G21 (All units in mm)
(Start cutting path id: path899)
(Change tool to Cylindrical cutter)
G00 Z3.500000
G00 X1.741190 Y5.171016
G01 Z-1.000000 F100.0(Penetrate)
G02 X1.783006 Y5.221332 Z-1.000000 I0.051179 J0.000000 F200.000000
G02 X2.310314 Y5.276919 Z-1.000000 I0.614933 J-3.304477
G01 X2.879438 Y5.291759 Z-1.000000
G01 X2.378609 Y5.348489 Z-1.000000
G01 X1.877780 Y5.405229 Z-1.000000
G01 X2.469669 Y5.479759 Z-1.000000
G02 X3.778348 Y5.562211 Z-1.000000 I1.314784 J-10.441291
G02 X17.039244 Y5.488259 Z-1.000000 I0.624742 J-1076.959248
G03 X21.651511 Y5.532226 Z-1.000000 I1.272861 J108.416083
G03 X21.678548 Y5.631212 Z-1.000000 I-0.001653 J0.053637
G02 X21.647126 Y5.686107 Z-1.000000 I0.036141 J0.057128
G01 X21.675748 Y5.716012 Z-1.000000
G03 X21.759032 Y5.736047 Z-1.000000 I-0.001963 J0.191278
G01 X21.762828 Y5.759322 Z-1.000000
G03 X21.714520 Y5.777687 Z-1.000000 I-0.044613 J-0.044632
G03 X21.502113 Y5.744022 Z-1.000000 I0.063961 J-1.090469
G03 X21.430299 Y5.675240 Z-1.000000 I0.025856 J-0.098876
G03 X21.460563 Y5.609175 Z-1.000000 I0.052159 J-0.016071
G01 X21.460406 Y5.591979 Z-1.000000
G02 X21.410153 Y5.588185 Z-1.000000 I-0.030866 J0.074129
G03 X21.180445 Y5.633372 Z-1.000000 I-0.569969 J-2.290981
G03 X20.475036 Y5.724379 Z-1.000000 I-3.139371 J-21.554368
G02 X19.502939 Y5.947791 Z-1.000000 I0.490247 J4.359705
G02 X19.454545 Y6.085167 Z-1.000000 I0.031181 J0.088196
G01 X19.445535 Y6.119419 Z-1.000000
G03 X19.384745 Y6.123567 Z-1.000000 I-0.034862 J-0.063402
G02 X19.261661 Y6.111829 Z-1.000000 I-0.082635 J0.215305
G02 X18.867737 Y6.215667 Z-1.000000 I0.439202 J2.465289
G03 X18.466225 Y6.313267 Z-1.000000 I-0.683446 J-1.936910
G03 X17.863591 Y6.354824 Z-1.000000 I-0.602634 J-4.348766
G02 X17.259616 Y6.392452 Z-1.000000 I-0.000000 J4.866044
G02 X16.850617 Y6.481533 Z-1.000000 I0.288994 J2.310329
G03 X15.741391 Y6.678184 Z-1.000000 I-1.312574 J-4.177020
G03 X10.482971 Y6.777587 Z-1.000000 I-4.432236 J-95.330211
G03 X2.850574 Y6.614835 Z-1.000000 I2.609452 J-301.418348
G03 X2.492470 Y6.505936 Z-1.000000 I0.024621 J-0.724206
G03 X2.412593 Y6.416276 Z-1.000000 I0.112196 J-0.180366
G03 X2.378645 Y6.264894 Z-1.000000 I0.320557 J-0.151382
G02 X2.255433 Y5.931678 Z-1.000000 I-0.512184 J0.000000
G02 X1.987640 Y5.808465 Z-1.000000 I-0.267793 J0.229407
G01 X1.972733 Y5.836822 Z-1.000000
G02 X2.085200 Y5.950218 Z-1.000000 I0.370476 J-0.254970
G03 X2.299512 Y6.267143 Z-1.000000 I-0.307297 J0.438725
G03 X2.209676 Y6.483284 Z-1.000000 I-0.195242 J0.045591
G01 X2.175549 Y6.467859 Z-1.000000
G03 X2.177346 Y6.293005 Z-1.000000 I0.485363 J-0.082447
G02 X2.160582 Y6.145107 Z-1.000000 I-0.245957 J-0.047020
G01 X2.104596 Y6.127710 Z-1.000000
G01 X2.059090 Y6.128013 Z-1.000000
G01 X2.051236 Y6.095710 Z-1.000000
G01 X2.040914 Y6.032549 Z-1.000000
G02 X1.924726 Y5.990581 Z-1.000000 I-0.116188 J0.139847
G02 X1.819135 Y6.073062 Z-1.000000 I0.000000 J0.108828
G02 X1.759997 Y6.650765 Z-1.000000 I1.983497 J0.494924
G01 X1.786747 Y7.310949 Z-1.000000
G01 X2.219909 Y7.305149 Z-1.000000
G03 X2.531983 Y7.335456 Z-1.000000 I0.018948 J1.426780
G01 X2.538618 Y7.372049 Z-1.000000
G03 X2.417052 Y7.420469 Z-1.000000 I-0.189040 J-0.297799
G03 X2.158575 Y7.446109 Z-1.000000 I-0.265802 J-1.363870
G02 X1.936452 Y7.464406 Z-1.000000 I0.007201 J1.444856
G01 X1.930925 Y7.482659 Z-1.000000
G02 X1.975544 Y7.499772 Z-1.000000 I0.043679 J-0.047159
G02 X3.485579 Y7.459889 Z-1.000000 I-0.937759 J-64.110407
G03 X4.941695 Y7.437228 Z-1.000000 I1.229311 J32.197227
G01 X4.959928 Y7.470269 Z-1.000000
G03 X4.899579 Y7.506468 Z-1.000000 I-0.065346 J-0.040537
G03 X3.807455 Y7.545309 Z-1.000000 I-1.204788 J-18.502402
G02 X2.699689 Y7.577688 Z-1.000000 I0.144998 J23.926942
G02 X2.287576 Y7.624979 Z-1.000000 I0.175621 J3.349709
G01 X2.289599 Y7.663002 Z-1.000000
G02 X3.494119 Y7.709289 Z-1.000000 I1.340140 J-19.178697
G02 X5.048211 Y7.670420 Z-1.000000 I0.171885 J-24.215639
G01 X5.087667 Y7.618249 Z-1.000000
G03 X5.105715 Y7.539722 Z-1.000000 I0.091444 J-0.020321
G03 X5.201492 Y7.474727 Z-1.000000 I0.151442 J0.120100
G01 X5.222243 Y7.490155 Z-1.000000
G01 X5.201492 Y7.530247 Z-1.000000
G02 X5.165838 Y7.595345 Z-1.000000 I0.048839 J0.069062
G01 X5.196892 Y7.628237 Z-1.000000
G03 X5.249745 Y7.661943 Z-1.000000 I-0.000629 J0.059278
G01 X5.240052 Y7.718507 Z-1.000000
G03 X5.133926 Y7.766619 Z-1.000000 I-0.117018 J-0.117018
G03 X3.514467 Y7.832331 Z-1.000000 I-2.107434 J-31.948687
G01 X1.877759 Y7.857281 Z-1.000000
G01 X1.849159 Y8.256657 Z-1.000000
G02 X1.866348 Y8.637867 Z-1.000000 I1.636409 J0.117206
G02 X1.930809 Y8.757486 Z-1.000000 I0.205347 J-0.033480
G01 X1.960263 Y8.756606 Z-1.000000
G01 X1.964699 Y8.722346 Z-1.000000
G01 X1.976310 Y8.690171 Z-1.000000
G03 X2.027289 Y8.698186 Z-1.000000 I0.018560 J0.048083
G03 X2.122784 Y8.829335 Z-1.000000 I-0.197602 J0.244223
G03 X2.150250 Y9.016896 Z-1.000000 I-0.400215 J0.154399
G03 X2.079338 Y9.154524 Z-1.000000 I-0.198946 J-0.015424
G03 X1.937716 Y9.194687 Z-1.000000 I-0.115744 J-0.138361
G02 X1.813215 Y9.249435 Z-1.000000 I-0.018418 J0.127053
G02 X1.741174 Y9.483043 Z-1.000000 I0.342740 J0.233608
G02 X1.784649 Y9.772199 Z-1.000000 I0.983328 J-0.000000
G02 X1.854999 Y9.853007 Z-1.000000 I0.126177 J-0.038820
G03 X1.888828 Y9.906123 Z-1.000000 I-0.024785 J0.053116
G03 X1.854999 Y9.959242 Z-1.000000 I-0.058618 J0.000000
G02 X1.784451 Y10.039923 Z-1.000000 I0.056141 J0.120274
G02 X1.741174 Y10.323482 Z-1.000000 I0.907325 J0.283559
G01 X1.741174 Y10.634603 Z-1.000000
G01 X15.468446 Y10.656923 Z-1.000000
G01 X29.195718 Y10.679243 Z-1.000000
G01 X15.536741 Y10.725663 Z-1.000000
G01 X1.877764 Y10.772083 Z-1.000000
G01 X15.474432 Y10.794403 Z-1.000000
G02 X29.059565 Y10.770521 Z-1.000000 I3.279530 J-1998.364541
G02 X29.245480 Y10.723403 Z-1.000000 I-0.002055 J-0.398454
G03 X29.726821 Y10.575275 Z-1.000000 I0.619930 J1.158338
G03 X32.528566 Y10.375133 Z-1.000000 I4.311255 J40.641730
G02 X34.112919 Y10.267934 Z-1.000000 I-0.957836 J-25.918095
G02 X34.265650 Y10.204051 Z-1.000000 I-0.027636 J-0.280585
G03 X34.418632 Y10.142485 Z-1.000000 I0.172067 J0.206710
G03 X36.214273 Y10.065422 Z-1.000000 I2.267262 J31.870676
G01 X38.028523 Y10.038642 Z-1.000000
G01 X36.189936 Y10.017912 Z-1.000000
G03 X34.369731 Y9.964595 Z-1.000000 I0.569911 J-50.553345
G03 X34.309022 Y9.928892 Z-1.000000 I0.003575 J-0.075545
G01 X34.327430 Y9.894949 Z-1.000000
G03 X36.215904 Y9.886812 Z-1.000000 I1.173315 J53.160869
G01 X38.165113 Y9.913022 Z-1.000000
G01 X38.165113 Y9.590863 Z-1.000000
G01 X38.165113 Y9.268704 Z-1.000000
G01 X37.032239 Y9.268704 Z-1.000000
G03 X35.923008 Y9.226295 Z-1.000000 I0.000000 J-14.527497
G03 X35.843087 Y9.177644 Z-1.000000 I0.007881 J-0.102917
G03 X35.844401 Y9.118237 Z-1.000000 I0.046425 J-0.028691
G03 X35.906007 Y9.085194 Z-1.000000 I0.062483 J0.042544
G01 X35.937616 Y9.058946 Z-1.000000
G01 X35.919597 Y9.016894 Z-1.000000
G01 X35.928327 Y8.984745 Z-1.000000
G03 X36.989550 Y8.979994 Z-1.000000 I0.609788 J17.684897
G01 X38.165110 Y9.009994 Z-1.000000
G01 X38.165110 Y8.684048 Z-1.000000
G01 X38.165110 Y8.358102 Z-1.000000
G01 X36.821977 Y8.339272 Z-1.000000
G01 X35.478844 Y8.320442 Z-1.000000
G01 X36.708152 Y8.260862 Z-1.000000
G01 X36.708625 Y8.240229 Z-1.000000
G02 X36.331780 Y8.225272 Z-1.000000 I-0.325234 J3.439510
G02 X34.740117 Y8.300892 Z-1.000000 I0.365910 J24.490280
G02 X34.510583 Y8.371301 Z-1.000000 I0.044437 J0.554213
G03 X34.090284 Y8.491131 Z-1.000000 I-0.457668 J-0.808246
G03 X26.236270 Y8.704465 Z-1.000000 I-12.076885 J-299.935957
G02 X21.746149 Y8.829735 Z-1.000000 I2.285791 J162.463920
G02 X21.501158 Y8.902101 Z-1.000000 I0.021917 J0.525086
G03 X21.255810 Y8.972079 Z-1.000000 I-0.256960 J-0.435833
G03 X14.125310 Y9.071431 Z-1.000000 I-9.071959 J-395.165428
G03 X6.977518 Y9.077111 Z-1.000000 I-4.263801 J-868.108249
G03 X4.951031 Y9.040901 Z-1.000000 I0.231479 J-69.677871
G03 X3.006702 Y8.896109 Z-1.000000 I0.752857 J-23.236752
G03 X2.924949 Y8.804252 Z-1.000000 I0.010729 J-0.091857
G03 X3.009539 Y8.717546 Z-1.000000 I0.086733 J0.000000
G03 X10.960980 Y8.605710 Z-1.000000 I9.232199 J373.675452
G02 X19.713070 Y8.438138 Z-1.000000 I-0.954352 J-278.484275
G02 X20.772679 Y8.263519 Z-1.000000 I-0.146082 J-4.188666
G03 X21.097730 Y8.207585 Z-1.000000 I0.391808 J1.304464
G03 X24.324013 Y8.089252 Z-1.000000 I6.395507 J130.329621
G02 X27.552491 Y7.974505 Z-1.000000 I-3.490062 J-143.670620
G02 X28.011937 Y7.916663 Z-1.000000 I-0.138082 J-2.950416
G03 X28.471425 Y7.863244 Z-1.000000 I0.532621 J2.578523
G03 X31.592022 Y7.817183 Z-1.000000 I3.329002 J119.804895
G02 X34.702650 Y7.758694 Z-1.000000 I-0.156729 J-91.081426
G02 X34.915707 Y7.697930 Z-1.000000 I-0.016586 J-0.462057
G03 X35.127716 Y7.630204 Z-1.000000 I0.264402 J0.461986
G03 X36.571563 Y7.534143 Z-1.000000 I2.215123 J22.395455
G01 X38.028520 Y7.484183 Z-1.000000
G01 X36.599702 Y7.465853 Z-1.000000
G03 X35.189082 Y7.415296 Z-1.000000 I0.393616 J-30.686809
G03 X35.128513 Y7.379223 Z-1.000000 I0.004502 J-0.076446
G01 X35.146754 Y7.345352 Z-1.000000
G03 X36.629531 Y7.337873 Z-1.000000 I0.907546 J32.940720
G01 X38.172921 Y7.364823 Z-1.000000
G01 X38.146251 Y6.654924 Z-1.000000
G01 X38.119581 Y5.945026 Z-1.000000
G01 X35.401629 Y5.928516 Z-1.000000
G03 X32.691927 Y5.892270 Z-1.000000 I1.131717 J-185.909262
G03 X32.643142 Y5.871466 Z-1.000000 I0.001468 J-0.071046
G01 X32.643804 Y5.839693 Z-1.000000
G03 X32.747852 Y5.775196 Z-1.000000 I0.221005 J0.240356
G03 X32.817784 Y5.781850 Z-1.000000 I0.028272 J0.073674
G01 X32.827902 Y5.824956 Z-1.000000
G01 X32.840116 Y5.866319 Z-1.000000
G02 X32.921682 Y5.869446 Z-1.000000 I0.044433 J-0.093655
G03 X33.085957 Y5.836391 Z-1.000000 I0.179705 J0.468359
G03 X35.554591 Y5.788426 Z-1.000000 I3.349859 J108.857708
G01 X38.028524 Y5.768406 Z-1.000000
G01 X35.433318 Y5.713766 Z-1.000000
G03 X32.844080 Y5.620598 Z-1.000000 I1.827927 J-86.825823
G03 X32.519403 Y5.565359 Z-1.000000 I0.071363 J-1.401231
G01 X32.200694 Y5.471589 Z-1.000000
G01 X32.519403 Y5.411859 Z-1.000000
G03 X32.839760 Y5.365880 Z-1.000000 I0.698185 J3.725587
G03 X33.430002 Y5.320639 Z-1.000000 I1.263901 J12.616566
G01 X33.430076 Y5.308992 Z-1.000000
G02 X33.138610 Y5.301409 Z-1.000000 I-0.240746 J3.648252
G03 X32.313206 Y5.289197 Z-1.000000 I-0.199151 J-14.440102
G01 X32.303859 Y5.265149 Z-1.000000
G03 X32.361732 Y5.237385 Z-1.000000 I0.068420 J0.068420
G03 X33.232671 Y5.163299 Z-1.000000 I1.956164 J17.839901
G01 X33.231912 Y5.136226 Z-1.000000
G02 X17.927063 Y5.094969 Z-1.000000 I-19.321372 J4328.777242
G02 X1.786576 Y5.125404 Z-1.000000 I-2.667726 J2865.108560
G01 X1.741175 Y5.171019 Z-1.000000
G01 X1.741190 Y5.171016 Z-1.000000
G00 Z3.500000
(End cutting path id: path899)
(Start cutting path id: path899)
(Change tool to Cylindrical cutter)
G00 Z3.500000
G00 X1.741190 Y5.171016
G01 Z-1.000000 F100.0(Penetrate)
G02 X1.783006 Y5.221332 Z-1.000000 I0.051179 J0.000000 F200.000000
G02 X2.310314 Y5.276919 Z-1.000000 I0.614933 J-3.304477
G01 X2.879438 Y5.291759 Z-1.000000
G01 X2.378609 Y5.348489 Z-1.000000
G01 X1.877780 Y5.405229 Z-1.000000
G01 X2.469669 Y5.479759 Z-1.000000
G02 X3.778348 Y5.562211 Z-1.000000 I1.314784 J-10.441291
G02 X17.039244 Y5.488259 Z-1.000000 I0.624742 J-1076.959248
G03 X21.651511 Y5.532226 Z-1.000000 I1.272861 J108.416083
G03 X21.678548 Y5.631212 Z-1.000000 I-0.001653 J0.053637
G02 X21.647126 Y5.686107 Z-1.000000 I0.036141 J0.057128
G01 X21.675748 Y5.716012 Z-1.000000
G03 X21.759032 Y5.736047 Z-1.000000 I-0.001963 J0.191278
G01 X21.762828 Y5.759322 Z-1.000000
G03 X21.714520 Y5.777687 Z-1.000000 I-0.044613 J-0.044632
G03 X21.502113 Y5.744022 Z-1.000000 I0.063961 J-1.090469
G03 X21.430299 Y5.675240 Z-1.000000 I0.025856 J-0.098876
G03 X21.460563 Y5.609175 Z-1.000000 I0.052159 J-0.016071
G01 X21.460406 Y5.591979 Z-1.000000
G02 X21.410153 Y5.588185 Z-1.000000 I-0.030866 J0.074129
G03 X21.180445 Y5.633372 Z-1.000000 I-0.569969 J-2.290981
G03 X20.475036 Y5.724379 Z-1.000000 I-3.139371 J-21.554368
G02 X19.502939 Y5.947791 Z-1.000000 I0.490247 J4.359705
G02 X19.454545 Y6.085167 Z-1.000000 I0.031181 J0.088196
G01 X19.445535 Y6.119419 Z-1.000000
G03 X19.384745 Y6.123567 Z-1.000000 I-0.034862 J-0.063402
G02 X19.261661 Y6.111829 Z-1.000000 I-0.082635 J0.215305
G02 X18.867737 Y6.215667 Z-1.000000 I0.439202 J2.465289
G03 X18.466225 Y6.313267 Z-1.000000 I-0.683446 J-1.936910
G03 X17.863591 Y6.354824 Z-1.000000 I-0.602634 J-4.348766
G02 X17.259616 Y6.392452 Z-1.000000 I-0.000000 J4.866044
G02 X16.850617 Y6.481533 Z-1.000000 I0.288994 J2.310329
G03 X15.741391 Y6.678184 Z-1.000000 I-1.312574 J-4.177020
G03 X10.482971 Y6.777587 Z-1.000000 I-4.432236 J-95.330211
G03 X2.850574 Y6.614835 Z-1.000000 I2.609452 J-301.418348
G03 X2.492470 Y6.505936 Z-1.000000 I0.024621 J-0.724206
G03 X2.412593 Y6.416276 Z-1.000000 I0.112196 J-0.180366
G03 X2.378645 Y6.264894 Z-1.000000 I0.320557 J-0.151382
G02 X2.255433 Y5.931678 Z-1.000000 I-0.512184 J0.000000
G02 X1.987640 Y5.808465 Z-1.000000 I-0.267793 J0.229407
G01 X1.972733 Y5.836822 Z-1.000000
G02 X2.085200 Y5.950218 Z-1.000000 I0.370476 J-0.254970
G03 X2.299512 Y6.267143 Z-1.000000 I-0.307297 J0.438725
G03 X2.209676 Y6.483284 Z-1.000000 I-0.195242 J0.045591
G01 X2.175549 Y6.467859 Z-1.000000
G03 X2.177346 Y6.293005 Z-1.000000 I0.485363 J-0.082447
G02 X2.160582 Y6.145107 Z-1.000000 I-0.245957 J-0.047020
G01 X2.104596 Y6.127710 Z-1.000000
G01 X2.059090 Y6.128013 Z-1.000000
G01 X2.051236 Y6.095710 Z-1.000000
G01 X2.040914 Y6.032549 Z-1.000000
G02 X1.924726 Y5.990581 Z-1.000000 I-0.116188 J0.139847
G02 X1.819135 Y6.073062 Z-1.000000 I0.000000 J0.108828
G02 X1.759997 Y6.650765 Z-1.000000 I1.983497 J0.494924
G01 X1.786747 Y7.310949 Z-1.000000
G01 X2.219909 Y7.305149 Z-1.000000
G03 X2.531983 Y7.335456 Z-1.000000 I0.018948 J1.426780
G01 X2.538618 Y7.372049 Z-1.000000
G03 X2.417052 Y7.420469 Z-1.000000 I-0.189040 J-0.297799
G03 X2.158575 Y7.446109 Z-1.000000 I-0.265802 J-1.363870
G02 X1.936452 Y7.464406 Z-1.000000 I0.007201 J1.444856
G01 X1.930925 Y7.482659 Z-1.000000
G02 X1.975544 Y7.499772 Z-1.000000 I0.043679 J-0.047159
G02 X3.485579 Y7.459889 Z-1.000000 I-0.937759 J-64.110407
G03 X4.941695 Y7.437228 Z-1.000000 I1.229311 J32.197227
G01 X4.959928 Y7.470269 Z-1.000000
G03 X4.899579 Y7.506468 Z-1.000000 I-0.065346 J-0.040537
G03 X3.807455 Y7.545309 Z-1.000000 I-1.204788 J-18.502402
G02 X2.699689 Y7.577688 Z-1.000000 I0.144998 J23.926942
G02 X2.287576 Y7.624979 Z-1.000000 I0.175621 J3.349709
G01 X2.289599 Y7.663002 Z-1.000000
G02 X3.494119 Y7.709289 Z-1.000000 I1.340140 J-19.178697
G02 X5.048211 Y7.670420 Z-1.000000 I0.171885 J-24.215639
G01 X5.087667 Y7.618249 Z-1.000000
G03 X5.105715 Y7.539722 Z-1.000000 I0.091444 J-0.020321
G03 X5.201492 Y7.474727 Z-1.000000 I0.151442 J0.120100
G01 X5.222243 Y7.490155 Z-1.000000
G01 X5.201492 Y7.530247 Z-1.000000
G02 X5.165838 Y7.595345 Z-1.000000 I0.048839 J0.069062
G01 X5.196892 Y7.628237 Z-1.000000
G03 X5.249745 Y7.661943 Z-1.000000 I-0.000629 J0.059278
G01 X5.240052 Y7.718507 Z-1.000000
G03 X5.133926 Y7.766619 Z-1.000000 I-0.117018 J-0.117018
G03 X3.514467 Y7.832331 Z-1.000000 I-2.107434 J-31.948687
G01 X1.877759 Y7.857281 Z-1.000000
G01 X1.849159 Y8.256657 Z-1.000000
G02 X1.866348 Y8.637867 Z-1.000000 I1.636409 J0.117206
G02 X1.930809 Y8.757486 Z-1.000000 I0.205347 J-0.033480
G01 X1.960263 Y8.756606 Z-1.000000
G01 X1.964699 Y8.722346 Z-1.000000
G01 X1.976310 Y8.690171 Z-1.000000
G03 X2.027289 Y8.698186 Z-1.000000 I0.018560 J0.048083
G03 X2.122784 Y8.829335 Z-1.000000 I-0.197602 J0.244223
G03 X2.150250 Y9.016896 Z-1.000000 I-0.400215 J0.154399
G03 X2.079338 Y9.154524 Z-1.000000 I-0.198946 J-0.015424
G03 X1.937716 Y9.194687 Z-1.000000 I-0.115744 J-0.138361
G02 X1.813215 Y9.249435 Z-1.000000 I-0.018418 J0.127053
G02 X1.741174 Y9.483043 Z-1.000000 I0.342740 J0.233608
G02 X1.784649 Y9.772199 Z-1.000000 I0.983328 J-0.000000
G02 X1.854999 Y9.853007 Z-1.000000 I0.126177 J-0.038820
G03 X1.888828 Y9.906123 Z-1.000000 I-0.024785 J0.053116
G03 X1.854999 Y9.959242 Z-1.000000 I-0.058618 J0.000000
G02 X1.784451 Y10.039923 Z-1.000000 I0.056141 J0.120274
G02 X1.741174 Y10.323482 Z-1.000000 I0.907325 J0.283559
G01 X1.741174 Y10.634603 Z-1.000000
G01 X15.468446 Y10.656923 Z-1.000000
G01 X29.195718 Y10.679243 Z-1.000000
G01 X15.536741 Y10.725663 Z-1.000000
G01 X1.877764 Y10.772083 Z-1.000000
G01 X15.474432 Y10.794403 Z-1.000000
G02 X29.059565 Y10.770521 Z-1.000000 I3.279530 J-1998.364541
G02 X29.245480 Y10.723403 Z-1.000000 I-0.002055 J-0.398454
G03 X29.726821 Y10.575275 Z-1.000000 I0.619930 J1.158338
G03 X32.528566 Y10.375133 Z-1.000000 I4.311255 J40.641730
G02 X34.112919 Y10.267934 Z-1.000000 I-0.957836 J-25.918095
G02 X34.265650 Y10.204051 Z-1.000000 I-0.027636 J-0.280585
G03 X34.418632 Y10.142485 Z-1.000000 I0.172067 J0.206710
G03 X36.214273 Y10.065422 Z-1.000000 I2.267262 J31.870676
G01 X38.028523 Y10.038642 Z-1.000000
G01 X36.189936 Y10.017912 Z-1.000000
G03 X34.369731 Y9.964595 Z-1.000000 I0.569911 J-50.553345
G03 X34.309022 Y9.928892 Z-1.000000 I0.003575 J-0.075545
G01 X34.327430 Y9.894949 Z-1.000000
G03 X36.215904 Y9.886812 Z-1.000000 I1.173315 J53.160869
G01 X38.165113 Y9.913022 Z-1.000000
G01 X38.165113 Y9.590863 Z-1.000000
G01 X38.165113 Y9.268704 Z-1.000000
G01 X37.032239 Y9.268704 Z-1.000000
G03 X35.923008 Y9.226295 Z-1.000000 I0.000000 J-14.527497
G03 X35.843087 Y9.177644 Z-1.000000 I0.007881 J-0.102917
G03 X35.844401 Y9.118237 Z-1.000000 I0.046425 J-0.028691
G03 X35.906007 Y9.085194 Z-1.000000 I0.062483 J0.042544
G01 X35.937616 Y9.058946 Z-1.000000
G01 X35.919597 Y9.016894 Z-1.000000
G01 X35.928327 Y8.984745 Z-1.000000
G03 X36.989550 Y8.979994 Z-1.000000 I0.609788 J17.684897
G01 X38.165110 Y9.009994 Z-1.000000
G01 X38.165110 Y8.684048 Z-1.000000
G01 X38.165110 Y8.358102 Z-1.000000
G01 X36.821977 Y8.339272 Z-1.000000
G01 X35.478844 Y8.320442 Z-1.000000
G01 X36.708152 Y8.260862 Z-1.000000
G01 X36.708625 Y8.240229 Z-1.000000
G02 X36.331780 Y8.225272 Z-1.000000 I-0.325234 J3.439510
G02 X34.740117 Y8.300892 Z-1.000000 I0.365910 J24.490280
G02 X34.510583 Y8.371301 Z-1.000000 I0.044437 J0.554213
G03 X34.090284 Y8.491131 Z-1.000000 I-0.457668 J-0.808246
G03 X26.236270 Y8.704465 Z-1.000000 I-12.076885 J-299.935957
G02 X21.746149 Y8.829735 Z-1.000000 I2.285791 J162.463920
G02 X21.501158 Y8.902101 Z-1.000000 I0.021917 J0.525086
G03 X21.255810 Y8.972079 Z-1.000000 I-0.256960 J-0.435833
G03 X14.125310 Y9.071431 Z-1.000000 I-9.071959 J-395.165428
G03 X6.977518 Y9.077111 Z-1.000000 I-4.263801 J-868.108249
G03 X4.951031 Y9.040901 Z-1.000000 I0.231479 J-69.677871
G03 X3.006702 Y8.896109 Z-1.000000 I0.752857 J-23.236752
G03 X2.924949 Y8.804252 Z-1.000000 I0.010729 J-0.091857
G03 X3.009539 Y8.717546 Z-1.000000 I0.086733 J0.000000
G03 X10.960980 Y8.605710 Z-1.000000 I9.232199 J373.675452
G02 X19.713070 Y8.438138 Z-1.000000 I-0.954352 J-278.484275
G02 X20.772679 Y8.263519 Z-1.000000 I-0.146082 J-4.188666
G03 X21.097730 Y8.207585 Z-1.000000 I0.391808 J1.304464
G03 X24.324013 Y8.089252 Z-1.000000 I6.395507 J130.329621
G02 X27.552491 Y7.974505 Z-1.000000 I-3.490062 J-143.670620
G02 X28.011937 Y7.916663 Z-1.000000 I-0.138082 J-2.950416
G03 X28.471425 Y7.863244 Z-1.000000 I0.532621 J2.578523
G03 X31.592022 Y7.817183 Z-1.000000 I3.329002 J119.804895
G02 X34.702650 Y7.758694 Z-1.000000 I-0.156729 J-91.081426
G02 X34.915707 Y7.697930 Z-1.000000 I-0.016586 J-0.462057
G03 X35.127716 Y7.630204 Z-1.000000 I0.264402 J0.461986
G03 X36.571563 Y7.534143 Z-1.000000 I2.215123 J22.395455
G01 X38.028520 Y7.484183 Z-1.000000
G01 X36.599702 Y7.465853 Z-1.000000
G03 X35.189082 Y7.415296 Z-1.000000 I0.393616 J-30.686809
G03 X35.128513 Y7.379223 Z-1.000000 I0.004502 J-0.076446
G01 X35.146754 Y7.345352 Z-1.000000
G03 X36.629531 Y7.337873 Z-1.000000 I0.907546 J32.940720
G01 X38.172921 Y7.364823 Z-1.000000
G01 X38.146251 Y6.654924 Z-1.000000
G01 X38.119581 Y5.945026 Z-1.000000
G01 X35.401629 Y5.928516 Z-1.000000
G03 X32.691927 Y5.892270 Z-1.000000 I1.131717 J-185.909262
G03 X32.643142 Y5.871466 Z-1.000000 I0.001468 J-0.071046
G01 X32.643804 Y5.839693 Z-1.000000
G03 X32.747852 Y5.775196 Z-1.000000 I0.221005 J0.240356
G03 X32.817784 Y5.781850 Z-1.000000 I0.028272 J0.073674
G01 X32.827902 Y5.824956 Z-1.000000
G01 X32.840116 Y5.866319 Z-1.000000
G02 X32.921682 Y5.869446 Z-1.000000 I0.044433 J-0.093655
G03 X33.085957 Y5.836391 Z-1.000000 I0.179705 J0.468359
G03 X35.554591 Y5.788426 Z-1.000000 I3.349859 J108.857708
G01 X38.028524 Y5.768406 Z-1.000000
G01 X35.433318 Y5.713766 Z-1.000000
G03 X32.844080 Y5.620598 Z-1.000000 I1.827927 J-86.825823
G03 X32.519403 Y5.565359 Z-1.000000 I0.071363 J-1.401231
G01 X32.200694 Y5.471589 Z-1.000000
G01 X32.519403 Y5.411859 Z-1.000000
G03 X32.839760 Y5.365880 Z-1.000000 I0.698185 J3.725587
G03 X33.430002 Y5.320639 Z-1.000000 I1.263901 J12.616566
G01 X33.430076 Y5.308992 Z-1.000000
G02 X33.138610 Y5.301409 Z-1.000000 I-0.240746 J3.648252
G03 X32.313206 Y5.289197 Z-1.000000 I-0.199151 J-14.440102
G01 X32.303859 Y5.265149 Z-1.000000
G03 X32.361732 Y5.237385 Z-1.000000 I0.068420 J0.068420
G03 X33.232671 Y5.163299 Z-1.000000 I1.956164 J17.839901
G01 X33.231912 Y5.136226 Z-1.000000
G02 X17.927063 Y5.094969 Z-1.000000 I-19.321372 J4328.777242
G02 X1.786576 Y5.125404 Z-1.000000 I-2.667726 J2865.108560
G01 X1.741175 Y5.171019 Z-1.000000
G01 X1.741190 Y5.171016 Z-1.000000
G00 Z3.500000
(End cutting path id: path899)
(Start cutting path id: path899)
(Change tool to Cylindrical cutter)
G00 Z3.500000
G00 X3.198148 Y5.297863
G01 Z-1.000000 F100.0(Penetrate)
G01 X3.183893 Y5.323846 Z-1.000000 F200.000000
G03 X3.056828 Y5.387883 Z-1.000000 I-0.381410 J-0.598727
G03 X2.982285 Y5.386793 Z-1.000000 I-0.035911 J-0.093577
G01 X2.971138 Y5.352093 Z-1.000000
G03 X3.125498 Y5.240527 Z-1.000000 I0.212361 J0.131250
G03 X3.198144 Y5.297863 Z-1.000000 I0.013696 J0.057337
G01 X3.198148 Y5.297863 Z-1.000000
G00 Z3.500000
(End cutting path id: path899)
(Start cutting path id: path899)
(Change tool to Cylindrical cutter)
G00 Z3.500000
G00 X3.198148 Y5.297863
G01 Z-1.000000 F100.0(Penetrate)
G01 X3.183893 Y5.323846 Z-1.000000 F200.000000
G03 X3.056828 Y5.387883 Z-1.000000 I-0.381410 J-0.598727
G03 X2.982285 Y5.386793 Z-1.000000 I-0.035911 J-0.093577
G01 X2.971138 Y5.352093 Z-1.000000
G03 X3.125498 Y5.240527 Z-1.000000 I0.212361 J0.131250
G03 X3.198144 Y5.297863 Z-1.000000 I0.013696 J0.057337
G01 X3.198148 Y5.297863 Z-1.000000
G00 Z3.500000
(End cutting path id: path899)
(Start cutting path id: path899)
(Change tool to Cylindrical cutter)
G00 Z3.500000
G00 X2.924968 Y6.663169
G01 Z-1.000000 F100.0(Penetrate)
G01 X2.908820 Y6.684417 Z-1.000000 F200.000000
G03 X2.656598 Y6.737749 Z-1.000000 I-0.551014 J-1.982817
G03 X2.449914 Y6.736568 Z-1.000000 I-0.099471 J-0.677852
G01 X2.434322 Y6.702559 Z-1.000000
G03 X2.755157 Y6.506441 Z-1.000000 I0.354141 J0.218858
G03 X2.924968 Y6.663169 Z-1.000000 I0.012579 J0.156728
G01 X2.924968 Y6.663169 Z-1.000000
G00 Z3.500000
(End cutting path id: path899)
(Start cutting path id: path899)
(Change tool to Cylindrical cutter)
G00 Z3.500000
G00 X2.924968 Y6.663169
G01 Z-1.000000 F100.0(Penetrate)
G01 X2.908820 Y6.684417 Z-1.000000 F200.000000
G03 X2.656598 Y6.737749 Z-1.000000 I-0.551014 J-1.982817
G03 X2.449914 Y6.736568 Z-1.000000 I-0.099471 J-0.677852
G01 X2.434322 Y6.702559 Z-1.000000
G03 X2.755157 Y6.506441 Z-1.000000 I0.354141 J0.218858
G03 X2.924968 Y6.663169 Z-1.000000 I0.012579 J0.156728
G01 X2.924968 Y6.663169 Z-1.000000
G00 Z3.500000
(End cutting path id: path899)
(Start cutting path id: path899)
(Change tool to Cylindrical cutter)
G00 Z3.500000
G00 X5.110405 Y6.777459
G01 Z-1.000000 F100.0(Penetrate)
G03 X2.981545 Y6.875751 Z-1.000000 I-2.265014 J-25.953847 F200.000000
G01 X2.956033 Y6.788719 Z-1.000000
G03 X3.070403 Y6.752955 Z-1.000000 I0.123868 J0.195361
G03 X4.245336 Y6.735729 Z-1.000000 I0.913521 J22.231040
G03 X5.110099 Y6.761649 Z-1.000000 I-0.276033 J23.647255
G01 X5.110405 Y6.777449 Z-1.000000
G01 X5.110405 Y6.777459 Z-1.000000
G00 Z3.500000
(End cutting path id: path899)
(Start cutting path id: path899)
(Change tool to Cylindrical cutter)
G00 Z3.500000
G00 X5.110405 Y6.777459
G01 Z-1.000000 F100.0(Penetrate)
G03 X2.981545 Y6.875751 Z-1.000000 I-2.265014 J-25.953847 F200.000000
G01 X2.956033 Y6.788719 Z-1.000000
G03 X3.070403 Y6.752955 Z-1.000000 I0.123868 J0.195361
G03 X4.245336 Y6.735729 Z-1.000000 I0.913521 J22.231040
G03 X5.110099 Y6.761649 Z-1.000000 I-0.276033 J23.647255
G01 X5.110405 Y6.777449 Z-1.000000
G01 X5.110405 Y6.777459 Z-1.000000
G00 Z3.500000
(End cutting path id: path899)
(Start cutting path id: path899)
(Change tool to Cylindrical cutter)
G00 Z3.500000
G00 X5.520174 Y6.901149
G01 Z-1.000000 F100.0(Penetrate)
G03 X5.450240 Y6.967333 Z-1.000000 I-0.159672 J-0.098679 F200.000000
G03 X5.355445 Y6.990819 Z-1.000000 I-0.092334 J-0.169633
G01 X5.335884 Y6.963826 Z-1.000000
G03 X5.383585 Y6.901149 Z-1.000000 I0.110644 J0.034716
G03 X5.500882 Y6.866546 Z-1.000000 I0.117297 J0.181504
G01 X5.520174 Y6.901149 Z-1.000000
G01 X5.520174 Y6.901149 Z-1.000000
G00 Z3.500000
(End cutting path id: path899)
(Start cutting path id: path899)
(Change tool to Cylindrical cutter)
G00 Z3.500000
G00 X5.520174 Y6.901149
G01 Z-1.000000 F100.0(Penetrate)
G03 X5.450240 Y6.967333 Z-1.000000 I-0.159672 J-0.098679 F200.000000
G03 X5.355445 Y6.990819 Z-1.000000 I-0.092334 J-0.169633
G01 X5.335884 Y6.963826 Z-1.000000
G03 X5.383585 Y6.901149 Z-1.000000 I0.110644 J0.034716
G03 X5.500882 Y6.866546 Z-1.000000 I0.117297 J0.181504
G01 X5.520174 Y6.901149 Z-1.000000
G01 X5.520174 Y6.901149 Z-1.000000
G00 Z3.500000
(End cutting path id: path899)
(Start cutting path id: path899)
(Change tool to Cylindrical cutter)
G00 Z3.500000
G00 X4.450221 Y9.153880
G01 Z-1.000000 F100.0(Penetrate)
G03 X3.926627 Y9.170291 Z-1.000000 I-0.523595 J-8.344393 F200.000000
G03 X3.403032 Y9.153880 Z-1.000000 I0.000000 J-8.360804
G01 X3.403032 Y9.137435 Z-1.000000
G03 X3.926626 Y9.121020 Z-1.000000 I0.523594 J8.342518
G03 X4.450221 Y9.137435 Z-1.000000 I-0.000000 J8.358970
G01 X4.450221 Y9.153880 Z-1.000000
G01 X4.450221 Y9.153880 Z-1.000000
G00 Z3.500000
(End cutting path id: path899)
(Start cutting path id: path899)
(Change tool to Cylindrical cutter)
G00 Z3.500000
G00 X4.450221 Y9.153880
G01 Z-1.000000 F100.0(Penetrate)
G03 X3.926627 Y9.170291 Z-1.000000 I-0.523595 J-8.344393 F200.000000
G03 X3.403032 Y9.153880 Z-1.000000 I0.000000 J-8.360804
G01 X3.403032 Y9.137435 Z-1.000000
G03 X3.926626 Y9.121020 Z-1.000000 I0.523594 J8.342518
G03 X4.450221 Y9.137435 Z-1.000000 I-0.000000 J8.358970
G01 X4.450221 Y9.153880 Z-1.000000
G01 X4.450221 Y9.153880 Z-1.000000
G00 Z3.500000
(End cutting path id: path899)
(Start cutting path id: path899)
(Change tool to Cylindrical cutter)
G00 Z3.500000
G00 X2.977002 Y9.904823
G01 Z-1.000000 F100.0(Penetrate)
G03 X2.942188 Y10.001588 Z-1.000000 I-0.151886 J0.000000 F200.000000
G01 X2.895182 Y10.003813 Z-1.000000
G03 X2.853453 Y9.917324 Z-1.000000 I0.103013 J-0.103013
G03 X2.874542 Y9.822994 Z-1.000000 I0.146633 J-0.016740
G01 X2.932779 Y9.812895 Z-1.000000
G03 X2.977010 Y9.904814 Z-1.000000 I-0.073396 J0.091919
G01 X2.977002 Y9.904823 Z-1.000000
G00 Z3.500000
(End cutting path id: path899)
(Start cutting path id: path899)
(Change tool to Cylindrical cutter)
G00 Z3.500000
G00 X2.977002 Y9.904823
G01 Z-1.000000 F100.0(Penetrate)
G03 X2.942188 Y10.001588 Z-1.000000 I-0.151886 J0.000000 F200.000000
G01 X2.895182 Y10.003813 Z-1.000000
G03 X2.853453 Y9.917324 Z-1.000000 I0.103013 J-0.103013
G03 X2.874542 Y9.822994 Z-1.000000 I0.146633 J-0.016740
G01 X2.932779 Y9.812895 Z-1.000000
G03 X2.977010 Y9.904814 Z-1.000000 I-0.073396 J0.091919
G01 X2.977002 Y9.904823 Z-1.000000
G00 Z3.500000
(End cutting path id: path899)
(Start cutting path id: path899)
(Change tool to Cylindrical cutter)
G00 Z3.500000
G00 X2.287549 Y9.957033
G01 Z-1.000000 F100.0(Penetrate)
G03 X2.260892 Y10.061595 Z-1.000000 I-0.218400 J0.000000 F200.000000
G03 X2.215999 Y10.088248 Z-1.000000 I-0.044893 J-0.024481
G01 X2.173210 Y10.059488 Z-1.000000
G03 X2.144449 Y9.912814 Z-1.000000 I0.359628 J-0.146674
G03 X2.175141 Y9.792424 Z-1.000000 I0.251465 J0.000000
G01 X2.215999 Y9.781599 Z-1.000000
G03 X2.264354 Y9.838747 Z-1.000000 I-0.063522 J0.102780
G03 X2.287549 Y9.957033 Z-1.000000 I-0.290008 J0.118286
G01 X2.287549 Y9.957033 Z-1.000000
G00 Z3.500000
(End cutting path id: path899)
(Start cutting path id: path899)
(Change tool to Cylindrical cutter)
G00 Z3.500000
G00 X2.287549 Y9.957033
G01 Z-1.000000 F100.0(Penetrate)
G03 X2.260892 Y10.061595 Z-1.000000 I-0.218400 J0.000000 F200.000000
G03 X2.215999 Y10.088248 Z-1.000000 I-0.044893 J-0.024481
G01 X2.173210 Y10.059488 Z-1.000000
G03 X2.144449 Y9.912814 Z-1.000000 I0.359628 J-0.146674
G03 X2.175141 Y9.792424 Z-1.000000 I0.251465 J0.000000
G01 X2.215999 Y9.781599 Z-1.000000
G03 X2.264354 Y9.838747 Z-1.000000 I-0.063522 J0.102780
G03 X2.287549 Y9.957033 Z-1.000000 I-0.290008 J0.118286
G01 X2.287549 Y9.957033 Z-1.000000
G00 Z3.500000
(End cutting path id: path899)
(Start cutting path id: path899)
(Change tool to Cylindrical cutter)
G00 Z3.500000
G00 X1.963936 Y8.912404
G01 Z-1.000000 F100.0(Penetrate)
G02 X1.942848 Y9.006734 Z-1.000000 I0.125549 J0.077589 F200.000000
G02 X1.984576 Y9.093224 Z-1.000000 I0.144753 J-0.016526
G01 X2.031592 Y9.090992 Z-1.000000
G02 X2.066396 Y8.994224 Z-1.000000 I-0.117122 J-0.096768
G02 X2.022165 Y8.902304 Z-1.000000 I-0.117628 J0.000000
G01 X1.963928 Y8.912404 Z-1.000000
G01 X1.963936 Y8.912404 Z-1.000000
G00 Z3.500000
(End cutting path id: path899)
(Start cutting path id: path899)
(Change tool to Cylindrical cutter)
G00 Z3.500000
G00 X1.963936 Y8.912404
G01 Z-1.000000 F100.0(Penetrate)
G02 X1.942848 Y9.006734 Z-1.000000 I0.125549 J0.077589 F200.000000
G02 X1.984576 Y9.093224 Z-1.000000 I0.144753 J-0.016526
G01 X2.031592 Y9.090992 Z-1.000000
G02 X2.066396 Y8.994224 Z-1.000000 I-0.117122 J-0.096768
G02 X2.022165 Y8.902304 Z-1.000000 I-0.117628 J0.000000
G01 X1.963928 Y8.912404 Z-1.000000
G01 X1.963936 Y8.912404 Z-1.000000
G00 Z3.500000
(End cutting path id: path899)
(Start cutting path id: path899)
(Change tool to Cylindrical cutter)
G00 Z3.500000
G00 X2.803156 Y8.927235
G01 Z-1.000000 F100.0(Penetrate)
G01 X2.779326 Y8.927235 Z-1.000000 F200.000000
G03 X2.757226 Y8.813410 Z-1.000000 I0.282077 J-0.113825
G03 X2.779326 Y8.699585 Z-1.000000 I0.304179 J-0.000000
G01 X2.803156 Y8.699585 Z-1.000000
G03 X2.825255 Y8.813407 Z-1.000000 I-0.282076 J0.113822
G03 X2.803156 Y8.927235 Z-1.000000 I-0.304209 J0.000000
G01 X2.803156 Y8.927235 Z-1.000000
G00 Z3.500000
(End cutting path id: path899)
(Start cutting path id: path899)
(Change tool to Cylindrical cutter)
G00 Z3.500000
G00 X2.803156 Y8.927235
G01 Z-1.000000 F100.0(Penetrate)
G01 X2.779326 Y8.927235 Z-1.000000 F200.000000
G03 X2.757226 Y8.813410 Z-1.000000 I0.282077 J-0.113825
G03 X2.779326 Y8.699585 Z-1.000000 I0.304179 J-0.000000
G01 X2.803156 Y8.699585 Z-1.000000
G03 X2.825255 Y8.813407 Z-1.000000 I-0.282076 J0.113822
G03 X2.803156 Y8.927235 Z-1.000000 I-0.304209 J0.000000
G01 X2.803156 Y8.927235 Z-1.000000
G00 Z3.500000
(End cutting path id: path899)
(Start cutting path id: path899)
(Change tool to Cylindrical cutter)
G00 Z3.500000
G00 X1.969484 Y13.094266
G01 Z-1.000000 F100.0(Penetrate)
G01 X1.963597 Y13.149963 Z-1.000000 F200.000000
G03 X1.883154 Y13.184286 Z-1.000000 I-0.080443 J-0.077105
G02 X1.802306 Y13.245402 Z-1.000000 I-0.000000 J0.084033
G02 X1.741190 Y13.685115 Z-1.000000 I1.551246 J0.439713
G01 X1.741190 Y14.185945 Z-1.000000
G01 X3.749881 Y14.185945 Z-1.000000
G02 X5.665713 Y14.134170 Z-1.000000 I0.000000 J-35.471852
G01 X5.693598 Y14.080815 Z-1.000000
G01 X5.698266 Y14.045324 Z-1.000000
G01 X5.735238 Y14.041575 Z-1.000000
G03 X5.797217 Y14.118005 Z-1.000000 I-0.078476 J0.126983
G03 X5.789468 Y14.192235 Z-1.000000 I-0.080807 J0.029084
G01 X5.823819 Y14.255912 Z-1.000000
G02 X5.980030 Y14.197535 Z-1.000000 I0.006158 J-0.221712
G03 X6.081879 Y14.157156 Z-1.000000 I0.103643 J0.112783
G03 X17.494548 Y14.062636 Z-1.000000 I19.473402 J1662.239172
G03 X28.900153 Y14.074038 Z-1.000000 I4.728036 J975.062699
G03 X29.099317 Y14.142116 Z-1.000000 I-0.002274 J0.332021
G03 X29.199903 Y14.251268 Z-1.000000 I-0.259505 J0.340060
G01 X29.185827 Y14.277015 Z-1.000000
G03 X29.101635 Y14.260384 Z-1.000000 I-0.000000 J-0.221413
G03 X29.009068 Y14.204335 Z-1.000000 I0.133797 J-0.325438
G02 X28.909503 Y14.168150 Z-1.000000 I-0.099331 J0.118243
G02 X21.592244 Y14.215555 Z-1.000000 I1.114852 J736.838078
G03 X14.261818 Y14.282142 Z-1.000000 I-17.769644 J-1552.696639
G03 X8.069856 Y14.306465 Z-1.000000 I-7.447555 J-1107.773890
G02 X3.562729 Y14.343125 Z-1.000000 I0.367887 J322.311274
G01 X3.562394 Y14.374685 Z-1.000000
G02 X5.247402 Y14.415317 Z-1.000000 I2.507091 J-69.010851
G02 X9.680794 Y14.447515 Z-1.000000 I5.684673 J-477.488115
G03 X14.095832 Y14.492717 Z-1.000000 I-0.761009 J289.966525
G03 X14.156878 Y14.527435 Z-1.000000 I-0.001309 J0.073331
G01 X14.138051 Y14.561296 Z-1.000000
G03 X8.084008 Y14.536235 Z-1.000000 I-0.784887 J-541.649676
G02 X1.976223 Y14.495221 Z-1.000000 I-9.852693 J1012.463989
G02 X1.930905 Y14.513465 Z-1.000000 I-0.000240 J0.064813
G01 X1.938095 Y14.531964 Z-1.000000
G02 X3.296803 Y14.551595 Z-1.000000 I1.409085 J-50.495750
G03 X4.691666 Y14.583828 Z-1.000000 I-0.029725 J31.483132
G03 X4.806102 Y14.619895 Z-1.000000 I-0.010557 J0.233077
G01 X4.797157 Y14.653564 Z-1.000000
G03 X3.349145 Y14.686795 Z-1.000000 I-1.448012 J-31.531160
G01 X1.786724 Y14.686795 Z-1.000000
G01 X1.762034 Y16.485227 Z-1.000000
G01 X1.737344 Y18.283659 Z-1.000000
G01 X19.951238 Y18.283659 Z-1.000000
G01 X38.165133 Y18.283659 Z-1.000000
G01 X38.165133 Y17.964949 Z-1.000000
G01 X38.165133 Y17.646240 Z-1.000000
G01 X20.778357 Y17.646240 Z-1.000000
G03 X3.477096 Y17.566903 Z-1.000000 I-0.000000 J-1886.511293
G03 X3.403531 Y17.486885 Z-1.000000 I0.000683 J-0.074453
G03 X3.475215 Y17.397379 Z-1.000000 I0.101243 J0.007625
G03 X3.819252 Y17.360389 Z-1.000000 I0.269072 J0.884194
G02 X4.128431 Y17.335366 Z-1.000000 I0.078015 J-0.958636
G01 X4.151818 Y17.278029 Z-1.000000
G01 X4.155682 Y17.237882 Z-1.000000
G01 X4.193668 Y17.232689 Z-1.000000
G03 X4.197552 Y17.348723 Z-1.000000 I-0.036655 J0.059309
G03 X3.835564 Y17.488595 Z-1.000000 I-0.452877 J-0.633696
G01 X3.836640 Y17.507249 Z-1.000000
G02 X20.772696 Y17.518095 Z-1.000000 I13.394097 J-7692.371780
G01 X38.028537 Y17.510195 Z-1.000000
G01 X21.182465 Y17.479435 Z-1.000000
G03 X6.083497 Y17.253671 Z-1.000000 I1.050543 J-575.278091
G03 X6.066531 Y17.054895 Z-1.000000 I0.002818 J-0.100353
G02 X6.703380 Y16.924096 Z-1.000000 I-15.145861 J-75.359578
G02 X7.113719 Y16.835206 Z-1.000000 I-6.598654 J-31.452692
G03 X7.528375 Y16.787845 Z-1.000000 I0.429600 J1.922338
G03 X19.705668 Y16.739666 Z-1.000000 I12.724235 J1677.144265
G03 X31.874612 Y16.801759 Z-1.000000 I0.370058 J1119.941446
G03 X32.212569 Y16.871378 Z-1.000000 I-0.009495 J0.901182
G02 X32.549359 Y16.948753 Z-1.000000 I0.393836 J-0.942584
G02 X35.237384 Y17.040555 Z-1.000000 I3.455708 J-61.786322
G02 X36.161755 Y17.033908 Z-1.000000 I0.292621 J-23.583897
G01 X36.161810 Y17.015785 Z-1.000000
G01 X34.386143 Y16.957515 Z-1.000000
G01 X36.275635 Y16.937665 Z-1.000000
G01 X38.165127 Y16.917815 Z-1.000000
G01 X38.165127 Y16.593587 Z-1.000000
G01 X38.165127 Y16.269358 Z-1.000000
G01 X36.443287 Y16.297638 Z-1.000000
G03 X34.836034 Y16.291658 Z-1.000000 I-0.655254 J-39.879993
G01 X34.826975 Y16.259018 Z-1.000000
G03 X34.941529 Y16.222652 Z-1.000000 I0.126304 J0.199258
G03 X36.480520 Y16.176568 Z-1.000000 I1.927604 J38.652001
G01 X36.481972 Y16.144165 Z-1.000000
G02 X35.528522 Y16.081398 Z-1.000000 I-1.402130 J14.025772
G03 X33.037917 Y15.949940 Z-1.000000 I1.899677 J-59.650496
G03 X32.634189 Y15.867905 Z-1.000000 I0.119792 J-1.624024
G02 X32.229165 Y15.798994 Z-1.000000 I-0.417699 J1.230309
G02 X19.699560 Y15.741715 Z-1.000000 I-11.789119 J1208.393470
G02 X7.162171 Y15.786809 Z-1.000000 I1.277641 J2098.121355
G02 X6.658420 Y15.827605 Z-1.000000 I0.022438 J3.407625
G02 X6.160174 Y15.918518 Z-1.000000 I1.536752 J9.832931
G02 X5.565702 Y16.055856 Z-1.000000 I2.954478 J14.143784
G03 X4.972263 Y16.198936 Z-1.000000 I-6.487766 J-25.606459
G03 X4.518513 Y16.295562 Z-1.000000 I-3.401540 J-14.859726
G02 X4.065321 Y16.393781 Z-1.000000 I2.378778 J12.070503
G02 X3.783570 Y16.469398 Z-1.000000 I1.122076 J4.743628
G03 X3.501365 Y16.536092 Z-1.000000 I-0.695936 J-2.314345
G03 X3.299519 Y16.553498 Z-1.000000 I-0.201846 J-1.161631
G02 X3.101283 Y16.578097 Z-1.000000 I-0.000000 J0.811053
G02 X2.913100 Y16.650908 Z-1.000000 I0.202204 J0.802196
G02 X2.822498 Y16.766319 Z-1.000000 I0.086089 J0.160853
G02 X2.850790 Y16.893187 Z-1.000000 I0.138672 J0.035664
G01 X2.839935 Y16.923866 Z-1.000000
G03 X2.765610 Y16.910457 Z-1.000000 I-0.020305 J-0.100147
G03 X2.639596 Y16.739067 Z-1.000000 I0.151658 J-0.243527
G03 X2.560726 Y16.121819 Z-1.000000 I2.375914 J-0.617248
G01 X2.560726 Y15.460775 Z-1.000000
G01 X3.266439 Y15.448275 Z-1.000000
G03 X10.846845 Y15.332827 Z-1.000000 I27.100645 J1530.530195
G03 X21.956473 Y15.209920 Z-1.000000 I41.927536 J3287.676034
G02 X29.182230 Y15.098217 Z-1.000000 I-5.566192 J-593.822687
G02 X29.332321 Y15.051002 Z-1.000000 I-0.006064 J-0.281447
G03 X29.482226 Y15.003039 Z-1.000000 I0.158873 J0.238310
G03 X33.748723 Y14.912650 Z-1.000000 I6.593179 J210.469098
G01 X38.028536 Y14.865360 Z-1.000000
G01 X33.822393 Y14.844360 Z-1.000000
G03 X29.635010 Y14.789906 Z-1.000000 I1.304969 J-261.375614
G03 X29.574007 Y14.755060 Z-1.000000 I0.001545 J-0.073525
G01 X29.592767 Y14.720991 Z-1.000000
G03 X33.848446 Y14.711270 Z-1.000000 I2.738289 J267.241657
G01 X38.165126 Y14.735780 Z-1.000000
G01 X38.162226 Y14.392564 Z-1.000000
G02 X38.053831 Y13.917180 Z-1.000000 I-1.138806 J0.009616
G02 X37.846412 Y13.721604 Z-1.000000 I-0.352244 J0.165796
G03 X37.787054 Y13.670426 Z-1.000000 I0.044938 J-0.112133
G03 X37.780682 Y13.609131 Z-1.000000 I0.064474 J-0.037682
G01 X37.754619 Y13.571291 Z-1.000000
G02 X36.716664 Y13.563601 Z-1.000000 I-0.627677 J14.667775
G03 X35.763492 Y13.556614 Z-1.000000 I-0.377607 J-13.506809
G01 X35.755440 Y13.522651 Z-1.000000
G03 X35.891679 Y13.484255 Z-1.000000 I0.148770 J0.266968
G03 X36.864988 Y13.477121 Z-1.000000 I0.592501 J14.438056
G03 X37.766971 Y13.565504 Z-1.000000 I-0.167578 J6.356930
G03 X37.817146 Y13.639581 Z-1.000000 I-0.010424 J0.061091
G01 X37.841948 Y13.677742 Z-1.000000
G02 X37.907446 Y13.658551 Z-1.000000 I0.014850 J-0.070684
G02 X37.953688 Y13.549176 Z-1.000000 I-0.108554 J-0.110357
G02 X37.908646 Y13.467799 Z-1.000000 I-0.094944 J-0.000602
G02 X37.573940 Y13.365118 Z-1.000000 I-0.363596 J0.588348
G02 X33.311633 Y13.275617 Z-1.000000 I-4.283461 J102.454650
G03 X31.978303 Y13.216484 Z-1.000000 I0.002621 J-15.120576
G03 X31.685712 Y13.131441 Z-1.000000 I0.069683 J-0.785597
G02 X31.390339 Y13.058646 Z-1.000000 I-0.299299 J0.578784
G02 X18.554851 Y13.052321 Z-1.000000 I-6.989311 J1159.945976
G02 X5.716890 Y13.177508 Z-1.000000 I6.868789 J1362.728955
G02 X5.456402 Y13.241755 Z-1.000000 I0.008607 J0.595089
G03 X3.066140 Y13.811063 Z-1.000000 I-2.382228 J-4.699424
G03 X2.232121 Y13.236855 Z-1.000000 I0.001364 J-0.894779
G02 X2.161175 Y13.128542 Z-1.000000 I-0.285276 J0.109466
G02 X2.048130 Y13.055778 Z-1.000000 I-0.231060 J0.234777
G02 X1.979721 Y13.058817 Z-1.000000 I-0.030716 J0.080040
G01 X1.969490 Y13.094268 Z-1.000000
G01 X1.969484 Y13.094266 Z-1.000000
G00 Z3.500000
(End cutting path id: path899)
(Start cutting path id: path899)
(Change tool to Cylindrical cutter)
G00 Z3.500000
G00 X1.969484 Y13.094266
G01 Z-1.000000 F100.0(Penetrate)
G01 X1.963597 Y13.149963 Z-1.000000 F200.000000
G03 X1.883154 Y13.184286 Z-1.000000 I-0.080443 J-0.077105
G02 X1.802306 Y13.245402 Z-1.000000 I-0.000000 J0.084033
G02 X1.741190 Y13.685115 Z-1.000000 I1.551246 J0.439713
G01 X1.741190 Y14.185945 Z-1.000000
G01 X3.749881 Y14.185945 Z-1.000000
G02 X5.665713 Y14.134170 Z-1.000000 I0.000000 J-35.471852
G01 X5.693598 Y14.080815 Z-1.000000
G01 X5.698266 Y14.045324 Z-1.000000
G01 X5.735238 Y14.041575 Z-1.000000
G03 X5.797217 Y14.118005 Z-1.000000 I-0.078476 J0.126983
G03 X5.789468 Y14.192235 Z-1.000000 I-0.080807 J0.029084
G01 X5.823819 Y14.255912 Z-1.000000
G02 X5.980030 Y14.197535 Z-1.000000 I0.006158 J-0.221712
G03 X6.081879 Y14.157156 Z-1.000000 I0.103643 J0.112783
G03 X17.494548 Y14.062636 Z-1.000000 I19.473402 J1662.239172
G03 X28.900153 Y14.074038 Z-1.000000 I4.728036 J975.062699
G03 X29.099317 Y14.142116 Z-1.000000 I-0.002274 J0.332021
G03 X29.199903 Y14.251268 Z-1.000000 I-0.259505 J0.340060
G01 X29.185827 Y14.277015 Z-1.000000
G03 X29.101635 Y14.260384 Z-1.000000 I-0.000000 J-0.221413
G03 X29.009068 Y14.204335 Z-1.000000 I0.133797 J-0.325438
G02 X28.909503 Y14.168150 Z-1.000000 I-0.099331 J0.118243
G02 X21.592244 Y14.215555 Z-1.000000 I1.114852 J736.838078
G03 X14.261818 Y14.282142 Z-1.000000 I-17.769644 J-1552.696639
G03 X8.069856 Y14.306465 Z-1.000000 I-7.447555 J-1107.773890
G02 X3.562729 Y14.343125 Z-1.000000 I0.367887 J322.311274
G01 X3.562394 Y14.374685 Z-1.000000
G02 X5.247402 Y14.415317 Z-1.000000 I2.507091 J-69.010851
G02 X9.680794 Y14.447515 Z-1.000000 I5.684673 J-477.488115
G03 X14.095832 Y14.492717 Z-1.000000 I-0.761009 J289.966525
G03 X14.156878 Y14.527435 Z-1.000000 I-0.001309 J0.073331
G01 X14.138051 Y14.561296 Z-1.000000
G03 X8.084008 Y14.536235 Z-1.000000 I-0.784887 J-541.649676
G02 X1.976223 Y14.495221 Z-1.000000 I-9.852693 J1012.463989
G02 X1.930905 Y14.513465 Z-1.000000 I-0.000240 J0.064813
G01 X1.938095 Y14.531964 Z-1.000000
G02 X3.296803 Y14.551595 Z-1.000000 I1.409085 J-50.495750
G03 X4.691666 Y14.583828 Z-1.000000 I-0.029725 J31.483132
G03 X4.806102 Y14.619895 Z-1.000000 I-0.010557 J0.233077
G01 X4.797157 Y14.653564 Z-1.000000
G03 X3.349145 Y14.686795 Z-1.000000 I-1.448012 J-31.531160
G01 X1.786724 Y14.686795 Z-1.000000
G01 X1.762034 Y16.485227 Z-1.000000
G01 X1.737344 Y18.283659 Z-1.000000
G01 X19.951238 Y18.283659 Z-1.000000
G01 X38.165133 Y18.283659 Z-1.000000
G01 X38.165133 Y17.964949 Z-1.000000
G01 X38.165133 Y17.646240 Z-1.000000
G01 X20.778357 Y17.646240 Z-1.000000
G03 X3.477096 Y17.566903 Z-1.000000 I-0.000000 J-1886.511293
G03 X3.403531 Y17.486885 Z-1.000000 I0.000683 J-0.074453
G03 X3.475215 Y17.397379 Z-1.000000 I0.101243 J0.007625
G03 X3.819252 Y17.360389 Z-1.000000 I0.269072 J0.884194
G02 X4.128431 Y17.335366 Z-1.000000 I0.078015 J-0.958636
G01 X4.151818 Y17.278029 Z-1.000000
G01 X4.155682 Y17.237882 Z-1.000000
G01 X4.193668 Y17.232689 Z-1.000000
G03 X4.197552 Y17.348723 Z-1.000000 I-0.036655 J0.059309
G03 X3.835564 Y17.488595 Z-1.000000 I-0.452877 J-0.633696
G01 X3.836640 Y17.507249 Z-1.000000
G02 X20.772696 Y17.518095 Z-1.000000 I13.394097 J-7692.371780
G01 X38.028537 Y17.510195 Z-1.000000
G01 X21.182465 Y17.479435 Z-1.000000
G03 X6.083497 Y17.253671 Z-1.000000 I1.050543 J-575.278091
G03 X6.066531 Y17.054895 Z-1.000000 I0.002818 J-0.100353
G02 X6.703380 Y16.924096 Z-1.000000 I-15.145861 J-75.359578
G02 X7.113719 Y16.835206 Z-1.000000 I-6.598654 J-31.452692
G03 X7.528375 Y16.787845 Z-1.000000 I0.429600 J1.922338
G03 X19.705668 Y16.739666 Z-1.000000 I12.724235 J1677.144265
G03 X31.874612 Y16.801759 Z-1.000000 I0.370058 J1119.941446
G03 X32.212569 Y16.871378 Z-1.000000 I-0.009495 J0.901182
G02 X32.549359 Y16.948753 Z-1.000000 I0.393836 J-0.942584
G02 X35.237384 Y17.040555 Z-1.000000 I3.455708 J-61.786322
G02 X36.161755 Y17.033908 Z-1.000000 I0.292621 J-23.583897
G01 X36.161810 Y17.015785 Z-1.000000
G01 X34.386143 Y16.957515 Z-1.000000
G01 X36.275635 Y16.937665 Z-1.000000
G01 X38.165127 Y16.917815 Z-1.000000
G01 X38.165127 Y16.593587 Z-1.000000
G01 X38.165127 Y16.269358 Z-1.000000
G01 X36.443287 Y16.297638 Z-1.000000
G03 X34.836034 Y16.291658 Z-1.000000 I-0.655254 J-39.879993
G01 X34.826975 Y16.259018 Z-1.000000
G03 X34.941529 Y16.222652 Z-1.000000 I0.126304 J0.199258
G03 X36.480520 Y16.176568 Z-1.000000 I1.927604 J38.652001
G01 X36.481972 Y16.144165 Z-1.000000
G02 X35.528522 Y16.081398 Z-1.000000 I-1.402130 J14.025772
G03 X33.037917 Y15.949940 Z-1.000000 I1.899677 J-59.650496
G03 X32.634189 Y15.867905 Z-1.000000 I0.119792 J-1.624024
G02 X32.229165 Y15.798994 Z-1.000000 I-0.417699 J1.230309
G02 X19.699560 Y15.741715 Z-1.000000 I-11.789119 J1208.393470
G02 X7.162171 Y15.786809 Z-1.000000 I1.277641 J2098.121355
G02 X6.658420 Y15.827605 Z-1.000000 I0.022438 J3.407625
G02 X6.160174 Y15.918518 Z-1.000000 I1.536752 J9.832931
G02 X5.565702 Y16.055856 Z-1.000000 I2.954478 J14.143784
G03 X4.972263 Y16.198936 Z-1.000000 I-6.487766 J-25.606459
G03 X4.518513 Y16.295562 Z-1.000000 I-3.401540 J-14.859726
G02 X4.065321 Y16.393781 Z-1.000000 I2.378778 J12.070503
G02 X3.783570 Y16.469398 Z-1.000000 I1.122076 J4.743628
G03 X3.501365 Y16.536092 Z-1.000000 I-0.695936 J-2.314345
G03 X3.299519 Y16.553498 Z-1.000000 I-0.201846 J-1.161631
G02 X3.101283 Y16.578097 Z-1.000000 I-0.000000 J0.811053
G02 X2.913100 Y16.650908 Z-1.000000 I0.202204 J0.802196
G02 X2.822498 Y16.766319 Z-1.000000 I0.086089 J0.160853
G02 X2.850790 Y16.893187 Z-1.000000 I0.138672 J0.035664
G01 X2.839935 Y16.923866 Z-1.000000
G03 X2.765610 Y16.910457 Z-1.000000 I-0.020305 J-0.100147
G03 X2.639596 Y16.739067 Z-1.000000 I0.151658 J-0.243527
G03 X2.560726 Y16.121819 Z-1.000000 I2.375914 J-0.617248
G01 X2.560726 Y15.460775 Z-1.000000
G01 X3.266439 Y15.448275 Z-1.000000
G03 X10.846845 Y15.332827 Z-1.000000 I27.100645 J1530.530195
G03 X21.956473 Y15.209920 Z-1.000000 I41.927536 J3287.676034
G02 X29.182230 Y15.098217 Z-1.000000 I-5.566192 J-593.822687
G02 X29.332321 Y15.051002 Z-1.000000 I-0.006064 J-0.281447
G03 X29.482226 Y15.003039 Z-1.000000 I0.158873 J0.238310
G03 X33.748723 Y14.912650 Z-1.000000 I6.593179 J210.469098
G01 X38.028536 Y14.865360 Z-1.000000
G01 X33.822393 Y14.844360 Z-1.000000
G03 X29.635010 Y14.789906 Z-1.000000 I1.304969 J-261.375614
G03 X29.574007 Y14.755060 Z-1.000000 I0.001545 J-0.073525
G01 X29.592767 Y14.720991 Z-1.000000
G03 X33.848446 Y14.711270 Z-1.000000 I2.738289 J267.241657
G01 X38.165126 Y14.735780 Z-1.000000
G01 X38.162226 Y14.392564 Z-1.000000
G02 X38.053831 Y13.917180 Z-1.000000 I-1.138806 J0.009616
G02 X37.846412 Y13.721604 Z-1.000000 I-0.352244 J0.165796
G03 X37.787054 Y13.670426 Z-1.000000 I0.044938 J-0.112133
G03 X37.780682 Y13.609131 Z-1.000000 I0.064474 J-0.037682
G01 X37.754619 Y13.571291 Z-1.000000
G02 X36.716664 Y13.563601 Z-1.000000 I-0.627677 J14.667775
G03 X35.763492 Y13.556614 Z-1.000000 I-0.377607 J-13.506809
G01 X35.755440 Y13.522651 Z-1.000000
G03 X35.891679 Y13.484255 Z-1.000000 I0.148770 J0.266968
G03 X36.864988 Y13.477121 Z-1.000000 I0.592501 J14.438056
G03 X37.766971 Y13.565504 Z-1.000000 I-0.167578 J6.356930
G03 X37.817146 Y13.639581 Z-1.000000 I-0.010424 J0.061091
G01 X37.841948 Y13.677742 Z-1.000000
G02 X37.907446 Y13.658551 Z-1.000000 I0.014850 J-0.070684
G02 X37.953688 Y13.549176 Z-1.000000 I-0.108554 J-0.110357
G02 X37.908646 Y13.467799 Z-1.000000 I-0.094944 J-0.000602
G02 X37.573940 Y13.365118 Z-1.000000 I-0.363596 J0.588348
G02 X33.311633 Y13.275617 Z-1.000000 I-4.283461 J102.454650
G03 X31.978303 Y13.216484 Z-1.000000 I0.002621 J-15.120576
G03 X31.685712 Y13.131441 Z-1.000000 I0.069683 J-0.785597
G02 X31.390339 Y13.058646 Z-1.000000 I-0.299299 J0.578784
G02 X18.554851 Y13.052321 Z-1.000000 I-6.989311 J1159.945976
G02 X5.716890 Y13.177508 Z-1.000000 I6.868789 J1362.728955
G02 X5.456402 Y13.241755 Z-1.000000 I0.008607 J0.595089
G03 X3.066140 Y13.811063 Z-1.000000 I-2.382228 J-4.699424
G03 X2.232121 Y13.236855 Z-1.000000 I0.001364 J-0.894779
G02 X2.161175 Y13.128542 Z-1.000000 I-0.285276 J0.109466
G02 X2.048130 Y13.055778 Z-1.000000 I-0.231060 J0.234777
G02 X1.979721 Y13.058817 Z-1.000000 I-0.030716 J0.080040
G01 X1.969490 Y13.094268 Z-1.000000
G01 X1.969484 Y13.094266 Z-1.000000
G00 Z3.500000
(End cutting path id: path899)
(Start cutting path id: path899)
(Change tool to Cylindrical cutter)
G00 Z3.500000
G00 X3.814598 Y13.457463
G01 Z-1.000000 F100.0(Penetrate)
G03 X5.263504 Y13.490224 Z-1.000000 I-0.000000 J32.056827 F200.000000
G03 X5.323985 Y13.525763 Z-1.000000 I-0.003394 J0.075008
G01 X5.305710 Y13.560332 Z-1.000000
G03 X3.788930 Y13.594053 Z-1.000000 I-1.516780 J-34.095508
G03 X2.262167 Y13.551612 Z-1.000000 I0.000000 J-27.482688
G01 X2.226843 Y13.507133 Z-1.000000
G02 X2.207907 Y13.445155 Z-1.000000 I-0.070407 J-0.012370
G02 X2.128193 Y13.404691 Z-1.000000 I-0.098142 J0.094590
G03 X1.983079 Y13.338938 Z-1.000000 I0.037646 J-0.276090
G03 X1.972504 Y13.269413 Z-1.000000 I0.035610 J-0.040983
G03 X2.041973 Y13.239598 Z-1.000000 I0.055981 J0.034596
G03 X2.189933 Y13.314943 Z-1.000000 I-0.065071 J0.310736
G02 X2.371756 Y13.394300 Z-1.000000 I0.209048 J-0.230996
G02 X3.814596 Y13.457465 Z-1.000000 I1.442840 J-16.447438
G01 X3.814598 Y13.457463 Z-1.000000
G00 Z3.500000
(End cutting path id: path899)
(Start cutting path id: path899)
(Change tool to Cylindrical cutter)
G00 Z3.500000
G00 X3.814598 Y13.457463
G01 Z-1.000000 F100.0(Penetrate)
G03 X5.263504 Y13.490224 Z-1.000000 I-0.000000 J32.056827 F200.000000
G03 X5.323985 Y13.525763 Z-1.000000 I-0.003394 J0.075008
G01 X5.305710 Y13.560332 Z-1.000000
G03 X3.788930 Y13.594053 Z-1.000000 I-1.516780 J-34.095508
G03 X2.262167 Y13.551612 Z-1.000000 I0.000000 J-27.482688
G01 X2.226843 Y13.507133 Z-1.000000
G02 X2.207907 Y13.445155 Z-1.000000 I-0.070407 J-0.012370
G02 X2.128193 Y13.404691 Z-1.000000 I-0.098142 J0.094590
G03 X1.983079 Y13.338938 Z-1.000000 I0.037646 J-0.276090
G03 X1.972504 Y13.269413 Z-1.000000 I0.035610 J-0.040983
G03 X2.041973 Y13.239598 Z-1.000000 I0.055981 J0.034596
G03 X2.189933 Y13.314943 Z-1.000000 I-0.065071 J0.310736
G02 X2.371756 Y13.394300 Z-1.000000 I0.209048 J-0.230996
G02 X3.814596 Y13.457465 Z-1.000000 I1.442840 J-16.447438
G01 X3.814598 Y13.457463 Z-1.000000
G00 Z3.500000
(End cutting path id: path899)
(Start cutting path id: path899)
(Change tool to Cylindrical cutter)
G00 Z3.500000
G00 X5.645981 Y13.464127
G01 Z-1.000000 F100.0(Penetrate)
G03 X5.463782 Y13.474965 Z-1.000000 I-0.101159 J-0.163684 F200.000000
G03 X5.430545 Y13.364088 Z-1.000000 I0.032593 J-0.070190
G03 X5.493821 Y13.322843 Z-1.000000 I0.075482 J0.046641
G03 X5.621785 Y13.337518 Z-1.000000 I0.035506 J0.255649
G03 X5.674132 Y13.400095 Z-1.000000 I-0.030060 J0.078329
G03 X5.645985 Y13.464123 Z-1.000000 I-0.060564 J0.011576
G01 X5.645981 Y13.464127 Z-1.000000
G00 Z3.500000
(End cutting path id: path899)
(Start cutting path id: path899)
(Change tool to Cylindrical cutter)
G00 Z3.500000
G00 X5.645981 Y13.464127
G01 Z-1.000000 F100.0(Penetrate)
G03 X5.463782 Y13.474965 Z-1.000000 I-0.101159 J-0.163684 F200.000000
G03 X5.430545 Y13.364088 Z-1.000000 I0.032593 J-0.070190
G03 X5.493821 Y13.322843 Z-1.000000 I0.075482 J0.046641
G03 X5.621785 Y13.337518 Z-1.000000 I0.035506 J0.255649
G03 X5.674132 Y13.400095 Z-1.000000 I-0.030060 J0.078329
G03 X5.645985 Y13.464123 Z-1.000000 I-0.060564 J0.011576
G01 X5.645981 Y13.464127 Z-1.000000
G00 Z3.500000
(End cutting path id: path899)
(Start cutting path id: path899)
(Change tool to Cylindrical cutter)
G00 Z3.500000
G00 X4.590972 Y15.346188
G01 Z-1.000000 F100.0(Penetrate)
G03 X3.934918 Y15.361908 Z-1.000000 I-0.658392 J-13.779332 F200.000000
G03 X3.225075 Y15.346461 Z-1.000000 I-0.002744 J-16.191306
G01 X3.225044 Y15.330839 Z-1.000000
G03 X3.881097 Y15.315121 Z-1.000000 I0.658441 J13.783540
G03 X4.590941 Y15.330613 Z-1.000000 I0.001960 J16.180927
G01 X4.590972 Y15.346231 Z-1.000000
G01 X4.590972 Y15.346188 Z-1.000000
G00 Z3.500000
(End cutting path id: path899)
(Start cutting path id: path899)
(Change tool to Cylindrical cutter)
G00 Z3.500000
G00 X4.590972 Y15.346188
G01 Z-1.000000 F100.0(Penetrate)
G03 X3.934918 Y15.361908 Z-1.000000 I-0.658392 J-13.779332 F200.000000
G03 X3.225075 Y15.346461 Z-1.000000 I-0.002744 J-16.191306
G01 X3.225044 Y15.330839 Z-1.000000
G03 X3.881097 Y15.315121 Z-1.000000 I0.658441 J13.783540
G03 X4.590941 Y15.330613 Z-1.000000 I0.001960 J16.180927
G01 X4.590972 Y15.346231 Z-1.000000
G01 X4.590972 Y15.346188 Z-1.000000
G00 Z3.500000
(End cutting path id: path899)
(Start cutting path id: path899)
(Change tool to Cylindrical cutter)
G00 Z3.500000
G00 X4.877506 Y16.453952
G01 Z-1.000000 F100.0(Penetrate)
G01 X4.863721 Y16.488611 Z-1.000000 F200.000000
G03 X4.746291 Y16.488862 Z-1.000000 I-0.059190 J-0.222476
G03 X4.664287 Y16.418606 Z-1.000000 I0.031234 J-0.119443
G01 X4.695261 Y16.371382 Z-1.000000
G03 X4.812373 Y16.396672 Z-1.000000 I0.000000 J0.283803
G03 X4.877506 Y16.453952 Z-1.000000 I-0.061358 J0.135442
G01 X4.877506 Y16.453952 Z-1.000000
G00 Z3.500000
(End cutting path id: path899)
(Start cutting path id: path899)
(Change tool to Cylindrical cutter)
G00 Z3.500000
G00 X4.877506 Y16.453952
G01 Z-1.000000 F100.0(Penetrate)
G01 X4.863721 Y16.488611 Z-1.000000 F200.000000
G03 X4.746291 Y16.488862 Z-1.000000 I-0.059190 J-0.222476
G03 X4.664287 Y16.418606 Z-1.000000 I0.031234 J-0.119443
G01 X4.695261 Y16.371382 Z-1.000000
G03 X4.812373 Y16.396672 Z-1.000000 I0.000000 J0.283803
G03 X4.877506 Y16.453952 Z-1.000000 I-0.061358 J0.135442
G01 X4.877506 Y16.453952 Z-1.000000
G00 Z3.500000
(End cutting path id: path899)
(Start cutting path id: path899)
(Change tool to Cylindrical cutter)
G00 Z3.500000
G00 X5.158344 Y16.444852
G01 Z-1.000000 F100.0(Penetrate)
G01 X5.107439 Y16.455743 Z-1.000000 F200.000000
G03 X4.995062 Y16.382682 Z-1.000000 I0.113025 J-0.296800
G01 X4.995137 Y16.342595 Z-1.000000
G01 X5.046042 Y16.331702 Z-1.000000
G03 X5.158421 Y16.404765 Z-1.000000 I-0.113052 J0.296843
G01 X5.158349 Y16.444852 Z-1.000000
G01 X5.158344 Y16.444852 Z-1.000000
G00 Z3.500000
(End cutting path id: path899)
(Start cutting path id: path899)
(Change tool to Cylindrical cutter)
G00 Z3.500000
G00 X5.158344 Y16.444852
G01 Z-1.000000 F100.0(Penetrate)
G01 X5.107439 Y16.455743 Z-1.000000 F200.000000
G03 X4.995062 Y16.382682 Z-1.000000 I0.113025 J-0.296800
G01 X4.995137 Y16.342595 Z-1.000000
G01 X5.046042 Y16.331702 Z-1.000000
G03 X5.158421 Y16.404765 Z-1.000000 I-0.113052 J0.296843
G01 X5.158349 Y16.444852 Z-1.000000
G01 X5.158344 Y16.444852 Z-1.000000
G00 Z3.500000
(End cutting path id: path899)
(Start cutting path id: path899)
(Change tool to Cylindrical cutter)
G00 Z3.500000
G00 X5.656764 Y16.281586
G01 Z-1.000000 F100.0(Penetrate)
G01 X5.650056 Y16.313742 Z-1.000000 F200.000000
G03 X5.474644 Y16.312636 Z-1.000000 I-0.084581 J-0.496053
G03 X5.286325 Y16.233958 Z-1.000000 I0.086610 J-0.472021
G01 X5.300112 Y16.190647 Z-1.000000
G03 X5.512348 Y16.217962 Z-1.000000 I-0.005587 J0.881598
G03 X5.656764 Y16.281577 Z-1.000000 I-0.118498 J0.464742
G01 X5.656764 Y16.281586 Z-1.000000
G00 Z3.500000
(End cutting path id: path899)
(Start cutting path id: path899)
(Change tool to Cylindrical cutter)
G00 Z3.500000
G00 X5.656764 Y16.281586
G01 Z-1.000000 F100.0(Penetrate)
G01 X5.650056 Y16.313742 Z-1.000000 F200.000000
G03 X5.474644 Y16.312636 Z-1.000000 I-0.084581 J-0.496053
G03 X5.286325 Y16.233958 Z-1.000000 I0.086610 J-0.472021
G01 X5.300112 Y16.190647 Z-1.000000
G03 X5.512348 Y16.217962 Z-1.000000 I-0.005587 J0.881598
G03 X5.656764 Y16.281577 Z-1.000000 I-0.118498 J0.464742
G01 X5.656764 Y16.281586 Z-1.000000
G00 Z3.500000
(End cutting path id: path899)
(Start cutting path id: path899)
(Change tool to Cylindrical cutter)
G00 Z3.500000
G00 X6.058403 Y16.176104
G01 Z-1.000000 F100.0(Penetrate)
G01 X6.043398 Y16.210521 Z-1.000000 F200.000000
G03 X5.881658 Y16.211014 Z-1.000000 I-0.082139 J-0.415840
G03 X5.672415 Y16.155087 Z-1.000000 I0.281716 J-1.473404
G01 X5.656764 Y16.133104 Z-1.000000
G03 X5.794105 Y16.009680 Z-1.000000 I0.124129 J0.000000
G03 X6.058403 Y16.176094 Z-1.000000 I-0.037799 J0.353118
G01 X6.058403 Y16.176104 Z-1.000000
G00 Z3.500000
(End cutting path id: path899)
(Start cutting path id: path899)
(Change tool to Cylindrical cutter)
G00 Z3.500000
G00 X6.058403 Y16.176104
G01 Z-1.000000 F100.0(Penetrate)
G01 X6.043398 Y16.210521 Z-1.000000 F200.000000
G03 X5.881658 Y16.211014 Z-1.000000 I-0.082139 J-0.415840
G03 X5.672415 Y16.155087 Z-1.000000 I0.281716 J-1.473404
G01 X5.656764 Y16.133104 Z-1.000000
G03 X5.794105 Y16.009680 Z-1.000000 I0.124129 J0.000000
G03 X6.058403 Y16.176094 Z-1.000000 I-0.037799 J0.353118
G01 X6.058403 Y16.176104 Z-1.000000
G00 Z3.500000
(End cutting path id: path899)
(Start cutting path id: path899)
(Change tool to Cylindrical cutter)
G00 Z3.500000
G00 X5.851146 Y16.990335
G01 Z-1.000000 F100.0(Penetrate)
G03 X5.647045 Y16.989467 Z-1.000000 I-0.099364 J-0.631829 F200.000000
G03 X5.552340 Y16.940795 Z-1.000000 I0.028558 J-0.172042
G01 X5.563643 Y16.906070 Z-1.000000
G03 X5.767727 Y16.906915 Z-1.000000 I0.099426 J0.632128
G03 X5.862451 Y16.955610 Z-1.000000 I-0.028500 J0.171917
G01 X5.851147 Y16.990335 Z-1.000000
G01 X5.851146 Y16.990335 Z-1.000000
G00 Z3.500000
(End cutting path id: path899)
(Start cutting path id: path899)
(Change tool to Cylindrical cutter)
G00 Z3.500000
G00 X5.851146 Y16.990335
G01 Z-1.000000 F100.0(Penetrate)
G03 X5.647045 Y16.989467 Z-1.000000 I-0.099364 J-0.631829 F200.000000
G03 X5.552340 Y16.940795 Z-1.000000 I0.028558 J-0.172042
G01 X5.563643 Y16.906070 Z-1.000000
G03 X5.767727 Y16.906915 Z-1.000000 I0.099426 J0.632128
G03 X5.862451 Y16.955610 Z-1.000000 I-0.028500 J0.171917
G01 X5.851147 Y16.990335 Z-1.000000
G01 X5.851146 Y16.990335 Z-1.000000
G00 Z3.500000
(End cutting path id: path899)
(Start cutting path id: path899)
(Change tool to Cylindrical cutter)
G00 Z3.500000
G00 X5.428469 Y17.007755
G01 Z-1.000000 F100.0(Penetrate)
G01 X5.417329 Y17.042441 Z-1.000000 F200.000000
G03 X5.342779 Y17.043545 Z-1.000000 I-0.038654 J-0.092522
G03 X5.257842 Y16.962745 Z-1.000000 I0.054706 J-0.142551
G01 X5.287149 Y16.917740 Z-1.000000
G03 X5.360860 Y16.939224 Z-1.000000 I-0.000000 J0.137195
G03 X5.428469 Y17.007760 Z-1.000000 I-0.115913 J0.181960
G01 X5.428469 Y17.007755 Z-1.000000
G00 Z3.500000
(End cutting path id: path899)
(Start cutting path id: path899)
(Change tool to Cylindrical cutter)
G00 Z3.500000
G00 X5.428469 Y17.007755
G01 Z-1.000000 F100.0(Penetrate)
G01 X5.417329 Y17.042441 Z-1.000000 F200.000000
G03 X5.342779 Y17.043545 Z-1.000000 I-0.038654 J-0.092522
G03 X5.257842 Y16.962745 Z-1.000000 I0.054706 J-0.142551
G01 X5.287149 Y16.917740 Z-1.000000
G03 X5.360860 Y16.939224 Z-1.000000 I-0.000000 J0.137195
G03 X5.428469 Y17.007760 Z-1.000000 I-0.115913 J0.181960
G01 X5.428469 Y17.007755 Z-1.000000
G00 Z3.500000
(End cutting path id: path899)
(Start cutting path id: path899)
(Change tool to Cylindrical cutter)
G00 Z3.500000
G00 X5.155934 Y17.099855
G01 Z-1.000000 F100.0(Penetrate)
G03 X5.217145 Y17.155537 Z-1.000000 I-0.050072 J0.116530 F200.000000
G01 X5.201464 Y17.183125 Z-1.000000
G03 X5.070939 Y17.166085 Z-1.000000 I-0.014329 J-0.398658
G03 X4.928285 Y17.099855 Z-1.000000 I0.165217 J-0.542615
G01 X4.941313 Y17.055694 Z-1.000000
G03 X5.155934 Y17.099855 Z-1.000000 I-0.000000 J0.543607
G01 X5.155934 Y17.099855 Z-1.000000
G00 Z3.500000
(End cutting path id: path899)
(Start cutting path id: path899)
(Change tool to Cylindrical cutter)
G00 Z3.500000
G00 X5.155934 Y17.099855
G01 Z-1.000000 F100.0(Penetrate)
G03 X5.217145 Y17.155537 Z-1.000000 I-0.050072 J0.116530 F200.000000
G01 X5.201464 Y17.183125 Z-1.000000
G03 X5.070939 Y17.166085 Z-1.000000 I-0.014329 J-0.398658
G03 X4.928285 Y17.099855 Z-1.000000 I0.165217 J-0.542615
G01 X4.941313 Y17.055694 Z-1.000000
G03 X5.155934 Y17.099855 Z-1.000000 I-0.000000 J0.543607
G01 X5.155934 Y17.099855 Z-1.000000
G00 Z3.500000
(End cutting path id: path899)
(Start cutting path id: path899)
(Change tool to Cylindrical cutter)
G00 Z3.500000
G00 X4.712307 Y17.263599
G01 Z-1.000000 F100.0(Penetrate)
G03 X4.462589 Y17.261933 Z-1.000000 I-0.118524 J-0.950232 F200.000000
G03 X4.370915 Y17.216329 Z-1.000000 I0.022020 J-0.159209
G01 X4.382686 Y17.182031 Z-1.000000
G03 X4.632423 Y17.183719 Z-1.000000 I0.118454 J0.949666
G03 X4.724077 Y17.229299 Z-1.000000 I-0.022053 J0.159287
G01 X4.712303 Y17.263599 Z-1.000000
G01 X4.712307 Y17.263599 Z-1.000000
G00 Z3.500000
(End cutting path id: path899)
(Start cutting path id: path899)
(Change tool to Cylindrical cutter)
G00 Z3.500000
G00 X4.712307 Y17.263599
G01 Z-1.000000 F100.0(Penetrate)
G03 X4.462589 Y17.261933 Z-1.000000 I-0.118524 J-0.950232 F200.000000
G03 X4.370915 Y17.216329 Z-1.000000 I0.022020 J-0.159209
G01 X4.382686 Y17.182031 Z-1.000000
G03 X4.632423 Y17.183719 Z-1.000000 I0.118454 J0.949666
G03 X4.724077 Y17.229299 Z-1.000000 I-0.022053 J0.159287
G01 X4.712303 Y17.263599 Z-1.000000
G01 X4.712307 Y17.263599 Z-1.000000
G00 Z3.500000
(End cutting path id: path899)
(Start cutting path id: path899)
(Change tool to Cylindrical cutter)
G00 Z3.500000
G00 X4.553561 Y16.545102
G01 Z-1.000000 F100.0(Penetrate)
G01 X4.545796 Y16.577853 Z-1.000000 F200.000000
G03 X4.243972 Y16.575852 Z-1.000000 I-0.141474 J-1.424417
G02 X3.906304 Y16.588851 Z-1.000000 I-0.126040 J1.118146
G01 X3.881522 Y16.645252 Z-1.000000
G01 X3.881260 Y16.690257 Z-1.000000
G01 X3.848152 Y16.697872 Z-1.000000
G03 X3.786174 Y16.621442 Z-1.000000 I0.078476 J-0.126983
G03 X3.793922 Y16.547212 Z-1.000000 I0.080807 J-0.029084
G03 X4.054901 Y16.401230 Z-1.000000 I0.261840 J0.161830
G03 X4.553558 Y16.545112 Z-1.000000 I0.002592 J0.927060
G01 X4.553561 Y16.545102 Z-1.000000
G00 Z3.500000
(End cutting path id: path899)
(Start cutting path id: path899)
(Change tool to Cylindrical cutter)
G00 Z3.500000
G00 X4.553561 Y16.545102
G01 Z-1.000000 F100.0(Penetrate)
G01 X4.545796 Y16.577853 Z-1.000000 F200.000000
G03 X4.243972 Y16.575852 Z-1.000000 I-0.141474 J-1.424417
G02 X3.906304 Y16.588851 Z-1.000000 I-0.126040 J1.118146
G01 X3.881522 Y16.645252 Z-1.000000
G01 X3.881260 Y16.690257 Z-1.000000
G01 X3.848152 Y16.697872 Z-1.000000
G03 X3.786174 Y16.621442 Z-1.000000 I0.078476 J-0.126983
G03 X3.793922 Y16.547212 Z-1.000000 I0.080807 J-0.029084
G03 X4.054901 Y16.401230 Z-1.000000 I0.261840 J0.161830
G03 X4.553558 Y16.545112 Z-1.000000 I0.002592 J0.927060
G01 X4.553561 Y16.545102 Z-1.000000
G00 Z3.500000
(End cutting path id: path899)
(Start cutting path id: path899)
(Change tool to Cylindrical cutter)
G00 Z3.500000
G00 X3.685943 Y16.714530
G01 Z-1.000000 F100.0(Penetrate)
G01 X3.669763 Y16.747569 Z-1.000000 F200.000000
G03 X3.360616 Y16.749350 Z-1.000000 I-0.163375 J-1.526928
G02 X3.086263 Y16.772743 Z-1.000000 I-0.072953 J0.764927
G01 X3.063635 Y16.830040 Z-1.000000
G01 X3.062389 Y16.873042 Z-1.000000
G01 X3.028615 Y16.879990 Z-1.000000
G03 X2.966637 Y16.803560 Z-1.000000 I0.078476 J-0.126983
G03 X2.974385 Y16.729330 Z-1.000000 I0.080807 J-0.029084
G03 X3.334745 Y16.523484 Z-1.000000 I0.369384 J0.228304
G03 X3.685941 Y16.714530 Z-1.000000 I0.008375 J0.402926
G01 X3.685943 Y16.714530 Z-1.000000
G00 Z3.500000
(End cutting path id: path899)
(Start cutting path id: path899)
(Change tool to Cylindrical cutter)
G00 Z3.500000
G00 X3.685943 Y16.714530
G01 Z-1.000000 F100.0(Penetrate)
G01 X3.669763 Y16.747569 Z-1.000000 F200.000000
G03 X3.360616 Y16.749350 Z-1.000000 I-0.163375 J-1.526928
G02 X3.086263 Y16.772743 Z-1.000000 I-0.072953 J0.764927
G01 X3.063635 Y16.830040 Z-1.000000
G01 X3.062389 Y16.873042 Z-1.000000
G01 X3.028615 Y16.879990 Z-1.000000
G03 X2.966637 Y16.803560 Z-1.000000 I0.078476 J-0.126983
G03 X2.974385 Y16.729330 Z-1.000000 I0.080807 J-0.029084
G03 X3.334745 Y16.523484 Z-1.000000 I0.369384 J0.228304
G03 X3.685941 Y16.714530 Z-1.000000 I0.008375 J0.402926
G01 X3.685943 Y16.714530 Z-1.000000
G00 Z3.500000
(End cutting path id: path899)
(Start cutting path id: path899)
(Change tool to Cylindrical cutter)
G00 Z3.500000
G00 X3.250182 Y17.553855
G01 Z-1.000000 F100.0(Penetrate)
G03 X3.215367 Y17.650618 Z-1.000000 I-0.151876 J0.000000 F200.000000
G01 X3.168352 Y17.652845 Z-1.000000
G03 X3.126623 Y17.566356 Z-1.000000 I0.103013 J-0.103013
G03 X3.147712 Y17.472025 Z-1.000000 I0.146637 J-0.016740
G01 X3.205949 Y17.461928 Z-1.000000
G03 X3.250180 Y17.553855 Z-1.000000 I-0.073411 J0.091927
G01 X3.250182 Y17.553855 Z-1.000000
G00 Z3.500000
(End cutting path id: path899)
(Start cutting path id: path899)
(Change tool to Cylindrical cutter)
G00 Z3.500000
G00 X3.250182 Y17.553855
G01 Z-1.000000 F100.0(Penetrate)
G03 X3.215367 Y17.650618 Z-1.000000 I-0.151876 J0.000000 F200.000000
G01 X3.168352 Y17.652845 Z-1.000000
G03 X3.126623 Y17.566356 Z-1.000000 I0.103013 J-0.103013
G03 X3.147712 Y17.472025 Z-1.000000 I0.146637 J-0.016740
G01 X3.205949 Y17.461928 Z-1.000000
G03 X3.250180 Y17.553855 Z-1.000000 I-0.073411 J0.091927
G01 X3.250182 Y17.553855 Z-1.000000
G00 Z3.500000
(End cutting path id: path899)
(Start cutting path id: path899)
(Change tool to Cylindrical cutter)
G00 Z3.500000
G00 X2.445401 Y16.482796
G01 Z-1.000000 F100.0(Penetrate)
G01 X2.427709 Y16.482928 Z-1.000000 F200.000000
G03 X2.409821 Y16.143728 Z-1.000000 I3.258235 J-0.341899
G03 X2.427106 Y15.754449 Z-1.000000 I4.312292 J-0.003552
G01 X2.444791 Y15.754317 Z-1.000000
G03 X2.462680 Y16.093517 Z-1.000000 I-3.258034 J0.341899
G03 X2.445392 Y16.482796 Z-1.000000 I-4.311349 J0.003552
G01 X2.445401 Y16.482796 Z-1.000000
G00 Z3.500000
(End cutting path id: path899)
(Start cutting path id: path899)
(Change tool to Cylindrical cutter)
G00 Z3.500000
G00 X2.445401 Y16.482796
G01 Z-1.000000 F100.0(Penetrate)
G01 X2.427709 Y16.482928 Z-1.000000 F200.000000
G03 X2.409821 Y16.143728 Z-1.000000 I3.258235 J-0.341899
G03 X2.427106 Y15.754449 Z-1.000000 I4.312292 J-0.003552
G01 X2.444791 Y15.754317 Z-1.000000
G03 X2.462680 Y16.093517 Z-1.000000 I-3.258034 J0.341899
G03 X2.445392 Y16.482796 Z-1.000000 I-4.311349 J0.003552
G01 X2.445401 Y16.482796 Z-1.000000
G00 Z3.500000
(End cutting path id: path899)
(Start cutting path id: path899)
(Change tool to Cylindrical cutter)
G00 Z3.500000
G00 X2.059900 Y18.895886
G01 Z-1.000000 F100.0(Penetrate)
G03 X2.233954 Y18.956874 Z-1.000000 I-0.229603 J0.934127 F200.000000
G03 X2.354842 Y19.032231 Z-1.000000 I-0.240921 J0.521130
G03 X2.399094 Y19.193913 Z-1.000000 I-0.090681 J0.111716
G03 X2.279772 Y19.234956 Z-1.000000 I-0.076458 J-0.028312
G03 X2.234041 Y19.172085 Z-1.000000 I0.053970 J-0.087324
G03 X2.245912 Y19.096881 Z-1.000000 I0.095602 J-0.023448
G01 X2.229964 Y19.050215 Z-1.000000
G02 X2.019747 Y19.012111 Z-1.000000 I-0.210216 J0.560815
G02 X1.826157 Y19.097074 Z-1.000000 I-0.000000 J0.263029
G02 X1.741194 Y19.314948 Z-1.000000 I0.236868 J0.217874
G02 X1.952462 Y19.922570 Z-1.000000 I0.979418 J-0.000000
G02 X2.240613 Y19.946307 Z-1.000000 I0.155164 J-0.122738
G01 X2.255637 Y19.952797 Z-1.000000
G03 X2.241713 Y20.006477 Z-1.000000 I-0.103207 J0.001876
G01 X2.254978 Y20.060709 Z-1.000000
G02 X2.340943 Y20.069377 Z-1.000000 I0.051633 J-0.081454
G03 X2.400626 Y20.077509 Z-1.000000 I0.022388 J0.058769
G01 X2.403563 Y20.115497 Z-1.000000
G03 X2.289828 Y20.151167 Z-1.000000 I-0.090694 J-0.090023
G03 X2.107618 Y20.061247 Z-1.000000 I0.066954 J-0.365245
G02 X1.954112 Y19.963822 Z-1.000000 I-0.360453 J0.398294
G01 X1.923347 Y19.984317 Z-1.000000
G02 X1.956786 Y20.056024 Z-1.000000 I0.093604 J0.000000
G02 X2.401411 Y20.385435 Z-1.000000 I2.942854 J-3.507367
G01 X2.879475 Y20.696715 Z-1.000000
G01 X2.378646 Y20.750165 Z-1.000000
G01 X1.877817 Y20.803615 Z-1.000000
G01 X2.395752 Y20.818455 Z-1.000000
G02 X2.833470 Y20.756765 Z-1.000000 I0.037719 J-1.316112
G02 X2.900443 Y20.657487 Z-1.000000 I-0.029344 J-0.092025
G02 X2.863309 Y20.528577 Z-1.000000 I-0.328378 J0.024790
G01 X2.827213 Y20.518750 Z-1.000000
G01 X2.773312 Y20.517052 Z-1.000000
G03 X2.595701 Y20.354655 Z-1.000000 I0.562148 J-0.793136
G03 X2.565006 Y20.287838 Z-1.000000 I0.102883 J-0.087723
G01 X2.583531 Y20.276895 Z-1.000000
G02 X2.716058 Y20.345590 Z-1.000000 I0.254294 J-0.328406
G01 X2.742886 Y20.325755 Z-1.000000
G01 X2.769041 Y20.312111 Z-1.000000
G03 X3.038830 Y20.532209 Z-1.000000 I-1.326304 J1.901137
G02 X3.351283 Y20.784773 Z-1.000000 I1.737373 J-1.829790
G02 X3.539660 Y20.874918 Z-1.000000 I0.384985 J-0.562610
G03 X3.714495 Y20.958962 Z-1.000000 I-0.180564 J0.599499
G03 X3.744544 Y21.016179 Z-1.000000 I-0.039450 J0.057217
G03 X3.648387 Y21.123069 Z-1.000000 I-0.107489 J0.000000
G03 X3.321487 Y21.061029 Z-1.000000 I-0.060689 J-0.572483
G03 X3.170001 Y20.951784 Z-1.000000 I0.300832 J-0.576806
G01 X3.180794 Y20.924923 Z-1.000000
G02 X3.239667 Y20.890923 Z-1.000000 I-0.000286 J-0.068466
G02 X3.238814 Y20.825363 Z-1.000000 I-0.055045 J-0.032069
G02 X3.170537 Y20.787296 Z-1.000000 I-0.068278 J0.042198
G02 X3.078638 Y20.825363 Z-1.000000 I0.000000 J0.129960
G03 X2.962531 Y20.883058 Z-1.000000 I-0.143889 J-0.143889
G03 X2.360437 Y20.924353 Z-1.000000 I-0.602094 J-4.368750
G01 X1.741230 Y20.924353 Z-1.000000
G01 X1.741230 Y21.250832 Z-1.000000
G01 X1.741230 Y21.577311 Z-1.000000
G01 X2.324711 Y21.546781 Z-1.000000
G03 X2.848727 Y21.551329 Z-1.000000 I0.224742 J4.295593
G01 X2.865696 Y21.584541 Z-1.000000
G03 X2.806530 Y21.623830 Z-1.000000 I-0.072642 J-0.045198
G03 X2.350510 Y21.666721 Z-1.000000 I-0.560552 J-3.514198
G01 X1.877820 Y21.680611 Z-1.000000
G01 X2.469709 Y21.769131 Z-1.000000
G02 X4.709914 Y21.935931 Z-1.000000 I2.242957 J-14.997034
G02 X14.980689 Y21.771431 Z-1.000000 I0.057544 J-317.123285
G02 X17.206214 Y21.626475 Z-1.000000 I-1.094554 J-33.961635
G02 X17.347780 Y21.539026 Z-1.000000 I-0.018480 J-0.188226
G02 X17.393753 Y21.379678 Z-1.000000 I-0.252967 J-0.159288
G02 X17.347720 Y21.220316 Z-1.000000 I-0.299074 J0.000060
G02 X17.204644 Y21.137025 Z-1.000000 I-0.151263 J0.095306
G02 X12.395523 Y20.993304 Z-1.000000 I-6.914573 J150.839455
G03 X7.513015 Y20.742863 Z-1.000000 I0.913812 J-65.534507
G03 X7.438729 Y20.553217 Z-1.000000 I0.010061 J-0.113313
G03 X7.598174 Y20.440559 Z-1.000000 I0.331440 J0.299928
G03 X7.712888 Y20.438920 Z-1.000000 I0.059405 J0.142501
G03 X7.742798 Y20.503612 Z-1.000000 I-0.018316 J0.047729
G03 X7.636038 Y20.657399 Z-1.000000 I-0.332741 J-0.117040
G02 X7.525465 Y20.794945 Z-1.000000 I0.286933 J0.343883
G01 X7.546298 Y20.830282 Z-1.000000
G02 X7.634216 Y20.806719 Z-1.000000 I0.004335 J-0.159627
G02 X7.660122 Y20.760402 Z-1.000000 I-0.028452 J-0.046317
G03 X7.842994 Y20.469823 Z-1.000000 I0.322298 J0.000000
G03 X8.646812 Y20.286958 Z-1.000000 I0.803819 J1.675239
G02 X8.799358 Y20.257969 Z-1.000000 I-0.000000 J-0.415854
G02 X8.985851 Y20.153264 Z-1.000000 I-0.289351 J-0.733810
G03 X9.180154 Y20.071504 Z-1.000000 I0.257731 J0.340737
G03 X9.895642 Y20.016674 Z-1.000000 I0.735055 J4.896216
G02 X10.609575 Y19.967924 Z-1.000000 I-0.022582 J-5.582789
G02 X10.737945 Y19.904506 Z-1.000000 I-0.029443 J-0.221228
G02 X10.902878 Y19.491079 Z-1.000000 I-0.398652 J-0.398652
G02 X10.717075 Y19.108531 Z-1.000000 I-0.514483 J0.013488
G02 X9.974304 Y18.864981 Z-1.000000 I-0.679958 J0.819300
G02 X8.115422 Y19.262291 Z-1.000000 I0.371437 J6.285029
G02 X7.019168 Y19.751235 Z-1.000000 I3.703529 J9.777050
G02 X6.749679 Y19.968058 Z-1.000000 I0.398556 J0.771250
G03 X6.341094 Y20.232457 Z-1.000000 I-0.626077 J-0.519598
G03 X5.271907 Y20.378012 Z-1.000000 I-1.069187 J-3.854125
G03 X4.560943 Y20.310783 Z-1.000000 I-0.000000 J-3.792943
G03 X4.099638 Y20.154315 Z-1.000000 I0.330806 J-1.733543
G03 X3.649668 Y19.887399 Z-1.000000 I1.680341 J-3.345477
G03 X3.170735 Y19.511529 Z-1.000000 I2.884704 J-4.168750
G02 X2.904496 Y19.314626 Z-1.000000 I-1.240139 J1.398388
G02 X2.800152 Y19.285293 Z-1.000000 I-0.104344 J0.170919
G03 X2.699567 Y19.252618 Z-1.000000 I0.000000 J-0.171157
G03 X2.486736 Y19.057644 Z-1.000000 I0.749168 J-1.031429
G02 X2.266777 Y18.881806 Z-1.000000 I-0.591175 J0.514017
G02 X2.083311 Y18.840557 Z-1.000000 I-0.165533 J0.307620
G01 X2.045478 Y18.867065 Z-1.000000
G01 X2.059941 Y18.895887 Z-1.000000
G01 X2.059900 Y18.895886 Z-1.000000
G00 Z3.500000
(End cutting path id: path899)
(Start cutting path id: path899)
(Change tool to Cylindrical cutter)
G00 Z3.500000
G00 X2.059900 Y18.895886
G01 Z-1.000000 F100.0(Penetrate)
G03 X2.233954 Y18.956874 Z-1.000000 I-0.229603 J0.934127 F200.000000
G03 X2.354842 Y19.032231 Z-1.000000 I-0.240921 J0.521130
G03 X2.399094 Y19.193913 Z-1.000000 I-0.090681 J0.111716
G03 X2.279772 Y19.234956 Z-1.000000 I-0.076458 J-0.028312
G03 X2.234041 Y19.172085 Z-1.000000 I0.053970 J-0.087324
G03 X2.245912 Y19.096881 Z-1.000000 I0.095602 J-0.023448
G01 X2.229964 Y19.050215 Z-1.000000
G02 X2.019747 Y19.012111 Z-1.000000 I-0.210216 J0.560815
G02 X1.826157 Y19.097074 Z-1.000000 I-0.000000 J0.263029
G02 X1.741194 Y19.314948 Z-1.000000 I0.236868 J0.217874
G02 X1.952462 Y19.922570 Z-1.000000 I0.979418 J-0.000000
G02 X2.240613 Y19.946307 Z-1.000000 I0.155164 J-0.122738
G01 X2.255637 Y19.952797 Z-1.000000
G03 X2.241713 Y20.006477 Z-1.000000 I-0.103207 J0.001876
G01 X2.254978 Y20.060709 Z-1.000000
G02 X2.340943 Y20.069377 Z-1.000000 I0.051633 J-0.081454
G03 X2.400626 Y20.077509 Z-1.000000 I0.022388 J0.058769
G01 X2.403563 Y20.115497 Z-1.000000
G03 X2.289828 Y20.151167 Z-1.000000 I-0.090694 J-0.090023
G03 X2.107618 Y20.061247 Z-1.000000 I0.066954 J-0.365245
G02 X1.954112 Y19.963822 Z-1.000000 I-0.360453 J0.398294
G01 X1.923347 Y19.984317 Z-1.000000
G02 X1.956786 Y20.056024 Z-1.000000 I0.093604 J0.000000
G02 X2.401411 Y20.385435 Z-1.000000 I2.942854 J-3.507367
G01 X2.879475 Y20.696715 Z-1.000000
G01 X2.378646 Y20.750165 Z-1.000000
G01 X1.877817 Y20.803615 Z-1.000000
G01 X2.395752 Y20.818455 Z-1.000000
G02 X2.833470 Y20.756765 Z-1.000000 I0.037719 J-1.316112
G02 X2.900443 Y20.657487 Z-1.000000 I-0.029344 J-0.092025
G02 X2.863309 Y20.528577 Z-1.000000 I-0.328378 J0.024790
G01 X2.827213 Y20.518750 Z-1.000000
G01 X2.773312 Y20.517052 Z-1.000000
G03 X2.595701 Y20.354655 Z-1.000000 I0.562148 J-0.793136
G03 X2.565006 Y20.287838 Z-1.000000 I0.102883 J-0.087723
G01 X2.583531 Y20.276895 Z-1.000000
G02 X2.716058 Y20.345590 Z-1.000000 I0.254294 J-0.328406
G01 X2.742886 Y20.325755 Z-1.000000
G01 X2.769041 Y20.312111 Z-1.000000
G03 X3.038830 Y20.532209 Z-1.000000 I-1.326304 J1.901137
G02 X3.351283 Y20.784773 Z-1.000000 I1.737373 J-1.829790
G02 X3.539660 Y20.874918 Z-1.000000 I0.384985 J-0.562610
G03 X3.714495 Y20.958962 Z-1.000000 I-0.180564 J0.599499
G03 X3.744544 Y21.016179 Z-1.000000 I-0.039450 J0.057217
G03 X3.648387 Y21.123069 Z-1.000000 I-0.107489 J0.000000
G03 X3.321487 Y21.061029 Z-1.000000 I-0.060689 J-0.572483
G03 X3.170001 Y20.951784 Z-1.000000 I0.300832 J-0.576806
G01 X3.180794 Y20.924923 Z-1.000000
G02 X3.239667 Y20.890923 Z-1.000000 I-0.000286 J-0.068466
G02 X3.238814 Y20.825363 Z-1.000000 I-0.055045 J-0.032069
G02 X3.170537 Y20.787296 Z-1.000000 I-0.068278 J0.042198
G02 X3.078638 Y20.825363 Z-1.000000 I0.000000 J0.129960
G03 X2.962531 Y20.883058 Z-1.000000 I-0.143889 J-0.143889
G03 X2.360437 Y20.924353 Z-1.000000 I-0.602094 J-4.368750
G01 X1.741230 Y20.924353 Z-1.000000
G01 X1.741230 Y21.250832 Z-1.000000
G01 X1.741230 Y21.577311 Z-1.000000
G01 X2.324711 Y21.546781 Z-1.000000
G03 X2.848727 Y21.551329 Z-1.000000 I0.224742 J4.295593
G01 X2.865696 Y21.584541 Z-1.000000
G03 X2.806530 Y21.623830 Z-1.000000 I-0.072642 J-0.045198
G03 X2.350510 Y21.666721 Z-1.000000 I-0.560552 J-3.514198
G01 X1.877820 Y21.680611 Z-1.000000
G01 X2.469709 Y21.769131 Z-1.000000
G02 X4.709914 Y21.935931 Z-1.000000 I2.242957 J-14.997034
G02 X14.980689 Y21.771431 Z-1.000000 I0.057544 J-317.123285
G02 X17.206214 Y21.626475 Z-1.000000 I-1.094554 J-33.961635
G02 X17.347780 Y21.539026 Z-1.000000 I-0.018480 J-0.188226
G02 X17.393753 Y21.379678 Z-1.000000 I-0.252967 J-0.159288
G02 X17.347720 Y21.220316 Z-1.000000 I-0.299074 J0.000060
G02 X17.204644 Y21.137025 Z-1.000000 I-0.151263 J0.095306
G02 X12.395523 Y20.993304 Z-1.000000 I-6.914573 J150.839455
G03 X7.513015 Y20.742863 Z-1.000000 I0.913812 J-65.534507
G03 X7.438729 Y20.553217 Z-1.000000 I0.010061 J-0.113313
G03 X7.598174 Y20.440559 Z-1.000000 I0.331440 J0.299928
G03 X7.712888 Y20.438920 Z-1.000000 I0.059405 J0.142501
G03 X7.742798 Y20.503612 Z-1.000000 I-0.018316 J0.047729
G03 X7.636038 Y20.657399 Z-1.000000 I-0.332741 J-0.117040
G02 X7.525465 Y20.794945 Z-1.000000 I0.286933 J0.343883
G01 X7.546298 Y20.830282 Z-1.000000
G02 X7.634216 Y20.806719 Z-1.000000 I0.004335 J-0.159627
G02 X7.660122 Y20.760402 Z-1.000000 I-0.028452 J-0.046317
G03 X7.842994 Y20.469823 Z-1.000000 I0.322298 J0.000000
G03 X8.646812 Y20.286958 Z-1.000000 I0.803819 J1.675239
G02 X8.799358 Y20.257969 Z-1.000000 I-0.000000 J-0.415854
G02 X8.985851 Y20.153264 Z-1.000000 I-0.289351 J-0.733810
G03 X9.180154 Y20.071504 Z-1.000000 I0.257731 J0.340737
G03 X9.895642 Y20.016674 Z-1.000000 I0.735055 J4.896216
G02 X10.609575 Y19.967924 Z-1.000000 I-0.022582 J-5.582789
G02 X10.737945 Y19.904506 Z-1.000000 I-0.029443 J-0.221228
G02 X10.902878 Y19.491079 Z-1.000000 I-0.398652 J-0.398652
G02 X10.717075 Y19.108531 Z-1.000000 I-0.514483 J0.013488
G02 X9.974304 Y18.864981 Z-1.000000 I-0.679958 J0.819300
G02 X8.115422 Y19.262291 Z-1.000000 I0.371437 J6.285029
G02 X7.019168 Y19.751235 Z-1.000000 I3.703529 J9.777050
G02 X6.749679 Y19.968058 Z-1.000000 I0.398556 J0.771250
G03 X6.341094 Y20.232457 Z-1.000000 I-0.626077 J-0.519598
G03 X5.271907 Y20.378012 Z-1.000000 I-1.069187 J-3.854125
G03 X4.560943 Y20.310783 Z-1.000000 I-0.000000 J-3.792943
G03 X4.099638 Y20.154315 Z-1.000000 I0.330806 J-1.733543
G03 X3.649668 Y19.887399 Z-1.000000 I1.680341 J-3.345477
G03 X3.170735 Y19.511529 Z-1.000000 I2.884704 J-4.168750
G02 X2.904496 Y19.314626 Z-1.000000 I-1.240139 J1.398388
G02 X2.800152 Y19.285293 Z-1.000000 I-0.104344 J0.170919
G03 X2.699567 Y19.252618 Z-1.000000 I0.000000 J-0.171157
G03 X2.486736 Y19.057644 Z-1.000000 I0.749168 J-1.031429
G02 X2.266777 Y18.881806 Z-1.000000 I-0.591175 J0.514017
G02 X2.083311 Y18.840557 Z-1.000000 I-0.165533 J0.307620
G01 X2.045478 Y18.867065 Z-1.000000
G01 X2.059941 Y18.895887 Z-1.000000
G01 X2.059900 Y18.895886 Z-1.000000
G00 Z3.500000
(End cutting path id: path899)
(Start cutting path id: path899)
(Change tool to Cylindrical cutter)
G00 Z3.500000
G00 X2.924968 Y19.592853
G01 Z-1.000000 F100.0(Penetrate)
G01 X2.936821 Y19.621468 Z-1.000000 F200.000000
G02 X3.084323 Y19.752208 Z-1.000000 I1.158874 J-1.158874
G01 X3.116750 Y19.750255 Z-1.000000
G01 X3.118703 Y19.717828 Z-1.000000
G02 X2.960444 Y19.573521 Z-1.000000 I-0.508707 J0.398956
G01 X2.924968 Y19.592853 Z-1.000000
G01 X2.924968 Y19.592853 Z-1.000000
G00 Z3.500000
(End cutting path id: path899)
(Start cutting path id: path899)
(Change tool to Cylindrical cutter)
G00 Z3.500000
G00 X2.924968 Y19.592853
G01 Z-1.000000 F100.0(Penetrate)
G01 X2.936821 Y19.621468 Z-1.000000 F200.000000
G02 X3.084323 Y19.752208 Z-1.000000 I1.158874 J-1.158874
G01 X3.116750 Y19.750255 Z-1.000000
G01 X3.118703 Y19.717828 Z-1.000000
G02 X2.960444 Y19.573521 Z-1.000000 I-0.508707 J0.398956
G01 X2.924968 Y19.592853 Z-1.000000
G01 X2.924968 Y19.592853 Z-1.000000
G00 Z3.500000
(End cutting path id: path899)
(Start cutting path id: path899)
(Change tool to Cylindrical cutter)
G00 Z3.500000
G00 X3.380145 Y19.800734
G01 Z-1.000000 F100.0(Penetrate)
G03 X3.920522 Y20.228103 Z-1.000000 I-23.846959 J30.708029 F200.000000
G01 X3.926626 Y20.240857 Z-1.000000
G01 X3.919187 Y20.249227 Z-1.000000
G03 X3.794042 Y20.256597 Z-1.000000 I-0.125145 J-1.058837
G03 X3.721993 Y20.222848 Z-1.000000 I-0.000000 J-0.093781
G01 X3.717922 Y20.165237 Z-1.000000
G01 X3.706441 Y20.130166 Z-1.000000
G02 X3.629512 Y20.129467 Z-1.000000 I-0.039352 J0.097262
G03 X3.366821 Y20.078525 Z-1.000000 I-0.090533 J-0.235926
G03 X3.358292 Y19.877052 Z-1.000000 I0.097772 J-0.105056
G01 X3.350851 Y19.852667 Z-1.000000
G02 X3.275002 Y19.856522 Z-1.000000 I-0.031522 J0.127884
G03 X2.913407 Y19.783539 Z-1.000000 I-0.120253 J-0.336461
G03 X2.902009 Y19.514862 Z-1.000000 I0.128258 J-0.140021
G01 X2.892453 Y19.486655 Z-1.000000
G02 X2.765492 Y19.490992 Z-1.000000 I-0.053167 J0.304080
G03 X2.626380 Y19.493498 Z-1.000000 I-0.075069 J-0.304805
G01 X2.611511 Y19.458902 Z-1.000000
G03 X2.741871 Y19.418664 Z-1.000000 I0.088220 J0.054523
G03 X3.380149 Y19.800715 Z-1.000000 I-1.252820 J2.817237
G01 X3.380145 Y19.800734 Z-1.000000
G00 Z3.500000
(End cutting path id: path899)
(Start cutting path id: path899)
(Change tool to Cylindrical cutter)
G00 Z3.500000
G00 X3.380145 Y19.800734
G01 Z-1.000000 F100.0(Penetrate)
G03 X3.920522 Y20.228103 Z-1.000000 I-23.846959 J30.708029 F200.000000
G01 X3.926626 Y20.240857 Z-1.000000
G01 X3.919187 Y20.249227 Z-1.000000
G03 X3.794042 Y20.256597 Z-1.000000 I-0.125145 J-1.058837
G03 X3.721993 Y20.222848 Z-1.000000 I-0.000000 J-0.093781
G01 X3.717922 Y20.165237 Z-1.000000
G01 X3.706441 Y20.130166 Z-1.000000
G02 X3.629512 Y20.129467 Z-1.000000 I-0.039352 J0.097262
G03 X3.366821 Y20.078525 Z-1.000000 I-0.090533 J-0.235926
G03 X3.358292 Y19.877052 Z-1.000000 I0.097772 J-0.105056
G01 X3.350851 Y19.852667 Z-1.000000
G02 X3.275002 Y19.856522 Z-1.000000 I-0.031522 J0.127884
G03 X2.913407 Y19.783539 Z-1.000000 I-0.120253 J-0.336461
G03 X2.902009 Y19.514862 Z-1.000000 I0.128258 J-0.140021
G01 X2.892453 Y19.486655 Z-1.000000
G02 X2.765492 Y19.490992 Z-1.000000 I-0.053167 J0.304080
G03 X2.626380 Y19.493498 Z-1.000000 I-0.075069 J-0.304805
G01 X2.611511 Y19.458902 Z-1.000000
G03 X2.741871 Y19.418664 Z-1.000000 I0.088220 J0.054523
G03 X3.380149 Y19.800715 Z-1.000000 I-1.252820 J2.817237
G01 X3.380145 Y19.800734 Z-1.000000
G00 Z3.500000
(End cutting path id: path899)
(Start cutting path id: path899)
(Change tool to Cylindrical cutter)
G00 Z3.500000
G00 X4.332507 Y20.371726
G01 Z-1.000000 F100.0(Penetrate)
G03 X4.340256 Y20.445960 Z-1.000000 I-0.073056 J0.045147 F200.000000
G03 X4.278287 Y20.522386 Z-1.000000 I-0.140479 J-0.050568
G01 X4.245403 Y20.514546 Z-1.000000
G01 X4.245507 Y20.468806 Z-1.000000
G01 X4.231311 Y20.414398 Z-1.000000
G02 X4.122861 Y20.400716 Z-1.000000 I-0.071290 J0.128417
G03 X3.991950 Y20.403634 Z-1.000000 I-0.071591 J-0.273765
G01 X3.977406 Y20.369526 Z-1.000000
G03 X4.154275 Y20.271629 Z-1.000000 I0.175591 J0.108515
G03 X4.332507 Y20.371726 Z-1.000000 I-0.001308 J0.211055
G01 X4.332507 Y20.371726 Z-1.000000
G00 Z3.500000
(End cutting path id: path899)
(Start cutting path id: path899)
(Change tool to Cylindrical cutter)
G00 Z3.500000
G00 X4.332507 Y20.371726
G01 Z-1.000000 F100.0(Penetrate)
G03 X4.340256 Y20.445960 Z-1.000000 I-0.073056 J0.045147 F200.000000
G03 X4.278287 Y20.522386 Z-1.000000 I-0.140479 J-0.050568
G01 X4.245403 Y20.514546 Z-1.000000
G01 X4.245507 Y20.468806 Z-1.000000
G01 X4.231311 Y20.414398 Z-1.000000
G02 X4.122861 Y20.400716 Z-1.000000 I-0.071290 J0.128417
G03 X3.991950 Y20.403634 Z-1.000000 I-0.071591 J-0.273765
G01 X3.977406 Y20.369526 Z-1.000000
G03 X4.154275 Y20.271629 Z-1.000000 I0.175591 J0.108515
G03 X4.332507 Y20.371726 Z-1.000000 I-0.001308 J0.211055
G01 X4.332507 Y20.371726 Z-1.000000
G00 Z3.500000
(End cutting path id: path899)
(Start cutting path id: path899)
(Change tool to Cylindrical cutter)
G00 Z3.500000
G00 X3.471327 Y21.015431
G01 Z-1.000000 F100.0(Penetrate)
G02 X3.498754 Y21.079058 Z-1.000000 I0.087516 J-0.000000 F200.000000
G02 X3.567757 Y21.106491 Z-1.000000 I0.069003 J-0.073066
G01 X3.612214 Y21.077508 Z-1.000000
G02 X3.607917 Y21.015431 Z-1.000000 I-0.061126 J-0.026956
G02 X3.544352 Y20.937436 Z-1.000000 I-0.329491 J0.203629
G01 X3.511487 Y20.924371 Z-1.000000
G01 X3.487174 Y20.940222 Z-1.000000
G02 X3.471327 Y21.015431 Z-1.000000 I0.170551 J0.075209
G01 X3.471327 Y21.015431 Z-1.000000
G00 Z3.500000
(End cutting path id: path899)
(Start cutting path id: path899)
(Change tool to Cylindrical cutter)
G00 Z3.500000
G00 X3.471327 Y21.015431
G01 Z-1.000000 F100.0(Penetrate)
G02 X3.498754 Y21.079058 Z-1.000000 I0.087516 J-0.000000 F200.000000
G02 X3.567757 Y21.106491 Z-1.000000 I0.069003 J-0.073066
G01 X3.612214 Y21.077508 Z-1.000000
G02 X3.607917 Y21.015431 Z-1.000000 I-0.061126 J-0.026956
G02 X3.544352 Y20.937436 Z-1.000000 I-0.329491 J0.203629
G01 X3.511487 Y20.924371 Z-1.000000
G01 X3.487174 Y20.940222 Z-1.000000
G02 X3.471327 Y21.015431 Z-1.000000 I0.170551 J0.075209
G01 X3.471327 Y21.015431 Z-1.000000
G00 Z3.500000
(End cutting path id: path899)
(Start cutting path id: path899)
(Change tool to Cylindrical cutter)
G00 Z3.500000
G00 X3.198148 Y21.597561
G01 Z-1.000000 F100.0(Penetrate)
G01 X3.183893 Y21.623544 Z-1.000000 F200.000000
G03 X3.056828 Y21.687581 Z-1.000000 I-0.381410 J-0.598727
G03 X2.982285 Y21.686491 Z-1.000000 I-0.035911 J-0.093577
G01 X2.971138 Y21.651791 Z-1.000000
G03 X3.125498 Y21.540225 Z-1.000000 I0.212361 J0.131250
G03 X3.198144 Y21.597561 Z-1.000000 I0.013696 J0.057337
G01 X3.198148 Y21.597561 Z-1.000000
G00 Z3.500000
(End cutting path id: path899)
(Start cutting path id: path899)
(Change tool to Cylindrical cutter)
G00 Z3.500000
G00 X3.198148 Y21.597561
G01 Z-1.000000 F100.0(Penetrate)
G01 X3.183893 Y21.623544 Z-1.000000 F200.000000
G03 X3.056828 Y21.687581 Z-1.000000 I-0.381410 J-0.598727
G03 X2.982285 Y21.686491 Z-1.000000 I-0.035911 J-0.093577
G01 X2.971138 Y21.651791 Z-1.000000
G03 X3.125498 Y21.540225 Z-1.000000 I0.212361 J0.131250
G03 X3.198144 Y21.597561 Z-1.000000 I0.013696 J0.057337
G01 X3.198148 Y21.597561 Z-1.000000
G00 Z3.500000
(End cutting path id: path899)
(Start cutting path id: path899)
(Change tool to Cylindrical cutter)
G00 Z3.500000
G00 X2.085168 Y22.249902
G01 Z-1.000000 F100.0(Penetrate)
G03 X2.299480 Y22.566826 Z-1.000000 I-0.307293 J0.438723 F200.000000
G03 X2.209644 Y22.782968 Z-1.000000 I-0.195243 J0.045591
G01 X2.175517 Y22.767543 Z-1.000000
G03 X2.177314 Y22.592688 Z-1.000000 I0.485368 J-0.082448
G02 X2.160550 Y22.444791 Z-1.000000 I-0.245954 J-0.047020
G01 X2.104564 Y22.427394 Z-1.000000
G01 X2.059058 Y22.427697 Z-1.000000
G01 X2.051204 Y22.395394 Z-1.000000
G01 X2.040882 Y22.332233 Z-1.000000
G02 X1.924694 Y22.290265 Z-1.000000 I-0.116188 J0.139847
G02 X1.819103 Y22.372746 Z-1.000000 I-0.000000 J0.108828
G02 X1.759965 Y22.950448 Z-1.000000 I1.983491 J0.494923
G01 X1.786715 Y23.610632 Z-1.000000
G01 X2.219877 Y23.604832 Z-1.000000
G03 X2.531951 Y23.635139 Z-1.000000 I0.018948 J1.426784
G01 X2.538586 Y23.671732 Z-1.000000
G03 X2.417020 Y23.720152 Z-1.000000 I-0.189040 J-0.297799
G03 X2.158543 Y23.745792 Z-1.000000 I-0.265802 J-1.363870
G02 X1.936420 Y23.764089 Z-1.000000 I0.007211 J1.444963
G01 X1.930893 Y23.782342 Z-1.000000
G02 X1.975512 Y23.799456 Z-1.000000 I0.043679 J-0.047159
G02 X3.485548 Y23.759582 Z-1.000000 I-0.938111 J-64.139829
G03 X4.941663 Y23.736921 Z-1.000000 I1.229311 J32.197171
G01 X4.959896 Y23.769962 Z-1.000000
G03 X4.899547 Y23.806161 Z-1.000000 I-0.065346 J-0.040537
G03 X3.807423 Y23.845002 Z-1.000000 I-1.204788 J-18.502402
G02 X2.699656 Y23.877381 Z-1.000000 I0.144998 J23.926951
G02 X2.287545 Y23.924672 Z-1.000000 I0.175620 J3.349676
G01 X2.289568 Y23.962695 Z-1.000000
G02 X3.494088 Y24.008982 Z-1.000000 I1.340140 J-19.178713
G02 X5.048179 Y23.970104 Z-1.000000 I0.171853 J-24.211073
G01 X5.087635 Y23.917932 Z-1.000000
G03 X5.105683 Y23.839405 Z-1.000000 I0.091443 J-0.020321
G03 X5.201460 Y23.774410 Z-1.000000 I0.151446 J0.120104
G01 X5.222211 Y23.789838 Z-1.000000
G01 X5.201460 Y23.829930 Z-1.000000
G02 X5.165857 Y23.895009 Z-1.000000 I0.048764 J0.068956
G01 X5.196960 Y23.927920 Z-1.000000
G03 X5.249814 Y23.961626 Z-1.000000 I-0.000628 J0.059277
G01 X5.240120 Y24.018190 Z-1.000000
G03 X5.133994 Y24.066302 Z-1.000000 I-0.117019 J-0.117019
G03 X3.514536 Y24.132015 Z-1.000000 I-2.107423 J-31.947949
G01 X1.877824 Y24.156995 Z-1.000000
G01 X1.849224 Y24.556370 Z-1.000000
G02 X1.866413 Y24.937580 Z-1.000000 I1.636409 J0.117206
G02 X1.930874 Y25.057199 Z-1.000000 I0.205347 J-0.033480
G01 X1.960328 Y25.056319 Z-1.000000
G01 X1.964764 Y25.022059 Z-1.000000
G01 X1.978835 Y24.992932 Z-1.000000
G03 X2.041464 Y25.009609 Z-1.000000 I0.012700 J0.078243
G03 X2.114680 Y25.195847 Z-1.000000 I-0.128011 J0.157836
G03 X2.008124 Y25.245817 Z-1.000000 I-0.069602 J-0.009824
G01 X1.956332 Y25.252571 Z-1.000000
G02 X1.923354 Y25.335387 Z-1.000000 I0.087496 J0.082816
G03 X1.891170 Y25.445170 Z-1.000000 I-0.203330 J0.000000
G03 X1.832294 Y25.477351 Z-1.000000 I-0.058876 J-0.037766
G02 X1.580717 Y25.737554 Z-1.000000 I0.000000 J0.251720
G02 X1.855054 Y26.152712 Z-1.000000 I0.475567 J-0.016035
G03 X1.888884 Y26.205828 Z-1.000000 I-0.024785 J0.053116
G03 X1.855054 Y26.258948 Z-1.000000 I-0.058619 J-0.000000
G02 X1.784506 Y26.339629 Z-1.000000 I0.056141 J0.120274
G02 X1.741229 Y26.623188 Z-1.000000 I0.907325 J0.283559
G01 X1.741229 Y26.934309 Z-1.000000
G01 X7.500764 Y26.956039 Z-1.000000
G01 X13.260300 Y26.977769 Z-1.000000
G01 X7.569059 Y27.025369 Z-1.000000
G01 X1.877819 Y27.072969 Z-1.000000
G01 X7.523529 Y27.094229 Z-1.000000
G01 X13.169240 Y27.115489 Z-1.000000
G01 X13.533479 Y26.895025 Z-1.000000
G02 X13.867214 Y26.654957 Z-1.000000 I-1.343593 J-2.219823
G02 X13.909101 Y26.576783 Z-1.000000 I-0.078061 J-0.092136
G03 X13.920897 Y26.479049 Z-1.000000 I13.946019 J1.633691
G03 X13.931861 Y26.394080 Z-1.000000 I9.048054 J1.124284
G03 X13.969292 Y26.330998 Z-1.000000 I0.093015 J0.012545
G03 X14.126685 Y26.250934 Z-1.000000 I0.321741 J0.437758
G02 X14.245115 Y26.168617 Z-1.000000 I-0.073793 J-0.232519
G02 X14.249205 Y26.094139 Z-1.000000 I-0.051414 J-0.040175
G01 X14.257451 Y26.064735 Z-1.000000
G01 X14.303285 Y26.066639 Z-1.000000
G03 X14.324843 Y26.143891 Z-1.000000 I-0.031098 J0.050312
G03 X14.158000 Y26.350613 Z-1.000000 I-0.577677 J-0.295547
G02 X13.987247 Y26.533108 Z-1.000000 I0.596486 J0.729235
G01 X14.003952 Y26.566789 Z-1.000000
G02 X14.096004 Y26.547481 Z-1.000000 I0.006154 J-0.199753
G02 X14.140542 Y26.501769 Z-1.000000 I-0.039554 J-0.083090
G03 X14.185395 Y26.445818 Z-1.000000 I0.128619 J0.057152
G03 X14.700251 Y26.087244 Z-1.000000 I6.412409 J8.658309
G02 X15.161405 Y25.712109 Z-1.000000 I-1.572090 J-2.403589
G02 X15.199901 Y25.586415 Z-1.000000 I-0.099428 J-0.099194
G02 X15.107372 Y25.507119 Z-1.000000 I-0.096062 J0.018460
G02 X9.389075 Y25.376416 Z-1.000000 I-7.783475 J215.375496
G03 X3.024100 Y25.216321 Z-1.000000 I1.960055 J-204.534048
G03 X2.925004 Y25.113106 Z-1.000000 I0.004204 J-0.103215
G03 X3.014832 Y25.020814 Z-1.000000 I0.092326 J0.000000
G03 X9.653490 Y24.930986 Z-1.000000 I6.638658 J245.267832
G01 X16.381976 Y24.930986 Z-1.000000
G01 X16.824453 Y24.626060 Z-1.000000
G02 X16.974498 Y24.179636 Z-1.000000 I-0.222807 J-0.323314
G02 X16.550471 Y23.796271 Z-1.000000 I-0.549288 J0.181365
G03 X16.330051 Y23.726469 Z-1.000000 I0.283509 J-1.278175
G01 X16.325291 Y23.702371 Z-1.000000
G03 X16.367489 Y23.687829 Z-1.000000 I0.036016 J0.036016
G03 X16.755942 Y23.755071 Z-1.000000 I-0.481231 J3.935713
G02 X17.204301 Y23.642029 Z-1.000000 I0.112354 J-0.500053
G02 X17.385140 Y23.208832 Z-1.000000 I-0.346353 J-0.398930
G02 X17.268754 Y22.889866 Z-1.000000 I-0.602615 J0.039168
G02 X17.084810 Y22.801080 Z-1.000000 I-0.175955 J0.129601
G02 X16.814303 Y22.829759 Z-1.000000 I0.072129 J1.970420
G02 X16.310802 Y22.937669 Z-1.000000 I1.227219 J6.954730
G03 X6.840727 Y24.070110 Z-1.000000 I-9.114637 J-36.058329
G03 X2.492470 Y22.805609 Z-1.000000 I0.080127 J-8.383991
G03 X2.412592 Y22.715949 Z-1.000000 I0.112196 J-0.180366
G03 X2.378645 Y22.564567 Z-1.000000 I0.320557 J-0.151382
G02 X2.255433 Y22.231350 Z-1.000000 I-0.512184 J-0.000000
G02 X1.987640 Y22.108138 Z-1.000000 I-0.267793 J0.229408
G01 X1.972733 Y22.136495 Z-1.000000
G02 X2.085200 Y22.249891 Z-1.000000 I0.370476 J-0.254970
G01 X2.085168 Y22.249902 Z-1.000000
G00 Z3.500000
(End cutting path id: path899)
(Start cutting path id: path899)
(Change tool to Cylindrical cutter)
G00 Z3.500000
G00 X2.085168 Y22.249902
G01 Z-1.000000 F100.0(Penetrate)
G03 X2.299480 Y22.566826 Z-1.000000 I-0.307293 J0.438723 F200.000000
G03 X2.209644 Y22.782968 Z-1.000000 I-0.195243 J0.045591
G01 X2.175517 Y22.767543 Z-1.000000
G03 X2.177314 Y22.592688 Z-1.000000 I0.485368 J-0.082448
G02 X2.160550 Y22.444791 Z-1.000000 I-0.245954 J-0.047020
G01 X2.104564 Y22.427394 Z-1.000000
G01 X2.059058 Y22.427697 Z-1.000000
G01 X2.051204 Y22.395394 Z-1.000000
G01 X2.040882 Y22.332233 Z-1.000000
G02 X1.924694 Y22.290265 Z-1.000000 I-0.116188 J0.139847
G02 X1.819103 Y22.372746 Z-1.000000 I-0.000000 J0.108828
G02 X1.759965 Y22.950448 Z-1.000000 I1.983491 J0.494923
G01 X1.786715 Y23.610632 Z-1.000000
G01 X2.219877 Y23.604832 Z-1.000000
G03 X2.531951 Y23.635139 Z-1.000000 I0.018948 J1.426784
G01 X2.538586 Y23.671732 Z-1.000000
G03 X2.417020 Y23.720152 Z-1.000000 I-0.189040 J-0.297799
G03 X2.158543 Y23.745792 Z-1.000000 I-0.265802 J-1.363870
G02 X1.936420 Y23.764089 Z-1.000000 I0.007211 J1.444963
G01 X1.930893 Y23.782342 Z-1.000000
G02 X1.975512 Y23.799456 Z-1.000000 I0.043679 J-0.047159
G02 X3.485548 Y23.759582 Z-1.000000 I-0.938111 J-64.139829
G03 X4.941663 Y23.736921 Z-1.000000 I1.229311 J32.197171
G01 X4.959896 Y23.769962 Z-1.000000
G03 X4.899547 Y23.806161 Z-1.000000 I-0.065346 J-0.040537
G03 X3.807423 Y23.845002 Z-1.000000 I-1.204788 J-18.502402
G02 X2.699656 Y23.877381 Z-1.000000 I0.144998 J23.926951
G02 X2.287545 Y23.924672 Z-1.000000 I0.175620 J3.349676
G01 X2.289568 Y23.962695 Z-1.000000
G02 X3.494088 Y24.008982 Z-1.000000 I1.340140 J-19.178713
G02 X5.048179 Y23.970104 Z-1.000000 I0.171853 J-24.211073
G01 X5.087635 Y23.917932 Z-1.000000
G03 X5.105683 Y23.839405 Z-1.000000 I0.091443 J-0.020321
G03 X5.201460 Y23.774410 Z-1.000000 I0.151446 J0.120104
G01 X5.222211 Y23.789838 Z-1.000000
G01 X5.201460 Y23.829930 Z-1.000000
G02 X5.165857 Y23.895009 Z-1.000000 I0.048764 J0.068956
G01 X5.196960 Y23.927920 Z-1.000000
G03 X5.249814 Y23.961626 Z-1.000000 I-0.000628 J0.059277
G01 X5.240120 Y24.018190 Z-1.000000
G03 X5.133994 Y24.066302 Z-1.000000 I-0.117019 J-0.117019
G03 X3.514536 Y24.132015 Z-1.000000 I-2.107423 J-31.947949
G01 X1.877824 Y24.156995 Z-1.000000
G01 X1.849224 Y24.556370 Z-1.000000
G02 X1.866413 Y24.937580 Z-1.000000 I1.636409 J0.117206
G02 X1.930874 Y25.057199 Z-1.000000 I0.205347 J-0.033480
G01 X1.960328 Y25.056319 Z-1.000000
G01 X1.964764 Y25.022059 Z-1.000000
G01 X1.978835 Y24.992932 Z-1.000000
G03 X2.041464 Y25.009609 Z-1.000000 I0.012700 J0.078243
G03 X2.114680 Y25.195847 Z-1.000000 I-0.128011 J0.157836
G03 X2.008124 Y25.245817 Z-1.000000 I-0.069602 J-0.009824
G01 X1.956332 Y25.252571 Z-1.000000
G02 X1.923354 Y25.335387 Z-1.000000 I0.087496 J0.082816
G03 X1.891170 Y25.445170 Z-1.000000 I-0.203330 J0.000000
G03 X1.832294 Y25.477351 Z-1.000000 I-0.058876 J-0.037766
G02 X1.580717 Y25.737554 Z-1.000000 I0.000000 J0.251720
G02 X1.855054 Y26.152712 Z-1.000000 I0.475567 J-0.016035
G03 X1.888884 Y26.205828 Z-1.000000 I-0.024785 J0.053116
G03 X1.855054 Y26.258948 Z-1.000000 I-0.058619 J-0.000000
G02 X1.784506 Y26.339629 Z-1.000000 I0.056141 J0.120274
G02 X1.741229 Y26.623188 Z-1.000000 I0.907325 J0.283559
G01 X1.741229 Y26.934309 Z-1.000000
G01 X7.500764 Y26.956039 Z-1.000000
G01 X13.260300 Y26.977769 Z-1.000000
G01 X7.569059 Y27.025369 Z-1.000000
G01 X1.877819 Y27.072969 Z-1.000000
G01 X7.523529 Y27.094229 Z-1.000000
G01 X13.169240 Y27.115489 Z-1.000000
G01 X13.533479 Y26.895025 Z-1.000000
G02 X13.867214 Y26.654957 Z-1.000000 I-1.343593 J-2.219823
G02 X13.909101 Y26.576783 Z-1.000000 I-0.078061 J-0.092136
G03 X13.920897 Y26.479049 Z-1.000000 I13.946019 J1.633691
G03 X13.931861 Y26.394080 Z-1.000000 I9.048054 J1.124284
G03 X13.969292 Y26.330998 Z-1.000000 I0.093015 J0.012545
G03 X14.126685 Y26.250934 Z-1.000000 I0.321741 J0.437758
G02 X14.245115 Y26.168617 Z-1.000000 I-0.073793 J-0.232519
G02 X14.249205 Y26.094139 Z-1.000000 I-0.051414 J-0.040175
G01 X14.257451 Y26.064735 Z-1.000000
G01 X14.303285 Y26.066639 Z-1.000000
G03 X14.324843 Y26.143891 Z-1.000000 I-0.031098 J0.050312
G03 X14.158000 Y26.350613 Z-1.000000 I-0.577677 J-0.295547
G02 X13.987247 Y26.533108 Z-1.000000 I0.596486 J0.729235
G01 X14.003952 Y26.566789 Z-1.000000
G02 X14.096004 Y26.547481 Z-1.000000 I0.006154 J-0.199753
G02 X14.140542 Y26.501769 Z-1.000000 I-0.039554 J-0.083090
G03 X14.185395 Y26.445818 Z-1.000000 I0.128619 J0.057152
G03 X14.700251 Y26.087244 Z-1.000000 I6.412409 J8.658309
G02 X15.161405 Y25.712109 Z-1.000000 I-1.572090 J-2.403589
G02 X15.199901 Y25.586415 Z-1.000000 I-0.099428 J-0.099194
G02 X15.107372 Y25.507119 Z-1.000000 I-0.096062 J0.018460
G02 X9.389075 Y25.376416 Z-1.000000 I-7.783475 J215.375496
G03 X3.024100 Y25.216321 Z-1.000000 I1.960055 J-204.534048
G03 X2.925004 Y25.113106 Z-1.000000 I0.004204 J-0.103215
G03 X3.014832 Y25.020814 Z-1.000000 I0.092326 J0.000000
G03 X9.653490 Y24.930986 Z-1.000000 I6.638658 J245.267832
G01 X16.381976 Y24.930986 Z-1.000000
G01 X16.824453 Y24.626060 Z-1.000000
G02 X16.974498 Y24.179636 Z-1.000000 I-0.222807 J-0.323314
G02 X16.550471 Y23.796271 Z-1.000000 I-0.549288 J0.181365
G03 X16.330051 Y23.726469 Z-1.000000 I0.283509 J-1.278175
G01 X16.325291 Y23.702371 Z-1.000000
G03 X16.367489 Y23.687829 Z-1.000000 I0.036016 J0.036016
G03 X16.755942 Y23.755071 Z-1.000000 I-0.481231 J3.935713
G02 X17.204301 Y23.642029 Z-1.000000 I0.112354 J-0.500053
G02 X17.385140 Y23.208832 Z-1.000000 I-0.346353 J-0.398930
G02 X17.268754 Y22.889866 Z-1.000000 I-0.602615 J0.039168
G02 X17.084810 Y22.801080 Z-1.000000 I-0.175955 J0.129601
G02 X16.814303 Y22.829759 Z-1.000000 I0.072129 J1.970420
G02 X16.310802 Y22.937669 Z-1.000000 I1.227219 J6.954730
G03 X6.840727 Y24.070110 Z-1.000000 I-9.114637 J-36.058329
G03 X2.492470 Y22.805609 Z-1.000000 I0.080127 J-8.383991
G03 X2.412592 Y22.715949 Z-1.000000 I0.112196 J-0.180366
G03 X2.378645 Y22.564567 Z-1.000000 I0.320557 J-0.151382
G02 X2.255433 Y22.231350 Z-1.000000 I-0.512184 J-0.000000
G02 X1.987640 Y22.108138 Z-1.000000 I-0.267793 J0.229408
G01 X1.972733 Y22.136495 Z-1.000000
G02 X2.085200 Y22.249891 Z-1.000000 I0.370476 J-0.254970
G01 X2.085168 Y22.249902 Z-1.000000
G00 Z3.500000
(End cutting path id: path899)
(Start cutting path id: path899)
(Change tool to Cylindrical cutter)
G00 Z3.500000
G00 X2.924968 Y22.962882
G01 Z-1.000000 F100.0(Penetrate)
G01 X2.908820 Y22.984130 Z-1.000000 F200.000000
G03 X2.656598 Y23.037462 Z-1.000000 I-0.551014 J-1.982817
G03 X2.449919 Y23.036278 Z-1.000000 I-0.099461 J-0.677787
G01 X2.434322 Y23.002262 Z-1.000000
G03 X2.755156 Y22.806144 Z-1.000000 I0.354142 J0.218859
G03 X2.924968 Y22.962872 Z-1.000000 I0.012580 J0.156728
G01 X2.924968 Y22.962882 Z-1.000000
G00 Z3.500000
(End cutting path id: path899)
(Start cutting path id: path899)
(Change tool to Cylindrical cutter)
G00 Z3.500000
G00 X2.924968 Y22.962882
G01 Z-1.000000 F100.0(Penetrate)
G01 X2.908820 Y22.984130 Z-1.000000 F200.000000
G03 X2.656598 Y23.037462 Z-1.000000 I-0.551014 J-1.982817
