%
(Header)
(Generated by gcodetools from Inkscape.)
(Using default header. To add your own header create file "header" in the output dir.)
M3
(Header end.)
G21 (All units in mm)

(Start cutting path id: path54257)
(Change tool to Cylindrical cutter)

G00 Z3.500000
G00 X29.540966 Y28.841885

G01 Z-1.000000 F100.0(Penetrate)
G01 X25.928489 Y18.601549 Z-1.000000 F180.000000
G01 X32.521785 Y9.891051 Z-1.000000
G01 X21.429054 Y10.080571 Z-1.000000
G01 X14.980489 Y1.267419 Z-1.000000
G01 X11.737282 Y11.624884 Z-1.000000
G01 X1.158553 Y14.888555 Z-1.000000
G01 X10.246872 Y21.100301 Z-1.000000
G01 X10.157422 Y31.930512 Z-1.000000
G01 X19.017520 Y25.412117 Z-1.000000
G01 X29.540966 Y28.841885 Z-1.000000
G01 X29.540966 Y28.841885 Z-1.000000
G00 Z3.500000

(End cutting path id: path54257)


(Start cutting path id: path54257)
(Change tool to Cylindrical cutter)

G00 Z3.500000
G00 X29.540966 Y28.841885

G01 Z-1.000000 F100.0(Penetrate)
G01 X25.928489 Y18.601549 Z-1.000000 F180.000000
G01 X32.521785 Y9.891051 Z-1.000000
G01 X21.429054 Y10.080571 Z-1.000000
G01 X14.980489 Y1.267419 Z-1.000000
G01 X11.737282 Y11.624884 Z-1.000000
G01 X1.158553 Y14.888555 Z-1.000000
G01 X10.246872 Y21.100301 Z-1.000000
G01 X10.157422 Y31.930512 Z-1.000000
G01 X19.017520 Y25.412117 Z-1.000000
G01 X29.540966 Y28.841885 Z-1.000000
G01 X29.540966 Y28.841885 Z-1.000000
G00 Z3.500000

(End cutting path id: path54257)


(Footer)
M5
G00 X0.0000 Y0.0000
M2
(Using default footer. To add your own footer create file "footer" in the output dir.)
(end)
%