%
(Header)
(Generated by gcodetools from Inkscape.)
(Using default header. To add your own header create file "header" in the output dir.)
M3
(Header end.)
G21 (All units in mm)

(Start cutting path id: path61427)
(Change tool to Cylindrical cutter)

G00 Z1.000000
G00 X39.192895 Y35.699521

G01 Z-1.000000 F100.0(Penetrate)
G01 X40.515809 Y35.699521 Z-1.000000 F500.000000
G02 X41.635910 Y33.691476 Z-1.000000 I-16.923475 J-10.756448
G02 X42.367889 Y31.879607 Z-1.000000 I-13.032720 J-6.318896
G02 X42.837094 Y29.986604 Z-1.000000 I-11.960748 J-3.969275
G02 X42.988005 Y28.167179 Z-1.000000 I-10.892294 J-1.819425
G02 X42.837063 Y26.339390 Z-1.000000 I-11.142048 J0.000000
G02 X42.367889 Y24.438215 Z-1.000000 I-12.530149 J2.083728
G02 X41.634278 Y22.618895 Z-1.000000 I-13.691602 J4.463344
G02 X40.515809 Y20.618301 Z-1.000000 I-17.689952 J8.576949
G01 X39.192895 Y20.618301 Z-1.000000
G03 X40.175847 Y22.561500 Z-1.000000 I-16.281552 J9.456103
G03 X40.830001 Y24.380338 Z-1.000000 I-13.601608 J5.918941
G03 X41.240177 Y26.276524 Z-1.000000 I-13.333605 J3.876731
G03 X41.375703 Y28.167179 Z-1.000000 I-13.119997 J1.890655
G03 X41.239606 Y30.057588 Z-1.000000 I-13.197105 J-0.000000
G03 X40.830001 Y31.937484 Z-1.000000 I-13.459572 J-1.948096
G03 X40.177363 Y33.748749 Z-1.000000 I-14.324054 J-4.138053
G03 X39.192895 Y35.699521 Z-1.000000 I-17.610860 J-7.663626
G01 X39.192895 Y35.699521 Z-1.000000
G00 Z1.000000

(End cutting path id: path61427)


(Start cutting path id: path61427)
(Change tool to Cylindrical cutter)

G00 Z1.000000
G00 X39.192895 Y35.699521

G01 Z-1.000000 F100.0(Penetrate)
G01 X40.515809 Y35.699521 Z-1.000000 F500.000000
G02 X41.635910 Y33.691476 Z-1.000000 I-16.923475 J-10.756448
G02 X42.367889 Y31.879607 Z-1.000000 I-13.032720 J-6.318896
G02 X42.837094 Y29.986604 Z-1.000000 I-11.960748 J-3.969275
G02 X42.988005 Y28.167179 Z-1.000000 I-10.892294 J-1.819425
G02 X42.837063 Y26.339390 Z-1.000000 I-11.142048 J0.000000
G02 X42.367889 Y24.438215 Z-1.000000 I-12.530149 J2.083728
G02 X41.634278 Y22.618895 Z-1.000000 I-13.691602 J4.463344
G02 X40.515809 Y20.618301 Z-1.000000 I-17.689952 J8.576949
G01 X39.192895 Y20.618301 Z-1.000000
G03 X40.175847 Y22.561500 Z-1.000000 I-16.281552 J9.456103
G03 X40.830001 Y24.380338 Z-1.000000 I-13.601608 J5.918941
G03 X41.240177 Y26.276524 Z-1.000000 I-13.333605 J3.876731
G03 X41.375703 Y28.167179 Z-1.000000 I-13.119997 J1.890655
G03 X41.239606 Y30.057588 Z-1.000000 I-13.197105 J-0.000000
G03 X40.830001 Y31.937484 Z-1.000000 I-13.459572 J-1.948096
G03 X40.177363 Y33.748749 Z-1.000000 I-14.324054 J-4.138053
G03 X39.192895 Y35.699521 Z-1.000000 I-17.610860 J-7.663626
G01 X39.192895 Y35.699521 Z-1.000000
G00 Z1.000000

(End cutting path id: path61427)


(Start cutting path id: path61425)
(Change tool to Cylindrical cutter)

G00 Z1.000000
G00 X25.442857 Y30.540156

G01 Z-1.000000 F100.0(Penetrate)
G01 X36.042706 Y30.540156 Z-1.000000 F500.000000
G01 X36.042706 Y29.151097 Z-1.000000
G01 X25.442857 Y29.151097 Z-1.000000
G01 X25.442857 Y30.540156 Z-1.000000
G00 Z1.000000

(End cutting path id: path61425)


(Start cutting path id: path61425)
(Change tool to Cylindrical cutter)

G00 Z1.000000
G00 X25.442857 Y30.540156

G01 Z-1.000000 F100.0(Penetrate)
G01 X36.042706 Y30.540156 Z-1.000000 F500.000000
G01 X36.042706 Y29.151097 Z-1.000000
G01 X25.442857 Y29.151097 Z-1.000000
G01 X25.442857 Y30.540156 Z-1.000000
G00 Z1.000000

(End cutting path id: path61425)


(Start cutting path id: path61425)
(Change tool to Cylindrical cutter)

G00 Z1.000000
G00 X25.442857 Y27.166726

G01 Z-1.000000 F100.0(Penetrate)
G01 X36.042706 Y27.166726 Z-1.000000 F500.000000
G01 X36.042706 Y25.761129 Z-1.000000
G01 X25.442857 Y25.761129 Z-1.000000
G01 X25.442857 Y27.166726 Z-1.000000
G00 Z1.000000

(End cutting path id: path61425)


(Start cutting path id: path61425)
(Change tool to Cylindrical cutter)

G00 Z1.000000
G00 X25.442857 Y27.166726

G01 Z-1.000000 F100.0(Penetrate)
G01 X36.042706 Y27.166726 Z-1.000000 F500.000000
G01 X36.042706 Y25.761129 Z-1.000000
G01 X25.442857 Y25.761129 Z-1.000000
G01 X25.442857 Y27.166726 Z-1.000000
G00 Z1.000000

(End cutting path id: path61425)


(Start cutting path id: path61403)
(Change tool to Cylindrical cutter)

G00 Z1.000000
G00 X41.565872 Y73.377768

G01 Z-1.000000 F100.0(Penetrate)
G03 X40.471276 Y73.121347 Z-1.000000 I0.000000 J-2.464486 F500.000000
G03 X39.631110 Y72.418655 Z-1.000000 I1.038962 J-2.095837
G03 X39.132699 Y71.397089 Z-1.000000 I2.432780 J-1.819294
G03 X38.920044 Y69.805900 Z-1.000000 I5.846698 J-1.591189
G03 X39.129941 Y68.212660 Z-1.000000 I6.151748 J-0.000000
G03 X39.622842 Y67.184876 Z-1.000000 I2.989458 J0.801589
G03 X40.461944 Y66.489659 Z-1.000000 I1.859992 J1.390951
G03 X41.565872 Y66.234032 Z-1.000000 I1.103928 J2.255854
G03 X42.652631 Y66.489595 Z-1.000000 I-0.000000 J2.438453
G03 X43.492366 Y67.193144 Z-1.000000 I-1.046455 J2.101933
G03 X43.991772 Y68.222159 Z-1.000000 I-2.482657 J1.840589
G03 X44.203432 Y69.805900 Z-1.000000 I-5.819330 J1.583741
G03 X43.992213 Y71.381517 Z-1.000000 I-5.982377 J-0.000000
G03 X43.492366 Y72.410387 Z-1.000000 I-2.987951 J-0.815758
G03 X42.651154 Y73.120585 Z-1.000000 I-1.898610 J-1.395561
G03 X41.565872 Y73.377768 Z-1.000000 I-1.085282 J-2.161288
G01 X41.565872 Y73.377768 Z-1.000000
G00 Z1.000000

(End cutting path id: path61403)


(Start cutting path id: path61403)
(Change tool to Cylindrical cutter)

G00 Z1.000000
G00 X41.565872 Y73.377768

G01 Z-1.000000 F100.0(Penetrate)
G03 X40.471276 Y73.121347 Z-1.000000 I0.000000 J-2.464486 F500.000000
G03 X39.631110 Y72.418655 Z-1.000000 I1.038962 J-2.095837
G03 X39.132699 Y71.397089 Z-1.000000 I2.432780 J-1.819294
G03 X38.920044 Y69.805900 Z-1.000000 I5.846698 J-1.591189
G03 X39.129941 Y68.212660 Z-1.000000 I6.151748 J-0.000000
G03 X39.622842 Y67.184876 Z-1.000000 I2.989458 J0.801589
G03 X40.461944 Y66.489659 Z-1.000000 I1.859992 J1.390951
G03 X41.565872 Y66.234032 Z-1.000000 I1.103928 J2.255854
G03 X42.652631 Y66.489595 Z-1.000000 I-0.000000 J2.438453
G03 X43.492366 Y67.193144 Z-1.000000 I-1.046455 J2.101933
G03 X43.991772 Y68.222159 Z-1.000000 I-2.482657 J1.840589
G03 X44.203432 Y69.805900 Z-1.000000 I-5.819330 J1.583741
G03 X43.992213 Y71.381517 Z-1.000000 I-5.982377 J-0.000000
G03 X43.492366 Y72.410387 Z-1.000000 I-2.987951 J-0.815758
G03 X42.651154 Y73.120585 Z-1.000000 I-1.898610 J-1.395561
G03 X41.565872 Y73.377768 Z-1.000000 I-1.085282 J-2.161288
G01 X41.565872 Y73.377768 Z-1.000000
G00 Z1.000000

(End cutting path id: path61403)


(Start cutting path id: path61403)
(Change tool to Cylindrical cutter)

G00 Z1.000000
G00 X41.565872 Y74.667609

G01 Z-1.000000 F100.0(Penetrate)
G02 X43.386465 Y74.305810 Z-1.000000 I-0.000000 J-4.761567 F500.000000
G02 X44.682988 Y73.377768 Z-1.000000 I-1.343326 J-3.246370
G02 X45.482011 Y71.962190 Z-1.000000 I-2.974598 J-2.612305
G02 X45.815733 Y69.805900 Z-1.000000 I-6.799397 J-2.156290
G02 X45.483132 Y67.656854 Z-1.000000 I-7.109156 J0.000000
G02 X44.682988 Y66.234032 Z-1.000000 I-3.818372 J1.210919
G02 X43.386465 Y65.305989 Z-1.000000 I-2.639849 J2.318328
G02 X41.565872 Y64.944190 Z-1.000000 I-1.820593 J4.399764
G02 X39.737324 Y65.306681 Z-1.000000 I0.000000 J4.793202
G02 X38.440487 Y66.234032 Z-1.000000 I1.337484 J3.240825
G02 X37.646521 Y67.655387 Z-1.000000 I3.030874 J2.625471
G02 X37.316010 Y69.805900 Z-1.000000 I6.831041 J2.150513
G02 X37.647636 Y71.963667 Z-1.000000 I7.185707 J0.000000
G02 X38.440487 Y73.377768 Z-1.000000 I3.779860 J-1.189956
G02 X39.737324 Y74.305118 Z-1.000000 I2.634320 J-2.313475
G02 X41.565872 Y74.667609 Z-1.000000 I1.828548 J-4.430714
G01 X41.565872 Y74.667609 Z-1.000000
G00 Z1.000000

(End cutting path id: path61403)


(Start cutting path id: path61403)
(Change tool to Cylindrical cutter)

G00 Z1.000000
G00 X41.565872 Y74.667609

G01 Z-1.000000 F100.0(Penetrate)
G02 X43.386465 Y74.305810 Z-1.000000 I-0.000000 J-4.761567 F500.000000
G02 X44.682988 Y73.377768 Z-1.000000 I-1.343326 J-3.246370
G02 X45.482011 Y71.962190 Z-1.000000 I-2.974598 J-2.612305
G02 X45.815733 Y69.805900 Z-1.000000 I-6.799397 J-2.156290
G02 X45.483132 Y67.656854 Z-1.000000 I-7.109156 J0.000000
G02 X44.682988 Y66.234032 Z-1.000000 I-3.818372 J1.210919
G02 X43.386465 Y65.305989 Z-1.000000 I-2.639849 J2.318328
G02 X41.565872 Y64.944190 Z-1.000000 I-1.820593 J4.399764
G02 X39.737324 Y65.306681 Z-1.000000 I0.000000 J4.793202
G02 X38.440487 Y66.234032 Z-1.000000 I1.337484 J3.240825
G02 X37.646521 Y67.655387 Z-1.000000 I3.030874 J2.625471
G02 X37.316010 Y69.805900 Z-1.000000 I6.831041 J2.150513
G02 X37.647636 Y71.963667 Z-1.000000 I7.185707 J0.000000
G02 X38.440487 Y73.377768 Z-1.000000 I3.779860 J-1.189956
G02 X39.737324 Y74.305118 Z-1.000000 I2.634320 J-2.313475
G02 X41.565872 Y74.667609 Z-1.000000 I1.828548 J-4.430714
G01 X41.565872 Y74.667609 Z-1.000000
G00 Z1.000000

(End cutting path id: path61403)


(Start cutting path id: path61405)
(Change tool to Cylindrical cutter)

G00 Z1.000000
G00 X48.329270 Y78.049308

G01 Z-1.000000 F100.0(Penetrate)
G01 X49.850622 Y78.049308 Z-1.000000 F500.000000
G01 X49.850622 Y65.183969 Z-1.000000
G01 X48.329270 Y65.183969 Z-1.000000
G01 X48.329270 Y78.049308 Z-1.000000
G00 Z1.000000

(End cutting path id: path61405)


(Start cutting path id: path61405)
(Change tool to Cylindrical cutter)

G00 Z1.000000
G00 X48.329270 Y78.049308

G01 Z-1.000000 F100.0(Penetrate)
G01 X49.850622 Y78.049308 Z-1.000000 F500.000000
G01 X49.850622 Y65.183969 Z-1.000000
G01 X48.329270 Y65.183969 Z-1.000000
G01 X48.329270 Y78.049308 Z-1.000000
G00 Z1.000000

(End cutting path id: path61405)


(Start cutting path id: path61407)
(Change tool to Cylindrical cutter)

G00 Z1.000000
G00 X57.234135 Y69.838972

G01 Z-1.000000 F100.0(Penetrate)
G03 X55.430857 Y69.691158 Z-1.000000 I-0.000000 J-11.073581 F500.000000
G03 X54.679257 Y69.417294 Z-1.000000 I0.352487 J-2.135664
G03 X54.177891 Y68.876172 Z-1.000000 I0.661838 J-1.116039
G03 X53.968191 Y67.978625 Z-1.000000 I1.815967 J-0.897547
G03 X54.115103 Y67.233466 Z-1.000000 I1.963236 J-0.000000
G03 X54.497357 Y66.688783 Z-1.000000 I1.394249 J0.571999
G03 X55.086269 Y66.354278 Z-1.000000 I1.105543 J1.260705
G03 X55.952562 Y66.217495 Z-1.000000 I0.866293 J2.674869
G03 X57.105461 Y66.460330 Z-1.000000 I-0.000000 J2.858206
G03 X57.978274 Y67.110462 Z-1.000000 I-0.983745 J2.231644
G03 X58.526426 Y68.093089 Z-1.000000 I-2.181022 J1.860873
G03 X58.747218 Y69.499976 Z-1.000000 I-4.371940 J1.406887
G01 X58.747218 Y69.838972 Z-1.000000
G01 X57.234135 Y69.838972 Z-1.000000
G00 Z1.000000

(End cutting path id: path61407)


(Start cutting path id: path61407)
(Change tool to Cylindrical cutter)

G00 Z1.000000
G00 X57.234135 Y69.838972

G01 Z-1.000000 F100.0(Penetrate)
G03 X55.430857 Y69.691158 Z-1.000000 I-0.000000 J-11.073581 F500.000000
G03 X54.679257 Y69.417294 Z-1.000000 I0.352487 J-2.135664
G03 X54.177891 Y68.876172 Z-1.000000 I0.661838 J-1.116039
G03 X53.968191 Y67.978625 Z-1.000000 I1.815967 J-0.897547
G03 X54.115103 Y67.233466 Z-1.000000 I1.963236 J-0.000000
G03 X54.497357 Y66.688783 Z-1.000000 I1.394249 J0.571999
G03 X55.086269 Y66.354278 Z-1.000000 I1.105543 J1.260705
G03 X55.952562 Y66.217495 Z-1.000000 I0.866293 J2.674869
G03 X57.105461 Y66.460330 Z-1.000000 I-0.000000 J2.858206
G03 X57.978274 Y67.110462 Z-1.000000 I-0.983745 J2.231644
G03 X58.526426 Y68.093089 Z-1.000000 I-2.181022 J1.860873
G03 X58.747218 Y69.499976 Z-1.000000 I-4.371940 J1.406887
G01 X58.747218 Y69.838972 Z-1.000000
G01 X57.234135 Y69.838972 Z-1.000000
G00 Z1.000000

(End cutting path id: path61407)


(Start cutting path id: path61407)
(Change tool to Cylindrical cutter)

G00 Z1.000000
G00 X60.268569 Y70.467357

G01 Z-1.000000 F100.0(Penetrate)
G01 X60.268569 Y65.183969 Z-1.000000 F500.000000
G01 X58.747218 Y65.183969 Z-1.000000
G01 X58.747218 Y66.589565 Z-1.000000
G02 X58.140771 Y65.838221 Z-1.000000 I-3.273931 J2.022131
G02 X57.449109 Y65.341065 Z-1.000000 I-2.075970 J2.158458
G02 X56.644649 Y65.057464 Z-1.000000 I-1.460578 J2.860293
G02 X55.547420 Y64.944190 Z-1.000000 I-1.097229 J5.257548
G02 X54.215165 Y65.170824 Z-1.000000 I-0.000000 J4.029111
G02 X53.281929 Y65.737939 Z-1.000000 I0.869960 J2.483010
G02 X52.680076 Y66.639336 Z-1.000000 I1.744416 J1.816351
G02 X52.446840 Y67.879406 Z-1.000000 I3.179983 J1.240070
G02 X52.745618 Y69.294121 Z-1.000000 I3.498729 J-0.000000
G02 X53.488635 Y70.235847 Z-1.000000 I2.202376 J-0.973682
G02 X54.622212 Y70.780619 Z-1.000000 I1.915498 J-2.534046
G02 X56.614019 Y71.029595 Z-1.000000 I1.991807 J-7.842745
G01 X58.747218 Y71.029595 Z-1.000000
G01 X58.747218 Y71.178423 Z-1.000000
G03 X58.550747 Y72.135616 Z-1.000000 I-2.429921 J-0.000000
G03 X58.052688 Y72.798993 Z-1.000000 I-1.609632 J-0.689842
G03 X57.303044 Y73.204304 Z-1.000000 I-1.349592 J-1.600231
G03 X56.117926 Y73.377768 Z-1.000000 I-1.185118 J-3.961681
G03 X55.330183 Y73.329506 Z-1.000000 I0.000000 J-6.452951
G03 X54.571771 Y73.187599 Z-1.000000 I0.752910 J-6.121476
G03 X53.837547 Y72.951138 Z-1.000000 I1.477601 J-5.846164
G03 X53.124833 Y72.617092 Z-1.000000 I2.303081 J-5.841147
G01 X53.124833 Y74.022688 Z-1.000000
G02 X53.970026 Y74.310398 Z-1.000000 I3.981788 J-10.311826
G02 X54.745403 Y74.502244 Z-1.000000 I2.510497 J-8.483755
G02 X55.535036 Y74.627726 Z-1.000000 I1.651019 J-7.842302
G02 X56.275022 Y74.667609 Z-1.000000 I0.739986 J-6.844840
G02 X58.148790 Y74.351656 Z-1.000000 I-0.000000 J-5.714189
G02 X59.276384 Y73.625814 Z-1.000000 I-0.933199 J-2.688503
G02 X59.962695 Y72.461669 Z-1.000000 I-2.161773 J-2.058830
G02 X60.268569 Y70.467357 Z-1.000000 I-6.348564 J-1.994312
G01 X60.268569 Y70.467357 Z-1.000000
G00 Z1.000000

(End cutting path id: path61407)


(Start cutting path id: path61407)
(Change tool to Cylindrical cutter)

G00 Z1.000000
G00 X60.268569 Y70.467357

G01 Z-1.000000 F100.0(Penetrate)
G01 X60.268569 Y65.183969 Z-1.000000 F500.000000
G01 X58.747218 Y65.183969 Z-1.000000
G01 X58.747218 Y66.589565 Z-1.000000
G02 X58.140771 Y65.838221 Z-1.000000 I-3.273931 J2.022131
G02 X57.449109 Y65.341065 Z-1.000000 I-2.075970 J2.158458
G02 X56.644649 Y65.057464 Z-1.000000 I-1.460578 J2.860293
G02 X55.547420 Y64.944190 Z-1.000000 I-1.097229 J5.257548
G02 X54.215165 Y65.170824 Z-1.000000 I-0.000000 J4.029111
G02 X53.281929 Y65.737939 Z-1.000000 I0.869960 J2.483010
G02 X52.680076 Y66.639336 Z-1.000000 I1.744416 J1.816351
G02 X52.446840 Y67.879406 Z-1.000000 I3.179983 J1.240070
G02 X52.745618 Y69.294121 Z-1.000000 I3.498729 J-0.000000
G02 X53.488635 Y70.235847 Z-1.000000 I2.202376 J-0.973682
G02 X54.622212 Y70.780619 Z-1.000000 I1.915498 J-2.534046
G02 X56.614019 Y71.029595 Z-1.000000 I1.991807 J-7.842745
G01 X58.747218 Y71.029595 Z-1.000000
G01 X58.747218 Y71.178423 Z-1.000000
G03 X58.550747 Y72.135616 Z-1.000000 I-2.429921 J-0.000000
G03 X58.052688 Y72.798993 Z-1.000000 I-1.609632 J-0.689842
G03 X57.303044 Y73.204304 Z-1.000000 I-1.349592 J-1.600231
G03 X56.117926 Y73.377768 Z-1.000000 I-1.185118 J-3.961681
G03 X55.330183 Y73.329506 Z-1.000000 I0.000000 J-6.452951
G03 X54.571771 Y73.187599 Z-1.000000 I0.752910 J-6.121476
G03 X53.837547 Y72.951138 Z-1.000000 I1.477601 J-5.846164
G03 X53.124833 Y72.617092 Z-1.000000 I2.303081 J-5.841147
G01 X53.124833 Y74.022688 Z-1.000000
G02 X53.970026 Y74.310398 Z-1.000000 I3.981788 J-10.311826
G02 X54.745403 Y74.502244 Z-1.000000 I2.510497 J-8.483755
G02 X55.535036 Y74.627726 Z-1.000000 I1.651019 J-7.842302
G02 X56.275022 Y74.667609 Z-1.000000 I0.739986 J-6.844840
G02 X58.148790 Y74.351656 Z-1.000000 I-0.000000 J-5.714189
G02 X59.276384 Y73.625814 Z-1.000000 I-0.933199 J-2.688503
G02 X59.962695 Y72.461669 Z-1.000000 I-2.161773 J-2.058830
G02 X60.268569 Y70.467357 Z-1.000000 I-6.348564 J-1.994312
G01 X60.268569 Y70.467357 Z-1.000000
G00 Z1.000000

(End cutting path id: path61407)


(Start cutting path id: path61409)
(Change tool to Cylindrical cutter)

G00 Z1.000000
G00 X63.799095 Y67.284095

G01 Z-1.000000 F100.0(Penetrate)
G01 X65.543688 Y67.284095 Z-1.000000 F500.000000
G01 X65.543688 Y65.861962 Z-1.000000
G01 X64.187701 Y63.216134 Z-1.000000
G01 X63.121102 Y63.216134 Z-1.000000
G01 X63.799095 Y65.861962 Z-1.000000
G01 X63.799095 Y67.284095 Z-1.000000
G00 Z1.000000

(End cutting path id: path61409)


(Start cutting path id: path61409)
(Change tool to Cylindrical cutter)

G00 Z1.000000
G00 X63.799095 Y67.284095

G01 Z-1.000000 F100.0(Penetrate)
G01 X65.543688 Y67.284095 Z-1.000000 F500.000000
G01 X65.543688 Y65.861962 Z-1.000000
G01 X64.187701 Y63.216134 Z-1.000000
G01 X63.121102 Y63.216134 Z-1.000000
G01 X63.799095 Y65.861962 Z-1.000000
G01 X63.799095 Y67.284095 Z-1.000000
G00 Z1.000000

(End cutting path id: path61409)


(Start cutting path id: path61411)
(Change tool to Cylindrical cutter)

G00 Z1.000000
G00 X78.384223 Y75.883036

G01 Z-1.000000 F100.0(Penetrate)
G01 X76.118732 Y69.739754 Z-1.000000 F500.000000
G01 X80.657981 Y69.739754 Z-1.000000
G01 X78.384223 Y75.883036 Z-1.000000
G00 Z1.000000

(End cutting path id: path61411)


(Start cutting path id: path61411)
(Change tool to Cylindrical cutter)

G00 Z1.000000
G00 X78.384223 Y75.883036

G01 Z-1.000000 F100.0(Penetrate)
G01 X76.118732 Y69.739754 Z-1.000000 F500.000000
G01 X80.657981 Y69.739754 Z-1.000000
G01 X78.384223 Y75.883036 Z-1.000000
G00 Z1.000000

(End cutting path id: path61411)


(Start cutting path id: path61411)
(Change tool to Cylindrical cutter)

G00 Z1.000000
G00 X77.441646 Y77.528410

G01 Z-1.000000 F100.0(Penetrate)
G01 X79.335067 Y77.528410 Z-1.000000 F500.000000
G01 X84.039680 Y65.183969 Z-1.000000
G01 X82.303356 Y65.183969 Z-1.000000
G01 X81.178879 Y68.350694 Z-1.000000
G01 X75.614371 Y68.350694 Z-1.000000
G01 X74.489894 Y65.183969 Z-1.000000
G01 X72.728765 Y65.183969 Z-1.000000
G01 X77.441646 Y77.528410 Z-1.000000
G00 Z1.000000

(End cutting path id: path61411)


(Start cutting path id: path61411)
(Change tool to Cylindrical cutter)

G00 Z1.000000
G00 X77.441646 Y77.528410

G01 Z-1.000000 F100.0(Penetrate)
G01 X79.335067 Y77.528410 Z-1.000000 F500.000000
G01 X84.039680 Y65.183969 Z-1.000000
G01 X82.303356 Y65.183969 Z-1.000000
G01 X81.178879 Y68.350694 Z-1.000000
G01 X75.614371 Y68.350694 Z-1.000000
G01 X74.489894 Y65.183969 Z-1.000000
G01 X72.728765 Y65.183969 Z-1.000000
G01 X77.441646 Y77.528410 Z-1.000000
G00 Z1.000000

(End cutting path id: path61411)


(Start cutting path id: path61413)
(Change tool to Cylindrical cutter)

G00 Z1.000000
G00 X85.709862 Y74.444367

G01 Z-1.000000 F100.0(Penetrate)
G01 X87.239481 Y74.444367 Z-1.000000 F500.000000
G01 X87.239481 Y70.665794 Z-1.000000
G01 X92.175604 Y70.665794 Z-1.000000
G01 X92.175604 Y74.444367 Z-1.000000
G01 X93.705224 Y74.444367 Z-1.000000
G01 X93.705224 Y65.183969 Z-1.000000
G01 X92.175604 Y65.183969 Z-1.000000
G01 X92.175604 Y69.450366 Z-1.000000
G01 X87.239481 Y69.450366 Z-1.000000
G01 X87.239481 Y65.183969 Z-1.000000
G01 X85.709862 Y65.183969 Z-1.000000
G01 X85.709862 Y74.444367 Z-1.000000
G00 Z1.000000

(End cutting path id: path61413)


(Start cutting path id: path61413)
(Change tool to Cylindrical cutter)

G00 Z1.000000
G00 X85.709862 Y74.444367

G01 Z-1.000000 F100.0(Penetrate)
G01 X87.239481 Y74.444367 Z-1.000000 F500.000000
G01 X87.239481 Y70.665794 Z-1.000000
G01 X92.175604 Y70.665794 Z-1.000000
G01 X92.175604 Y74.444367 Z-1.000000
G01 X93.705224 Y74.444367 Z-1.000000
G01 X93.705224 Y65.183969 Z-1.000000
G01 X92.175604 Y65.183969 Z-1.000000
G01 X92.175604 Y69.450366 Z-1.000000
G01 X87.239481 Y69.450366 Z-1.000000
G01 X87.239481 Y65.183969 Z-1.000000
G01 X85.709862 Y65.183969 Z-1.000000
G01 X85.709862 Y74.444367 Z-1.000000
G00 Z1.000000

(End cutting path id: path61413)


(Start cutting path id: path61391)
(Change tool to Cylindrical cutter)

G00 Z1.000000
G00 X85.891762 Y86.350594

G01 Z-1.000000 F100.0(Penetrate)
G01 X85.891762 Y87.615630 Z-1.000000 F500.000000
G03 X87.194714 Y88.111244 Z-1.000000 I-0.506458 J3.291974
G03 X87.859597 Y88.888935 Z-1.000000 I-0.974736 J1.506411
G03 X88.222274 Y90.389424 Z-1.000000 I-5.573461 J2.141214
G03 X88.421835 Y94.097909 Z-1.000000 I-34.358052 J3.708485
G01 X88.421835 Y95.610992 Z-1.000000
G01 X94.680873 Y95.610992 Z-1.000000
G01 X94.680873 Y86.350594 Z-1.000000
G01 X93.159521 Y86.350594 Z-1.000000
G01 X93.159521 Y94.395565 Z-1.000000
G01 X89.943187 Y94.395565 Z-1.000000
G01 X89.943187 Y93.477793 Z-1.000000
G02 X89.697079 Y89.959134 Z-1.000000 I-25.276557 J0.000000
G02 X89.215584 Y88.301892 Z-1.000000 I-5.991861 J0.842307
G02 X88.100823 Y87.063985 Z-1.000000 I-2.510863 J1.140198
G02 X85.891762 Y86.350594 Z-1.000000 I-2.711038 J4.617955
G01 X85.891762 Y86.350594 Z-1.000000
G00 Z1.000000

(End cutting path id: path61391)


(Start cutting path id: path61391)
(Change tool to Cylindrical cutter)

G00 Z1.000000
G00 X85.891762 Y86.350594

G01 Z-1.000000 F100.0(Penetrate)
G01 X85.891762 Y87.615630 Z-1.000000 F500.000000
G03 X87.194714 Y88.111244 Z-1.000000 I-0.506458 J3.291974
G03 X87.859597 Y88.888935 Z-1.000000 I-0.974736 J1.506411
G03 X88.222274 Y90.389424 Z-1.000000 I-5.573461 J2.141214
G03 X88.421835 Y94.097909 Z-1.000000 I-34.358052 J3.708485
G01 X88.421835 Y95.610992 Z-1.000000
G01 X94.680873 Y95.610992 Z-1.000000
G01 X94.680873 Y86.350594 Z-1.000000
G01 X93.159521 Y86.350594 Z-1.000000
G01 X93.159521 Y94.395565 Z-1.000000
G01 X89.943187 Y94.395565 Z-1.000000
G01 X89.943187 Y93.477793 Z-1.000000
G02 X89.697079 Y89.959134 Z-1.000000 I-25.276557 J0.000000
G02 X89.215584 Y88.301892 Z-1.000000 I-5.991861 J0.842307
G02 X88.100823 Y87.063985 Z-1.000000 I-2.510863 J1.140198
G02 X85.891762 Y86.350594 Z-1.000000 I-2.711038 J4.617955
G01 X85.891762 Y86.350594 Z-1.000000
G00 Z1.000000

(End cutting path id: path61391)


(Start cutting path id: path61389)
(Change tool to Cylindrical cutter)

G00 Z1.000000
G00 X83.601465 Y98.695035

G01 Z-1.000000 F100.0(Penetrate)
G01 X83.601465 Y86.350594 Z-1.000000 F500.000000
G01 X81.980895 Y86.350594 Z-1.000000
G01 X81.980895 Y96.677591 Z-1.000000
G01 X76.507338 Y86.350594 Z-1.000000
G01 X74.258384 Y86.350594 Z-1.000000
G01 X74.258384 Y98.695035 Z-1.000000
G01 X75.878954 Y98.695035 Z-1.000000
G01 X75.878954 Y88.368038 Z-1.000000
G01 X81.352511 Y98.695035 Z-1.000000
G01 X83.601465 Y98.695035 Z-1.000000
G00 Z1.000000

(End cutting path id: path61389)


(Start cutting path id: path61389)
(Change tool to Cylindrical cutter)

G00 Z1.000000
G00 X83.601465 Y98.695035

G01 Z-1.000000 F100.0(Penetrate)
G01 X83.601465 Y86.350594 Z-1.000000 F500.000000
G01 X81.980895 Y86.350594 Z-1.000000
G01 X81.980895 Y96.677591 Z-1.000000
G01 X76.507338 Y86.350594 Z-1.000000
G01 X74.258384 Y86.350594 Z-1.000000
G01 X74.258384 Y98.695035 Z-1.000000
G01 X75.878954 Y98.695035 Z-1.000000
G01 X75.878954 Y88.368038 Z-1.000000
G01 X81.352511 Y98.695035 Z-1.000000
G01 X83.601465 Y98.695035 Z-1.000000
G00 Z1.000000

(End cutting path id: path61389)


(Start cutting path id: path61393)
(Change tool to Cylindrical cutter)

G00 Z1.000000
G00 X100.956440 Y91.915101

G01 Z-1.000000 F100.0(Penetrate)
G02 X101.337783 Y93.388930 Z-1.000000 I4.953048 J-0.495317 F500.000000
G02 X102.138800 Y94.660148 Z-1.000000 I4.453399 J-1.918190
G02 X103.327477 Y95.490945 Z-1.000000 I2.299326 J-2.024042
G02 X105.156700 Y95.834234 Z-1.000000 I1.829223 J-4.701880
G02 X106.977292 Y95.472435 Z-1.000000 I-0.000000 J-4.761554
G02 X108.273810 Y94.544393 Z-1.000000 I-1.343320 J-3.246351
G02 X109.072837 Y93.128814 Z-1.000000 I-2.974590 J-2.612310
G02 X109.406560 Y90.972525 Z-1.000000 I-6.799364 J-2.156289
G02 X109.073958 Y88.823480 Z-1.000000 I-7.109125 J-0.000000
G02 X108.273810 Y87.400657 Z-1.000000 I-3.818368 J1.210923
G02 X106.977292 Y86.472614 Z-1.000000 I-2.639840 J2.318309
G02 X105.156700 Y86.110815 Z-1.000000 I-1.820592 J4.399751
G02 X103.325936 Y86.467332 Z-1.000000 I0.000000 J4.878873
G02 X102.072650 Y87.359316 Z-1.000000 I1.245329 J3.076215
G02 X101.281071 Y88.722724 Z-1.000000 I3.176424 J2.755691
G02 X100.915100 Y90.658332 Z-1.000000 I6.195132 J2.173732
G01 X99.195314 Y90.658332 Z-1.000000
G01 X99.195314 Y86.350594 Z-1.000000
G01 X97.673963 Y86.350594 Z-1.000000
G01 X97.673963 Y95.610992 Z-1.000000
G01 X99.195314 Y95.610992 Z-1.000000
G01 X99.195314 Y91.915101 Z-1.000000
G01 X100.956440 Y91.915101 Z-1.000000
G00 Z1.000000

(End cutting path id: path61393)


(Start cutting path id: path61393)
(Change tool to Cylindrical cutter)

G00 Z1.000000
G00 X100.956440 Y91.915101

G01 Z-1.000000 F100.0(Penetrate)
G02 X101.337783 Y93.388930 Z-1.000000 I4.953048 J-0.495317 F500.000000
G02 X102.138800 Y94.660148 Z-1.000000 I4.453399 J-1.918190
G02 X103.327477 Y95.490945 Z-1.000000 I2.299326 J-2.024042
G02 X105.156700 Y95.834234 Z-1.000000 I1.829223 J-4.701880
G02 X106.977292 Y95.472435 Z-1.000000 I-0.000000 J-4.761554
G02 X108.273810 Y94.544393 Z-1.000000 I-1.343320 J-3.246351
G02 X109.072837 Y93.128814 Z-1.000000 I-2.974590 J-2.612310
G02 X109.406560 Y90.972525 Z-1.000000 I-6.799364 J-2.156289
G02 X109.073958 Y88.823480 Z-1.000000 I-7.109125 J-0.000000
G02 X108.273810 Y87.400657 Z-1.000000 I-3.818368 J1.210923
G02 X106.977292 Y86.472614 Z-1.000000 I-2.639840 J2.318309
G02 X105.156700 Y86.110815 Z-1.000000 I-1.820592 J4.399751
G02 X103.325936 Y86.467332 Z-1.000000 I0.000000 J4.878873
G02 X102.072650 Y87.359316 Z-1.000000 I1.245329 J3.076215
G02 X101.281071 Y88.722724 Z-1.000000 I3.176424 J2.755691
G02 X100.915100 Y90.658332 Z-1.000000 I6.195132 J2.173732
G01 X99.195314 Y90.658332 Z-1.000000
G01 X99.195314 Y86.350594 Z-1.000000
G01 X97.673963 Y86.350594 Z-1.000000
G01 X97.673963 Y95.610992 Z-1.000000
G01 X99.195314 Y95.610992 Z-1.000000
G01 X99.195314 Y91.915101 Z-1.000000
G01 X100.956440 Y91.915101 Z-1.000000
G00 Z1.000000

(End cutting path id: path61393)


(Start cutting path id: path61393)
(Change tool to Cylindrical cutter)

G00 Z1.000000
G00 X105.156700 Y94.544393

G01 Z-1.000000 F100.0(Penetrate)
G03 X104.062099 Y94.287972 Z-1.000000 I0.000000 J-2.464504 F500.000000
G03 X103.221930 Y93.585280 Z-1.000000 I1.038964 J-2.095849
G03 X102.723524 Y92.563715 Z-1.000000 I2.432793 J-1.819289
G03 X102.510870 Y90.972525 Z-1.000000 I5.846751 J-1.591190
G03 X102.720768 Y89.379285 Z-1.000000 I6.151731 J0.000000
G03 X103.213670 Y88.351501 Z-1.000000 I2.989455 J0.801591
G03 X104.052767 Y87.656285 Z-1.000000 I1.859975 J1.390926
G03 X105.156700 Y87.400657 Z-1.000000 I1.103933 J2.255864
G03 X106.243453 Y87.656219 Z-1.000000 I0.000000 J2.438435
G03 X107.083190 Y88.359769 Z-1.000000 I-1.046465 J2.101949
G03 X107.582599 Y89.388785 Z-1.000000 I-2.482647 J1.840592
G03 X107.794260 Y90.972525 Z-1.000000 I-5.819295 J1.583740
G03 X107.583040 Y92.548142 Z-1.000000 I-5.982344 J-0.000000
G03 X107.083190 Y93.577012 Z-1.000000 I-2.987945 J-0.815761
G03 X106.241976 Y94.287211 Z-1.000000 I-1.898622 J-1.395576
G03 X105.156700 Y94.544393 Z-1.000000 I-1.085276 J-2.161271
G01 X105.156700 Y94.544393 Z-1.000000
G00 Z1.000000

(End cutting path id: path61393)


(Start cutting path id: path61393)
(Change tool to Cylindrical cutter)

G00 Z1.000000
G00 X105.156700 Y94.544393

G01 Z-1.000000 F100.0(Penetrate)
G03 X104.062099 Y94.287972 Z-1.000000 I0.000000 J-2.464504 F500.000000
G03 X103.221930 Y93.585280 Z-1.000000 I1.038964 J-2.095849
G03 X102.723524 Y92.563715 Z-1.000000 I2.432793 J-1.819289
G03 X102.510870 Y90.972525 Z-1.000000 I5.846751 J-1.591190
G03 X102.720768 Y89.379285 Z-1.000000 I6.151731 J0.000000
G03 X103.213670 Y88.351501 Z-1.000000 I2.989455 J0.801591
G03 X104.052767 Y87.656285 Z-1.000000 I1.859975 J1.390926
G03 X105.156700 Y87.400657 Z-1.000000 I1.103933 J2.255864
G03 X106.243453 Y87.656219 Z-1.000000 I0.000000 J2.438435
G03 X107.083190 Y88.359769 Z-1.000000 I-1.046465 J2.101949
G03 X107.582599 Y89.388785 Z-1.000000 I-2.482647 J1.840592
G03 X107.794260 Y90.972525 Z-1.000000 I-5.819295 J1.583740
G03 X107.583040 Y92.548142 Z-1.000000 I-5.982344 J-0.000000
G03 X107.083190 Y93.577012 Z-1.000000 I-2.987945 J-0.815761
G03 X106.241976 Y94.287211 Z-1.000000 I-1.898622 J-1.395576
G03 X105.156700 Y94.544393 Z-1.000000 I-1.085276 J-2.161271
G01 X105.156700 Y94.544393 Z-1.000000
G00 Z1.000000

(End cutting path id: path61393)


(Start cutting path id: path61395)
(Change tool to Cylindrical cutter)

G00 Z1.000000
G00 X119.626070 Y95.610992

G01 Z-1.000000 F100.0(Penetrate)
G01 X116.277440 Y91.104816 Z-1.000000 F500.000000
G01 X119.799700 Y86.350594 Z-1.000000
G01 X118.005500 Y86.350594 Z-1.000000
G01 X115.310060 Y89.988607 Z-1.000000
G01 X112.614630 Y86.350594 Z-1.000000
G01 X110.820420 Y86.350594 Z-1.000000
G01 X114.417100 Y91.195766 Z-1.000000
G01 X111.126350 Y95.610992 Z-1.000000
G01 X112.920550 Y95.610992 Z-1.000000
G01 X115.376210 Y92.311975 Z-1.000000
G01 X117.831870 Y95.610992 Z-1.000000
G01 X119.626070 Y95.610992 Z-1.000000
G00 Z1.000000

(End cutting path id: path61395)


(Start cutting path id: path61395)
(Change tool to Cylindrical cutter)

G00 Z1.000000
G00 X119.626070 Y95.610992

G01 Z-1.000000 F100.0(Penetrate)
G01 X116.277440 Y91.104816 Z-1.000000 F500.000000
G01 X119.799700 Y86.350594 Z-1.000000
G01 X118.005500 Y86.350594 Z-1.000000
G01 X115.310060 Y89.988607 Z-1.000000
G01 X112.614630 Y86.350594 Z-1.000000
G01 X110.820420 Y86.350594 Z-1.000000
G01 X114.417100 Y91.195766 Z-1.000000
G01 X111.126350 Y95.610992 Z-1.000000
G01 X112.920550 Y95.610992 Z-1.000000
G01 X115.376210 Y92.311975 Z-1.000000
G01 X117.831870 Y95.610992 Z-1.000000
G01 X119.626070 Y95.610992 Z-1.000000
G00 Z1.000000

(End cutting path id: path61395)


(Start cutting path id: path61397)
(Change tool to Cylindrical cutter)

G00 Z1.000000
G00 X126.157960 Y91.005597

G01 Z-1.000000 F100.0(Penetrate)
G03 X124.354683 Y90.857783 Z-1.000000 I0.000000 J-11.073585 F500.000000
G03 X123.603080 Y90.583919 Z-1.000000 I0.352490 J-2.135681
G03 X123.101711 Y90.042796 Z-1.000000 I0.661837 J-1.116044
G03 X122.892010 Y89.145250 Z-1.000000 I1.815955 J-0.897546
G03 X123.038923 Y88.400092 Z-1.000000 I1.963222 J-0.000000
G03 X123.421180 Y87.855408 Z-1.000000 I1.394249 J0.572004
G03 X124.010089 Y87.520903 Z-1.000000 I1.105537 J1.260692
G03 X124.876380 Y87.384120 Z-1.000000 I0.866291 J2.674853
G03 X126.029282 Y87.626955 Z-1.000000 I-0.000000 J2.858225
G03 X126.902100 Y88.277087 Z-1.000000 I-0.983749 J2.231661
G03 X127.450249 Y89.259713 Z-1.000000 I-2.181028 J1.860869
G03 X127.671040 Y90.666601 Z-1.000000 I-4.371965 J1.406888
G01 X127.671040 Y91.005597 Z-1.000000
G01 X126.157960 Y91.005597 Z-1.000000
G00 Z1.000000

(End cutting path id: path61397)


(Start cutting path id: path61397)
(Change tool to Cylindrical cutter)

G00 Z1.000000
G00 X126.157960 Y91.005597

G01 Z-1.000000 F100.0(Penetrate)
G03 X124.354683 Y90.857783 Z-1.000000 I0.000000 J-11.073585 F500.000000
G03 X123.603080 Y90.583919 Z-1.000000 I0.352490 J-2.135681
G03 X123.101711 Y90.042796 Z-1.000000 I0.661837 J-1.116044
G03 X122.892010 Y89.145250 Z-1.000000 I1.815955 J-0.897546
G03 X123.038923 Y88.400092 Z-1.000000 I1.963222 J-0.000000
G03 X123.421180 Y87.855408 Z-1.000000 I1.394249 J0.572004
G03 X124.010089 Y87.520903 Z-1.000000 I1.105537 J1.260692
G03 X124.876380 Y87.384120 Z-1.000000 I0.866291 J2.674853
G03 X126.029282 Y87.626955 Z-1.000000 I-0.000000 J2.858225
G03 X126.902100 Y88.277087 Z-1.000000 I-0.983749 J2.231661
G03 X127.450249 Y89.259713 Z-1.000000 I-2.181028 J1.860869
G03 X127.671040 Y90.666601 Z-1.000000 I-4.371965 J1.406888
G01 X127.671040 Y91.005597 Z-1.000000
G01 X126.157960 Y91.005597 Z-1.000000
G00 Z1.000000

(End cutting path id: path61397)


(Start cutting path id: path61397)
(Change tool to Cylindrical cutter)

G00 Z1.000000
G00 X129.192390 Y91.633982

G01 Z-1.000000 F100.0(Penetrate)
G01 X129.192390 Y86.350594 Z-1.000000 F500.000000
G01 X127.671040 Y86.350594 Z-1.000000
G01 X127.671040 Y87.756190 Z-1.000000
G02 X127.064591 Y87.004845 Z-1.000000 I-3.273960 J2.022161
G02 X126.372930 Y86.507690 Z-1.000000 I-2.075976 J2.158466
G02 X125.568472 Y86.224089 Z-1.000000 I-1.460571 J2.860273
G02 X124.471240 Y86.110815 Z-1.000000 I-1.097232 J5.257564
G02 X123.138988 Y86.337449 Z-1.000000 I-0.000000 J4.029101
G02 X122.205750 Y86.904564 Z-1.000000 I0.869964 J2.483021
G02 X121.603896 Y87.805961 Z-1.000000 I1.744415 J1.816352
G02 X121.370660 Y89.046031 Z-1.000000 I3.179979 J1.240070
G02 X121.669439 Y90.460745 Z-1.000000 I3.498712 J0.000000
G02 X122.412460 Y91.402472 Z-1.000000 I2.202378 J-0.973688
G02 X123.546034 Y91.947244 Z-1.000000 I1.915493 J-2.534031
G02 X125.537840 Y92.196220 Z-1.000000 I1.991806 J-7.842730
G01 X127.671040 Y92.196220 Z-1.000000
G01 X127.671040 Y92.345048 Z-1.000000
G03 X127.474569 Y93.302241 Z-1.000000 I-2.429921 J0.000000
G03 X126.976510 Y93.965618 Z-1.000000 I-1.609632 J-0.689842
G03 X126.226868 Y94.370929 Z-1.000000 I-1.349588 J-1.600222
G03 X125.041750 Y94.544393 Z-1.000000 I-1.185118 J-3.961677
G03 X124.254005 Y94.496131 Z-1.000000 I0.000000 J-6.452988
G03 X123.495590 Y94.354224 Z-1.000000 I0.752913 J-6.121527
G03 X122.761374 Y94.117764 Z-1.000000 I1.477609 J-5.846131
G03 X122.048660 Y93.783717 Z-1.000000 I2.303127 J-5.841231
G01 X122.048660 Y95.189313 Z-1.000000
G02 X122.893853 Y95.477023 Z-1.000000 I3.981816 J-10.311899
G02 X123.669230 Y95.668870 Z-1.000000 I2.510521 J-8.483818
G02 X124.458863 Y95.794351 Z-1.000000 I1.651029 J-7.842397
G02 X125.198840 Y95.834234 Z-1.000000 I0.739977 J-6.844759
G02 X127.072612 Y95.518281 Z-1.000000 I0.000000 J-5.714216
G02 X128.200210 Y94.792439 Z-1.000000 I-0.933202 J-2.688517
G02 X128.886517 Y93.628295 Z-1.000000 I-2.161779 J-2.058826
G02 X129.192390 Y91.633982 Z-1.000000 I-6.348599 J-1.994313
G01 X129.192390 Y91.633982 Z-1.000000
G00 Z1.000000

(End cutting path id: path61397)


(Start cutting path id: path61397)
(Change tool to Cylindrical cutter)

G00 Z1.000000
G00 X129.192390 Y91.633982

G01 Z-1.000000 F100.0(Penetrate)
G01 X129.192390 Y86.350594 Z-1.000000 F500.000000
G01 X127.671040 Y86.350594 Z-1.000000
G01 X127.671040 Y87.756190 Z-1.000000
G02 X127.064591 Y87.004845 Z-1.000000 I-3.273960 J2.022161
G02 X126.372930 Y86.507690 Z-1.000000 I-2.075976 J2.158466
G02 X125.568472 Y86.224089 Z-1.000000 I-1.460571 J2.860273
G02 X124.471240 Y86.110815 Z-1.000000 I-1.097232 J5.257564
G02 X123.138988 Y86.337449 Z-1.000000 I-0.000000 J4.029101
G02 X122.205750 Y86.904564 Z-1.000000 I0.869964 J2.483021
G02 X121.603896 Y87.805961 Z-1.000000 I1.744415 J1.816352
G02 X121.370660 Y89.046031 Z-1.000000 I3.179979 J1.240070
G02 X121.669439 Y90.460745 Z-1.000000 I3.498712 J0.000000
G02 X122.412460 Y91.402472 Z-1.000000 I2.202378 J-0.973688
G02 X123.546034 Y91.947244 Z-1.000000 I1.915493 J-2.534031
G02 X125.537840 Y92.196220 Z-1.000000 I1.991806 J-7.842730
G01 X127.671040 Y92.196220 Z-1.000000
G01 X127.671040 Y92.345048 Z-1.000000
G03 X127.474569 Y93.302241 Z-1.000000 I-2.429921 J0.000000
G03 X126.976510 Y93.965618 Z-1.000000 I-1.609632 J-0.689842
G03 X126.226868 Y94.370929 Z-1.000000 I-1.349588 J-1.600222
G03 X125.041750 Y94.544393 Z-1.000000 I-1.185118 J-3.961677
G03 X124.254005 Y94.496131 Z-1.000000 I0.000000 J-6.452988
G03 X123.495590 Y94.354224 Z-1.000000 I0.752913 J-6.121527
G03 X122.761374 Y94.117764 Z-1.000000 I1.477609 J-5.846131
G03 X122.048660 Y93.783717 Z-1.000000 I2.303127 J-5.841231
G01 X122.048660 Y95.189313 Z-1.000000
G02 X122.893853 Y95.477023 Z-1.000000 I3.981816 J-10.311899
G02 X123.669230 Y95.668870 Z-1.000000 I2.510521 J-8.483818
G02 X124.458863 Y95.794351 Z-1.000000 I1.651029 J-7.842397
G02 X125.198840 Y95.834234 Z-1.000000 I0.739977 J-6.844759
G02 X127.072612 Y95.518281 Z-1.000000 I0.000000 J-5.714216
G02 X128.200210 Y94.792439 Z-1.000000 I-0.933202 J-2.688517
G02 X128.886517 Y93.628295 Z-1.000000 I-2.161779 J-2.058826
G02 X129.192390 Y91.633982 Z-1.000000 I-6.348599 J-1.994313
G01 X129.192390 Y91.633982 Z-1.000000
G00 Z1.000000

(End cutting path id: path61397)


(Start cutting path id: path61399)
(Change tool to Cylindrical cutter)

G00 Z1.000000
G00 X133.293430 Y88.450720

G01 Z-1.000000 F100.0(Penetrate)
G01 X134.971880 Y88.450720 Z-1.000000 F500.000000
G01 X134.971880 Y86.350594 Z-1.000000
G01 X133.293430 Y86.350594 Z-1.000000
G01 X133.293430 Y88.450720 Z-1.000000
G00 Z1.000000

(End cutting path id: path61399)


(Start cutting path id: path61399)
(Change tool to Cylindrical cutter)

G00 Z1.000000
G00 X133.293430 Y88.450720

G01 Z-1.000000 F100.0(Penetrate)
G01 X134.971880 Y88.450720 Z-1.000000 F500.000000
G01 X134.971880 Y86.350594 Z-1.000000
G01 X133.293430 Y86.350594 Z-1.000000
G01 X133.293430 Y88.450720 Z-1.000000
G00 Z1.000000

(End cutting path id: path61399)


(Start cutting path id: path61399)
(Change tool to Cylindrical cutter)

G00 Z1.000000
G00 X133.293430 Y98.695035

G01 Z-1.000000 F100.0(Penetrate)
G01 X134.971880 Y98.695035 Z-1.000000 F500.000000
G01 X134.971880 Y93.279356 Z-1.000000
G01 X134.806510 Y90.327604 Z-1.000000
G01 X133.467060 Y90.327604 Z-1.000000
G01 X133.293430 Y93.279356 Z-1.000000
G01 X133.293430 Y98.695035 Z-1.000000
G00 Z1.000000

(End cutting path id: path61399)


(Start cutting path id: path61399)
(Change tool to Cylindrical cutter)

G00 Z1.000000
G00 X133.293430 Y98.695035

G01 Z-1.000000 F100.0(Penetrate)
G01 X134.971880 Y98.695035 Z-1.000000 F500.000000
G01 X134.971880 Y93.279356 Z-1.000000
G01 X134.806510 Y90.327604 Z-1.000000
G01 X133.467060 Y90.327604 Z-1.000000
G01 X133.293430 Y93.279356 Z-1.000000
G01 X133.293430 Y98.695035 Z-1.000000
G00 Z1.000000

(End cutting path id: path61399)


(Start cutting path id: path61421)
(Change tool to Cylindrical cutter)

G00 Z1.000000
G00 X131.044470 Y78.049308

G01 Z-1.000000 F100.0(Penetrate)
G01 X132.020120 Y78.049308 Z-1.000000 F500.000000
G03 X132.203786 Y77.482668 Z-1.000000 I1.765009 J0.259009
G03 X132.507940 Y77.115000 Z-1.000000 I1.014771 J0.529831
G03 X132.943909 Y76.901062 Z-1.000000 I0.772495 J1.023028
G03 X133.632420 Y76.809076 Z-1.000000 I0.688511 J2.530750
G03 X134.312108 Y76.901190 Z-1.000000 I-0.000000 J2.553685
G03 X134.740360 Y77.115000 Z-1.000000 I-0.331008 J1.198785
G03 X135.046723 Y77.475392 Z-1.000000 I-0.694127 J0.900479
G03 X135.244720 Y78.049308 Z-1.000000 I-1.648166 J0.889716
G01 X136.220370 Y78.049308 Z-1.000000
G02 X135.962091 Y76.951934 Z-1.000000 I-3.500762 J0.244861
G02 X135.484500 Y76.271642 Z-1.000000 I-1.762637 J0.729648
G02 X134.762681 Y75.853516 Z-1.000000 I-1.322708 J1.451308
G02 X133.632420 Y75.676331 Z-1.000000 I-1.130261 J3.516370
G02 X132.502159 Y75.853516 Z-1.000000 I-0.000000 J3.693555
G02 X131.780340 Y76.271642 Z-1.000000 I0.600889 J1.869434
G02 X131.302738 Y76.951938 Z-1.000000 I1.284995 J1.409929
G02 X131.044470 Y78.049308 Z-1.000000 I3.242296 J1.342158
G01 X131.044470 Y78.049308 Z-1.000000
G00 Z1.000000

(End cutting path id: path61421)


(Start cutting path id: path61421)
(Change tool to Cylindrical cutter)

G00 Z1.000000
G00 X131.044470 Y78.049308

G01 Z-1.000000 F100.0(Penetrate)
G01 X132.020120 Y78.049308 Z-1.000000 F500.000000
G03 X132.203786 Y77.482668 Z-1.000000 I1.765009 J0.259009
G03 X132.507940 Y77.115000 Z-1.000000 I1.014771 J0.529831
G03 X132.943909 Y76.901062 Z-1.000000 I0.772495 J1.023028
G03 X133.632420 Y76.809076 Z-1.000000 I0.688511 J2.530750
G03 X134.312108 Y76.901190 Z-1.000000 I-0.000000 J2.553685
G03 X134.740360 Y77.115000 Z-1.000000 I-0.331008 J1.198785
G03 X135.046723 Y77.475392 Z-1.000000 I-0.694127 J0.900479
G03 X135.244720 Y78.049308 Z-1.000000 I-1.648166 J0.889716
G01 X136.220370 Y78.049308 Z-1.000000
G02 X135.962091 Y76.951934 Z-1.000000 I-3.500762 J0.244861
G02 X135.484500 Y76.271642 Z-1.000000 I-1.762637 J0.729648
G02 X134.762681 Y75.853516 Z-1.000000 I-1.322708 J1.451308
G02 X133.632420 Y75.676331 Z-1.000000 I-1.130261 J3.516370
G02 X132.502159 Y75.853516 Z-1.000000 I-0.000000 J3.693555
G02 X131.780340 Y76.271642 Z-1.000000 I0.600889 J1.869434
G02 X131.302738 Y76.951938 Z-1.000000 I1.284995 J1.409929
G02 X131.044470 Y78.049308 Z-1.000000 I3.242296 J1.342158
G01 X131.044470 Y78.049308 Z-1.000000
G00 Z1.000000

(End cutting path id: path61421)


(Start cutting path id: path61421)
(Change tool to Cylindrical cutter)

G00 Z1.000000
G00 X137.592890 Y74.444367

G01 Z-1.000000 F100.0(Penetrate)
G01 X137.592890 Y65.183969 Z-1.000000 F500.000000
G01 X136.079810 Y65.183969 Z-1.000000
G01 X136.079810 Y72.617092 Z-1.000000
G01 X131.614980 Y65.183969 Z-1.000000
G01 X129.663680 Y65.183969 Z-1.000000
G01 X129.663680 Y74.444367 Z-1.000000
G01 X131.176760 Y74.444367 Z-1.000000
G01 X131.176760 Y67.027780 Z-1.000000
G01 X135.633330 Y74.444367 Z-1.000000
G01 X137.592890 Y74.444367 Z-1.000000
G00 Z1.000000

(End cutting path id: path61421)


(Start cutting path id: path61421)
(Change tool to Cylindrical cutter)

G00 Z1.000000
G00 X137.592890 Y74.444367

G01 Z-1.000000 F100.0(Penetrate)
G01 X137.592890 Y65.183969 Z-1.000000 F500.000000
G01 X136.079810 Y65.183969 Z-1.000000
G01 X136.079810 Y72.617092 Z-1.000000
G01 X131.614980 Y65.183969 Z-1.000000
G01 X129.663680 Y65.183969 Z-1.000000
G01 X129.663680 Y74.444367 Z-1.000000
G01 X131.176760 Y74.444367 Z-1.000000
G01 X131.176760 Y67.027780 Z-1.000000
G01 X135.633330 Y74.444367 Z-1.000000
G01 X137.592890 Y74.444367 Z-1.000000
G00 Z1.000000

(End cutting path id: path61421)


(Start cutting path id: path61423)
(Change tool to Cylindrical cutter)

G00 Z1.000000
G00 X141.693930 Y77.528410

G01 Z-1.000000 F100.0(Penetrate)
G01 X143.372370 Y77.528410 Z-1.000000 F500.000000
G01 X143.372370 Y72.112731 Z-1.000000
G01 X143.207010 Y69.160979 Z-1.000000
G01 X141.867560 Y69.160979 Z-1.000000
G01 X141.693930 Y72.112731 Z-1.000000
G01 X141.693930 Y77.528410 Z-1.000000
G00 Z1.000000

(End cutting path id: path61423)


(Start cutting path id: path61423)
(Change tool to Cylindrical cutter)

G00 Z1.000000
G00 X141.693930 Y77.528410

G01 Z-1.000000 F100.0(Penetrate)
G01 X143.372370 Y77.528410 Z-1.000000 F500.000000
G01 X143.372370 Y72.112731 Z-1.000000
G01 X143.207010 Y69.160979 Z-1.000000
G01 X141.867560 Y69.160979 Z-1.000000
G01 X141.693930 Y72.112731 Z-1.000000
G01 X141.693930 Y77.528410 Z-1.000000
G00 Z1.000000

(End cutting path id: path61423)


(Start cutting path id: path61423)
(Change tool to Cylindrical cutter)

G00 Z1.000000
G00 X141.693930 Y67.284095

G01 Z-1.000000 F100.0(Penetrate)
G01 X143.372370 Y67.284095 Z-1.000000 F500.000000
G01 X143.372370 Y65.183969 Z-1.000000
G01 X141.693930 Y65.183969 Z-1.000000
G01 X141.693930 Y67.284095 Z-1.000000
G00 Z1.000000

(End cutting path id: path61423)


(Start cutting path id: path61423)
(Change tool to Cylindrical cutter)

G00 Z1.000000
G00 X141.693930 Y67.284095

G01 Z-1.000000 F100.0(Penetrate)
G01 X143.372370 Y67.284095 Z-1.000000 F500.000000
G01 X143.372370 Y65.183969 Z-1.000000
G01 X141.693930 Y65.183969 Z-1.000000
G01 X141.693930 Y67.284095 Z-1.000000
G00 Z1.000000

(End cutting path id: path61423)


(Start cutting path id: path61419)
(Change tool to Cylindrical cutter)

G00 Z1.000000
G00 X127.224560 Y70.194506

G01 Z-1.000000 F100.0(Penetrate)
G01 X127.224560 Y69.450366 Z-1.000000 F500.000000
G01 X120.229650 Y69.450366 Z-1.000000
G03 X120.555872 Y67.983299 Z-1.000000 I4.834919 J0.305306
G03 X121.172220 Y67.052585 Z-1.000000 I2.487419 J0.977807
G03 X122.119817 Y66.472364 Z-1.000000 I1.794838 J1.867366
G03 X123.536930 Y66.234032 Z-1.000000 I1.417113 J4.093884
G03 X124.406270 Y66.288941 Z-1.000000 I-0.000000 J6.909363
G03 X125.231920 Y66.449005 Z-1.000000 I-0.810394 J6.389684
G03 X126.039993 Y66.712155 Z-1.000000 I-1.769842 J6.807061
G03 X126.869020 Y67.093926 Z-1.000000 I-2.973420 J7.547879
G01 X126.869020 Y65.655257 Z-1.000000
G02 X126.037673 Y65.348661 Z-1.000000 I-3.612887 J8.516056
G02 X125.190580 Y65.126091 Z-1.000000 I-2.717649 J8.620001
G02 X124.325894 Y64.989938 Z-1.000000 I-1.733127 J8.193004
G02 X123.445980 Y64.944190 Z-1.000000 I-0.879914 J8.439197
G02 X121.381406 Y65.311131 Z-1.000000 I0.000000 J5.991578
G02 X119.931990 Y66.234032 Z-1.000000 I1.386310 J3.776804
G02 X119.008500 Y67.675620 Z-1.000000 I2.828628 J2.828626
G02 X118.642150 Y69.723217 Z-1.000000 I5.539016 J2.047597
G02 X118.994848 Y71.859497 Z-1.000000 I6.646039 J0.000000
G02 X119.865850 Y73.328158 Z-1.000000 I3.913950 J-1.328593
G02 X121.261584 Y74.294465 Z-1.000000 I2.842185 J-2.614099
G02 X123.181400 Y74.667609 Z-1.000000 I1.919816 J-4.752130
G02 X124.899311 Y74.329902 Z-1.000000 I-0.000000 J-4.538349
G02 X126.133150 Y73.460450 Z-1.000000 I-1.276865 J-3.122195
G02 X126.908230 Y72.139138 Z-1.000000 I-2.742811 J-2.496917
G02 X127.224560 Y70.194506 Z-1.000000 I-5.819134 J-1.944632
G01 X127.224560 Y70.194506 Z-1.000000
G00 Z1.000000

(End cutting path id: path61419)


(Start cutting path id: path61419)
(Change tool to Cylindrical cutter)

G00 Z1.000000
G00 X127.224560 Y70.194506

G01 Z-1.000000 F100.0(Penetrate)
G01 X127.224560 Y69.450366 Z-1.000000 F500.000000
G01 X120.229650 Y69.450366 Z-1.000000
G03 X120.555872 Y67.983299 Z-1.000000 I4.834919 J0.305306
G03 X121.172220 Y67.052585 Z-1.000000 I2.487419 J0.977807
G03 X122.119817 Y66.472364 Z-1.000000 I1.794838 J1.867366
G03 X123.536930 Y66.234032 Z-1.000000 I1.417113 J4.093884
G03 X124.406270 Y66.288941 Z-1.000000 I-0.000000 J6.909363
G03 X125.231920 Y66.449005 Z-1.000000 I-0.810394 J6.389684
G03 X126.039993 Y66.712155 Z-1.000000 I-1.769842 J6.807061
G03 X126.869020 Y67.093926 Z-1.000000 I-2.973420 J7.547879
G01 X126.869020 Y65.655257 Z-1.000000
G02 X126.037673 Y65.348661 Z-1.000000 I-3.612887 J8.516056
G02 X125.190580 Y65.126091 Z-1.000000 I-2.717649 J8.620001
G02 X124.325894 Y64.989938 Z-1.000000 I-1.733127 J8.193004
G02 X123.445980 Y64.944190 Z-1.000000 I-0.879914 J8.439197
G02 X121.381406 Y65.311131 Z-1.000000 I0.000000 J5.991578
G02 X119.931990 Y66.234032 Z-1.000000 I1.386310 J3.776804
G02 X119.008500 Y67.675620 Z-1.000000 I2.828628 J2.828626
G02 X118.642150 Y69.723217 Z-1.000000 I5.539016 J2.047597
G02 X118.994848 Y71.859497 Z-1.000000 I6.646039 J0.000000
G02 X119.865850 Y73.328158 Z-1.000000 I3.913950 J-1.328593
G02 X121.261584 Y74.294465 Z-1.000000 I2.842185 J-2.614099
G02 X123.181400 Y74.667609 Z-1.000000 I1.919816 J-4.752130
G02 X124.899311 Y74.329902 Z-1.000000 I-0.000000 J-4.538349
G02 X126.133150 Y73.460450 Z-1.000000 I-1.276865 J-3.122195
G02 X126.908230 Y72.139138 Z-1.000000 I-2.742811 J-2.496917
G02 X127.224560 Y70.194506 Z-1.000000 I-5.819134 J-1.944632
G01 X127.224560 Y70.194506 Z-1.000000
G00 Z1.000000

(End cutting path id: path61419)


(Start cutting path id: path61419)
(Change tool to Cylindrical cutter)

G00 Z1.000000
G00 X125.703210 Y70.640989

G01 Z-1.000000 F100.0(Penetrate)
G03 X125.494610 Y71.812962 Z-1.000000 I-3.668958 J-0.048488 F500.000000
G03 X125.000410 Y72.633628 Z-1.000000 I-2.241060 J-0.790418
G03 X124.231847 Y73.172739 Z-1.000000 I-1.588735 J-1.447527
G03 X123.197940 Y73.377768 Z-1.000000 I-1.033907 J-2.504350
G03 X122.005146 Y73.173841 Z-1.000000 I0.000000 J-3.590365
G03 X121.155690 Y72.658433 Z-1.000000 I0.804150 J-2.283046
G03 X120.586977 Y71.846166 Z-1.000000 I1.693793 J-1.791146
G03 X120.279260 Y70.632721 Z-1.000000 I3.606202 J-1.560233
G01 X125.703210 Y70.640989 Z-1.000000
G00 Z1.000000

(End cutting path id: path61419)


(Start cutting path id: path61419)
(Change tool to Cylindrical cutter)

G00 Z1.000000
G00 X125.703210 Y70.640989

G01 Z-1.000000 F100.0(Penetrate)
G03 X125.494610 Y71.812962 Z-1.000000 I-3.668958 J-0.048488 F500.000000
G03 X125.000410 Y72.633628 Z-1.000000 I-2.241060 J-0.790418
G03 X124.231847 Y73.172739 Z-1.000000 I-1.588735 J-1.447527
G03 X123.197940 Y73.377768 Z-1.000000 I-1.033907 J-2.504350
G03 X122.005146 Y73.173841 Z-1.000000 I0.000000 J-3.590365
G03 X121.155690 Y72.658433 Z-1.000000 I0.804150 J-2.283046
G03 X120.586977 Y71.846166 Z-1.000000 I1.693793 J-1.791146
G03 X120.279260 Y70.632721 Z-1.000000 I3.606202 J-1.560233
G01 X125.703210 Y70.640989 Z-1.000000
G00 Z1.000000

(End cutting path id: path61419)


(Start cutting path id: path61417)
(Change tool to Cylindrical cutter)

G00 Z1.000000
G00 X115.202570 Y69.805900

G01 Z-1.000000 F100.0(Penetrate)
G03 X114.993485 Y71.416117 Z-1.000000 I-6.304904 J0.000000 F500.000000
G03 X114.508040 Y72.435191 Z-1.000000 I-2.945972 J-0.778182
G03 X113.689770 Y73.137527 Z-1.000000 I-1.841469 J-1.317600
G03 X112.614620 Y73.394304 Z-1.000000 I-1.075150 J-2.122493
G03 X111.538195 Y73.138221 Z-1.000000 I0.000000 J-2.390374
G03 X110.712930 Y72.435191 Z-1.000000 I1.033381 J-2.048946
G03 X110.233523 Y71.417497 Z-1.000000 I2.480449 J-1.790234
G03 X110.026670 Y69.805900 Z-1.000000 I6.174564 J-1.611597
G03 X110.232978 Y68.193659 Z-1.000000 I6.402767 J-0.000000
G03 X110.712930 Y67.168340 Z-1.000000 I3.006032 J0.782132
G03 X111.536707 Y66.471956 Z-1.000000 I1.846252 J1.348566
G03 X112.614620 Y66.217495 Z-1.000000 I1.077913 J2.155826
G03 X113.691266 Y66.472649 Z-1.000000 I0.000000 J2.399081
G03 X114.508040 Y67.168340 Z-1.000000 I-1.012305 J2.015805
G03 X114.994035 Y68.195028 Z-1.000000 I-2.505690 J1.814467
G03 X115.202570 Y69.805900 Z-1.000000 I-6.117478 J1.610872
G01 X115.202570 Y69.805900 Z-1.000000
G00 Z1.000000

(End cutting path id: path61417)


(Start cutting path id: path61417)
(Change tool to Cylindrical cutter)

G00 Z1.000000
G00 X115.202570 Y69.805900

G01 Z-1.000000 F100.0(Penetrate)
G03 X114.993485 Y71.416117 Z-1.000000 I-6.304904 J0.000000 F500.000000
G03 X114.508040 Y72.435191 Z-1.000000 I-2.945972 J-0.778182
G03 X113.689770 Y73.137527 Z-1.000000 I-1.841469 J-1.317600
G03 X112.614620 Y73.394304 Z-1.000000 I-1.075150 J-2.122493
G03 X111.538195 Y73.138221 Z-1.000000 I0.000000 J-2.390374
G03 X110.712930 Y72.435191 Z-1.000000 I1.033381 J-2.048946
G03 X110.233523 Y71.417497 Z-1.000000 I2.480449 J-1.790234
G03 X110.026670 Y69.805900 Z-1.000000 I6.174564 J-1.611597
G03 X110.232978 Y68.193659 Z-1.000000 I6.402767 J-0.000000
G03 X110.712930 Y67.168340 Z-1.000000 I3.006032 J0.782132
G03 X111.536707 Y66.471956 Z-1.000000 I1.846252 J1.348566
G03 X112.614620 Y66.217495 Z-1.000000 I1.077913 J2.155826
G03 X113.691266 Y66.472649 Z-1.000000 I0.000000 J2.399081
G03 X114.508040 Y67.168340 Z-1.000000 I-1.012305 J2.015805
G03 X114.994035 Y68.195028 Z-1.000000 I-2.505690 J1.814467
G03 X115.202570 Y69.805900 Z-1.000000 I-6.117478 J1.610872
G01 X115.202570 Y69.805900 Z-1.000000
G00 Z1.000000

(End cutting path id: path61417)


(Start cutting path id: path61417)
(Change tool to Cylindrical cutter)

G00 Z1.000000
G00 X110.026670 Y66.573028

G01 Z-1.000000 F100.0(Penetrate)
G01 X110.026670 Y61.661710 Z-1.000000 F500.000000
G01 X108.497050 Y61.661710 Z-1.000000
G01 X108.497050 Y74.444367 Z-1.000000
G01 X110.026670 Y74.444367 Z-1.000000
G01 X110.026670 Y73.038771 Z-1.000000
G02 X110.591287 Y73.778273 Z-1.000000 I3.189531 J-1.849942
G02 X111.233830 Y74.262466 Z-1.000000 I1.962808 J-1.936286
G02 X111.998673 Y74.554913 Z-1.000000 I1.434768 J-2.606001
G02 X112.986690 Y74.667609 Z-1.000000 I0.988017 J-4.274678
G02 X114.502548 Y74.316554 Z-1.000000 I0.000000 J-3.448271
G02 X115.723470 Y73.328158 Z-1.000000 I-1.544981 J-3.156720
G02 X116.476539 Y71.882665 Z-1.000000 I-3.414184 J-2.697625
G02 X116.781800 Y69.805900 Z-1.000000 I-6.911739 J-2.076765
G02 X116.476539 Y67.729135 Z-1.000000 I-7.217005 J0.000000
G02 X115.723470 Y66.283641 Z-1.000000 I-4.167252 J1.252131
G02 X114.502548 Y65.295245 Z-1.000000 I-2.765903 J2.168324
G02 X112.986690 Y64.944190 Z-1.000000 I-1.515858 J3.097216
G02 X111.997616 Y65.054762 Z-1.000000 I0.000000 J4.478968
G02 X111.233830 Y65.341065 Z-1.000000 I0.664386 J2.934365
G02 X110.590503 Y65.831970 Z-1.000000 I1.374039 J2.467656
G02 X110.026670 Y66.573028 Z-1.000000 I2.671128 J2.617350
G01 X110.026670 Y66.573028 Z-1.000000
G00 Z1.000000

(End cutting path id: path61417)


(Start cutting path id: path61417)
(Change tool to Cylindrical cutter)

G00 Z1.000000
G00 X110.026670 Y66.573028

G01 Z-1.000000 F100.0(Penetrate)
G01 X110.026670 Y61.661710 Z-1.000000 F500.000000
G01 X108.497050 Y61.661710 Z-1.000000
G01 X108.497050 Y74.444367 Z-1.000000
G01 X110.026670 Y74.444367 Z-1.000000
G01 X110.026670 Y73.038771 Z-1.000000
G02 X110.591287 Y73.778273 Z-1.000000 I3.189531 J-1.849942
G02 X111.233830 Y74.262466 Z-1.000000 I1.962808 J-1.936286
G02 X111.998673 Y74.554913 Z-1.000000 I1.434768 J-2.606001
G02 X112.986690 Y74.667609 Z-1.000000 I0.988017 J-4.274678
G02 X114.502548 Y74.316554 Z-1.000000 I0.000000 J-3.448271
G02 X115.723470 Y73.328158 Z-1.000000 I-1.544981 J-3.156720
G02 X116.476539 Y71.882665 Z-1.000000 I-3.414184 J-2.697625
G02 X116.781800 Y69.805900 Z-1.000000 I-6.911739 J-2.076765
G02 X116.476539 Y67.729135 Z-1.000000 I-7.217005 J0.000000
G02 X115.723470 Y66.283641 Z-1.000000 I-4.167252 J1.252131
G02 X114.502548 Y65.295245 Z-1.000000 I-2.765903 J2.168324
G02 X112.986690 Y64.944190 Z-1.000000 I-1.515858 J3.097216
G02 X111.997616 Y65.054762 Z-1.000000 I0.000000 J4.478968
G02 X111.233830 Y65.341065 Z-1.000000 I0.664386 J2.934365
G02 X110.590503 Y65.831970 Z-1.000000 I1.374039 J2.467656
G02 X110.026670 Y66.573028 Z-1.000000 I2.671128 J2.617350
G01 X110.026670 Y66.573028 Z-1.000000
G00 Z1.000000

(End cutting path id: path61417)


(Start cutting path id: path61415)
(Change tool to Cylindrical cutter)

G00 Z1.000000
G00 X98.914195 Y66.399396

G01 Z-1.000000 F100.0(Penetrate)
G01 X103.329420 Y66.399396 Z-1.000000 F500.000000
G01 X103.329420 Y73.228940 Z-1.000000
G01 X100.129620 Y73.228940 Z-1.000000
G01 X100.129620 Y72.071390 Z-1.000000
G02 X99.821498 Y68.742302 Z-1.000000 I-18.138550 J0.000000
G02 X99.153974 Y66.845879 Z-1.000000 I-6.447688 J1.203837
G01 X98.914195 Y66.399396 Z-1.000000
G00 Z1.000000

(End cutting path id: path61415)


(Start cutting path id: path61415)
(Change tool to Cylindrical cutter)

G00 Z1.000000
G00 X98.914195 Y66.399396

G01 Z-1.000000 F100.0(Penetrate)
G01 X103.329420 Y66.399396 Z-1.000000 F500.000000
G01 X103.329420 Y73.228940 Z-1.000000
G01 X100.129620 Y73.228940 Z-1.000000
G01 X100.129620 Y72.071390 Z-1.000000
G02 X99.821498 Y68.742302 Z-1.000000 I-18.138550 J0.000000
G02 X99.153974 Y66.845879 Z-1.000000 I-6.447688 J1.203837
G01 X98.914195 Y66.399396 Z-1.000000
G00 Z1.000000

(End cutting path id: path61415)


(Start cutting path id: path61415)
(Change tool to Cylindrical cutter)

G00 Z1.000000
G00 X96.706583 Y66.399396

G01 Z-1.000000 F100.0(Penetrate)
G03 X97.358014 Y66.833729 Z-1.000000 I-0.910375 J2.071106 F500.000000
G03 X97.789718 Y67.432922 Z-1.000000 I-1.389557 J1.456255
G03 X98.335337 Y69.235979 Z-1.000000 I-6.080318 J2.824034
G03 X98.600003 Y72.691506 Z-1.000000 I-22.425666 J3.455527
G01 X98.600003 Y74.444367 Z-1.000000
G01 X104.859040 Y74.444367 Z-1.000000
G01 X104.859040 Y66.399396 Z-1.000000
G01 X106.074470 Y66.399396 Z-1.000000
G01 X106.074470 Y62.844064 Z-1.000000
G01 X104.859040 Y62.844064 Z-1.000000
G01 X104.859040 Y65.183969 Z-1.000000
G01 X97.351503 Y65.183969 Z-1.000000
G01 X97.351503 Y62.844064 Z-1.000000
G01 X96.136076 Y62.844064 Z-1.000000
G01 X96.136076 Y66.399396 Z-1.000000
G01 X96.706583 Y66.399396 Z-1.000000
G00 Z1.000000

(End cutting path id: path61415)


(Start cutting path id: path61415)
(Change tool to Cylindrical cutter)

G00 Z1.000000
G00 X96.706583 Y66.399396

G01 Z-1.000000 F100.0(Penetrate)
G03 X97.358014 Y66.833729 Z-1.000000 I-0.910375 J2.071106 F500.000000
G03 X97.789718 Y67.432922 Z-1.000000 I-1.389557 J1.456255
G03 X98.335337 Y69.235979 Z-1.000000 I-6.080318 J2.824034
G03 X98.600003 Y72.691506 Z-1.000000 I-22.425666 J3.455527
G01 X98.600003 Y74.444367 Z-1.000000
G01 X104.859040 Y74.444367 Z-1.000000
G01 X104.859040 Y66.399396 Z-1.000000
G01 X106.074470 Y66.399396 Z-1.000000
G01 X106.074470 Y62.844064 Z-1.000000
G01 X104.859040 Y62.844064 Z-1.000000
G01 X104.859040 Y65.183969 Z-1.000000
G01 X97.351503 Y65.183969 Z-1.000000
G01 X97.351503 Y62.844064 Z-1.000000
G01 X96.136076 Y62.844064 Z-1.000000
G01 X96.136076 Y66.399396 Z-1.000000
G01 X96.706583 Y66.399396 Z-1.000000
G00 Z1.000000

(End cutting path id: path61415)


(Start cutting path id: path61387)
(Change tool to Cylindrical cutter)

G00 Z1.000000
G00 X63.799095 Y88.450720

G01 Z-1.000000 F100.0(Penetrate)
G01 X65.543688 Y88.450720 Z-1.000000 F500.000000
G01 X65.543688 Y87.028587 Z-1.000000
G01 X64.187701 Y84.382759 Z-1.000000
G01 X63.121102 Y84.382759 Z-1.000000
G01 X63.799095 Y87.028587 Z-1.000000
G01 X63.799095 Y88.450720 Z-1.000000
G00 Z1.000000

(End cutting path id: path61387)


(Start cutting path id: path61387)
(Change tool to Cylindrical cutter)

G00 Z1.000000
G00 X63.799095 Y88.450720

G01 Z-1.000000 F100.0(Penetrate)
G01 X65.543688 Y88.450720 Z-1.000000 F500.000000
G01 X65.543688 Y87.028587 Z-1.000000
G01 X64.187701 Y84.382759 Z-1.000000
G01 X63.121102 Y84.382759 Z-1.000000
G01 X63.799095 Y87.028587 Z-1.000000
G01 X63.799095 Y88.450720 Z-1.000000
G00 Z1.000000

(End cutting path id: path61387)


(Start cutting path id: path61385)
(Change tool to Cylindrical cutter)

G00 Z1.000000
G00 X60.268569 Y91.633982

G01 Z-1.000000 F100.0(Penetrate)
G01 X60.268569 Y86.350594 Z-1.000000 F500.000000
G01 X58.747218 Y86.350594 Z-1.000000
G01 X58.747218 Y87.756190 Z-1.000000
G02 X58.140771 Y87.004846 Z-1.000000 I-3.273931 J2.022131
G02 X57.449109 Y86.507690 Z-1.000000 I-2.075970 J2.158458
G02 X56.644649 Y86.224089 Z-1.000000 I-1.460578 J2.860293
G02 X55.547420 Y86.110815 Z-1.000000 I-1.097229 J5.257548
G02 X54.215165 Y86.337449 Z-1.000000 I-0.000000 J4.029111
G02 X53.281929 Y86.904564 Z-1.000000 I0.869960 J2.483010
G02 X52.680076 Y87.805961 Z-1.000000 I1.744416 J1.816351
G02 X52.446840 Y89.046031 Z-1.000000 I3.179983 J1.240070
G02 X52.745618 Y90.460746 Z-1.000000 I3.498729 J0.000000
G02 X53.488635 Y91.402472 Z-1.000000 I2.202376 J-0.973682
G02 X54.622212 Y91.947244 Z-1.000000 I1.915498 J-2.534046
G02 X56.614019 Y92.196220 Z-1.000000 I1.991807 J-7.842745
G01 X58.747218 Y92.196220 Z-1.000000
G01 X58.747218 Y92.345048 Z-1.000000
G03 X58.550747 Y93.302241 Z-1.000000 I-2.429921 J-0.000000
G03 X58.052688 Y93.965618 Z-1.000000 I-1.609632 J-0.689842
G03 X57.303044 Y94.370929 Z-1.000000 I-1.349592 J-1.600231
G03 X56.117926 Y94.544393 Z-1.000000 I-1.185118 J-3.961681
G03 X55.330183 Y94.496131 Z-1.000000 I0.000000 J-6.452951
G03 X54.571771 Y94.354224 Z-1.000000 I0.752910 J-6.121476
G03 X53.837547 Y94.117763 Z-1.000000 I1.477601 J-5.846164
G03 X53.124833 Y93.783717 Z-1.000000 I2.303081 J-5.841147
G01 X53.124833 Y95.189313 Z-1.000000
G02 X53.970026 Y95.477023 Z-1.000000 I3.981816 J-10.311899
G02 X54.745403 Y95.668870 Z-1.000000 I2.510521 J-8.483818
G02 X55.535036 Y95.794351 Z-1.000000 I1.651018 J-7.842348
G02 X56.275022 Y95.834234 Z-1.000000 I0.739986 J-6.844882
G02 X58.148790 Y95.518281 Z-1.000000 I0.000000 J-5.714189
G02 X59.276384 Y94.792439 Z-1.000000 I-0.933199 J-2.688503
G02 X59.962695 Y93.628294 Z-1.000000 I-2.161773 J-2.058830
G02 X60.268569 Y91.633982 Z-1.000000 I-6.348564 J-1.994312
G01 X60.268569 Y91.633982 Z-1.000000
G00 Z1.000000

(End cutting path id: path61385)


(Start cutting path id: path61385)
(Change tool to Cylindrical cutter)

G00 Z1.000000
G00 X60.268569 Y91.633982

G01 Z-1.000000 F100.0(Penetrate)
G01 X60.268569 Y86.350594 Z-1.000000 F500.000000
G01 X58.747218 Y86.350594 Z-1.000000
G01 X58.747218 Y87.756190 Z-1.000000
G02 X58.140771 Y87.004846 Z-1.000000 I-3.273931 J2.022131
G02 X57.449109 Y86.507690 Z-1.000000 I-2.075970 J2.158458
G02 X56.644649 Y86.224089 Z-1.000000 I-1.460578 J2.860293
G02 X55.547420 Y86.110815 Z-1.000000 I-1.097229 J5.257548
G02 X54.215165 Y86.337449 Z-1.000000 I-0.000000 J4.029111
G02 X53.281929 Y86.904564 Z-1.000000 I0.869960 J2.483010
G02 X52.680076 Y87.805961 Z-1.000000 I1.744416 J1.816351
G02 X52.446840 Y89.046031 Z-1.000000 I3.179983 J1.240070
G02 X52.745618 Y90.460746 Z-1.000000 I3.498729 J0.000000
G02 X53.488635 Y91.402472 Z-1.000000 I2.202376 J-0.973682
G02 X54.622212 Y91.947244 Z-1.000000 I1.915498 J-2.534046
G02 X56.614019 Y92.196220 Z-1.000000 I1.991807 J-7.842745
G01 X58.747218 Y92.196220 Z-1.000000
G01 X58.747218 Y92.345048 Z-1.000000
G03 X58.550747 Y93.302241 Z-1.000000 I-2.429921 J-0.000000
G03 X58.052688 Y93.965618 Z-1.000000 I-1.609632 J-0.689842
G03 X57.303044 Y94.370929 Z-1.000000 I-1.349592 J-1.600231
G03 X56.117926 Y94.544393 Z-1.000000 I-1.185118 J-3.961681
G03 X55.330183 Y94.496131 Z-1.000000 I0.000000 J-6.452951
G03 X54.571771 Y94.354224 Z-1.000000 I0.752910 J-6.121476
G03 X53.837547 Y94.117763 Z-1.000000 I1.477601 J-5.846164
G03 X53.124833 Y93.783717 Z-1.000000 I2.303081 J-5.841147
G01 X53.124833 Y95.189313 Z-1.000000
G02 X53.970026 Y95.477023 Z-1.000000 I3.981816 J-10.311899
G02 X54.745403 Y95.668870 Z-1.000000 I2.510521 J-8.483818
G02 X55.535036 Y95.794351 Z-1.000000 I1.651018 J-7.842348
G02 X56.275022 Y95.834234 Z-1.000000 I0.739986 J-6.844882
G02 X58.148790 Y95.518281 Z-1.000000 I0.000000 J-5.714189
G02 X59.276384 Y94.792439 Z-1.000000 I-0.933199 J-2.688503
G02 X59.962695 Y93.628294 Z-1.000000 I-2.161773 J-2.058830
G02 X60.268569 Y91.633982 Z-1.000000 I-6.348564 J-1.994312
G01 X60.268569 Y91.633982 Z-1.000000
G00 Z1.000000

(End cutting path id: path61385)


(Start cutting path id: path61385)
(Change tool to Cylindrical cutter)

G00 Z1.000000
G00 X57.234135 Y91.005597

G01 Z-1.000000 F100.0(Penetrate)
G03 X55.430857 Y90.857783 Z-1.000000 I0.000000 J-11.073581 F500.000000
G03 X54.679257 Y90.583919 Z-1.000000 I0.352487 J-2.135664
G03 X54.177891 Y90.042797 Z-1.000000 I0.661838 J-1.116039
G03 X53.968191 Y89.145250 Z-1.000000 I1.815967 J-0.897547
G03 X54.115103 Y88.400091 Z-1.000000 I1.963236 J-0.000000
G03 X54.497357 Y87.855408 Z-1.000000 I1.394249 J0.571999
G03 X55.086269 Y87.520903 Z-1.000000 I1.105543 J1.260705
G03 X55.952562 Y87.384120 Z-1.000000 I0.866293 J2.674869
G03 X57.105461 Y87.626955 Z-1.000000 I-0.000000 J2.858206
G03 X57.978274 Y88.277087 Z-1.000000 I-0.983745 J2.231644
G03 X58.526426 Y89.259714 Z-1.000000 I-2.181022 J1.860873
G03 X58.747218 Y90.666601 Z-1.000000 I-4.371940 J1.406887
G01 X58.747218 Y91.005597 Z-1.000000
G01 X57.234135 Y91.005597 Z-1.000000
G00 Z1.000000

(End cutting path id: path61385)


(Start cutting path id: path61385)
(Change tool to Cylindrical cutter)

G00 Z1.000000
G00 X57.234135 Y91.005597

G01 Z-1.000000 F100.0(Penetrate)
G03 X55.430857 Y90.857783 Z-1.000000 I0.000000 J-11.073581 F500.000000
G03 X54.679257 Y90.583919 Z-1.000000 I0.352487 J-2.135664
G03 X54.177891 Y90.042797 Z-1.000000 I0.661838 J-1.116039
G03 X53.968191 Y89.145250 Z-1.000000 I1.815967 J-0.897547
G03 X54.115103 Y88.400091 Z-1.000000 I1.963236 J-0.000000
G03 X54.497357 Y87.855408 Z-1.000000 I1.394249 J0.571999
G03 X55.086269 Y87.520903 Z-1.000000 I1.105543 J1.260705
G03 X55.952562 Y87.384120 Z-1.000000 I0.866293 J2.674869
G03 X57.105461 Y87.626955 Z-1.000000 I-0.000000 J2.858206
G03 X57.978274 Y88.277087 Z-1.000000 I-0.983745 J2.231644
G03 X58.526426 Y89.259714 Z-1.000000 I-2.181022 J1.860873
G03 X58.747218 Y90.666601 Z-1.000000 I-4.371940 J1.406887
G01 X58.747218 Y91.005597 Z-1.000000
G01 X57.234135 Y91.005597 Z-1.000000
G00 Z1.000000

(End cutting path id: path61385)


(Start cutting path id: path61383)
(Change tool to Cylindrical cutter)

G00 Z1.000000
G00 X48.329270 Y99.215933

G01 Z-1.000000 F100.0(Penetrate)
G01 X49.850622 Y99.215933 Z-1.000000 F500.000000
G01 X49.850622 Y86.350594 Z-1.000000
G01 X48.329270 Y86.350594 Z-1.000000
G01 X48.329270 Y99.215933 Z-1.000000
G00 Z1.000000

(End cutting path id: path61383)


(Start cutting path id: path61383)
(Change tool to Cylindrical cutter)

G00 Z1.000000
G00 X48.329270 Y99.215933

G01 Z-1.000000 F100.0(Penetrate)
G01 X49.850622 Y99.215933 Z-1.000000 F500.000000
G01 X49.850622 Y86.350594 Z-1.000000
G01 X48.329270 Y86.350594 Z-1.000000
G01 X48.329270 Y99.215933 Z-1.000000
G00 Z1.000000

(End cutting path id: path61383)


(Start cutting path id: path61381)
(Change tool to Cylindrical cutter)

G00 Z1.000000
G00 X41.565872 Y95.834234

G01 Z-1.000000 F100.0(Penetrate)
G02 X43.386465 Y95.472435 Z-1.000000 I-0.000000 J-4.761567 F500.000000
G02 X44.682988 Y94.544393 Z-1.000000 I-1.343326 J-3.246370
G02 X45.482011 Y93.128815 Z-1.000000 I-2.974598 J-2.612305
G02 X45.815733 Y90.972525 Z-1.000000 I-6.799397 J-2.156290
G02 X45.483132 Y88.823479 Z-1.000000 I-7.109156 J0.000000
G02 X44.682988 Y87.400657 Z-1.000000 I-3.818372 J1.210919
G02 X43.386465 Y86.472614 Z-1.000000 I-2.639849 J2.318328
G02 X41.565872 Y86.110815 Z-1.000000 I-1.820593 J4.399764
G02 X39.737324 Y86.473306 Z-1.000000 I0.000000 J4.793202
G02 X38.440487 Y87.400657 Z-1.000000 I1.337484 J3.240825
G02 X37.646521 Y88.822012 Z-1.000000 I3.030874 J2.625471
G02 X37.316010 Y90.972525 Z-1.000000 I6.831041 J2.150513
G02 X37.647636 Y93.130292 Z-1.000000 I7.185707 J0.000000
G02 X38.440487 Y94.544393 Z-1.000000 I3.779860 J-1.189956
G02 X39.737324 Y95.471743 Z-1.000000 I2.634320 J-2.313475
G02 X41.565872 Y95.834234 Z-1.000000 I1.828548 J-4.430714
G01 X41.565872 Y95.834234 Z-1.000000
G00 Z1.000000

(End cutting path id: path61381)


(Start cutting path id: path61381)
(Change tool to Cylindrical cutter)

G00 Z1.000000
G00 X41.565872 Y95.834234

G01 Z-1.000000 F100.0(Penetrate)
G02 X43.386465 Y95.472435 Z-1.000000 I-0.000000 J-4.761567 F500.000000
G02 X44.682988 Y94.544393 Z-1.000000 I-1.343326 J-3.246370
G02 X45.482011 Y93.128815 Z-1.000000 I-2.974598 J-2.612305
G02 X45.815733 Y90.972525 Z-1.000000 I-6.799397 J-2.156290
G02 X45.483132 Y88.823479 Z-1.000000 I-7.109156 J0.000000
G02 X44.682988 Y87.400657 Z-1.000000 I-3.818372 J1.210919
G02 X43.386465 Y86.472614 Z-1.000000 I-2.639849 J2.318328
G02 X41.565872 Y86.110815 Z-1.000000 I-1.820593 J4.399764
G02 X39.737324 Y86.473306 Z-1.000000 I0.000000 J4.793202
G02 X38.440487 Y87.400657 Z-1.000000 I1.337484 J3.240825
G02 X37.646521 Y88.822012 Z-1.000000 I3.030874 J2.625471
G02 X37.316010 Y90.972525 Z-1.000000 I6.831041 J2.150513
G02 X37.647636 Y93.130292 Z-1.000000 I7.185707 J0.000000
G02 X38.440487 Y94.544393 Z-1.000000 I3.779860 J-1.189956
G02 X39.737324 Y95.471743 Z-1.000000 I2.634320 J-2.313475
G02 X41.565872 Y95.834234 Z-1.000000 I1.828548 J-4.430714
G01 X41.565872 Y95.834234 Z-1.000000
G00 Z1.000000

(End cutting path id: path61381)


(Start cutting path id: path61381)
(Change tool to Cylindrical cutter)

G00 Z1.000000
G00 X41.565872 Y94.544393

G01 Z-1.000000 F100.0(Penetrate)
G03 X40.471276 Y94.287972 Z-1.000000 I0.000000 J-2.464486 F500.000000
G03 X39.631110 Y93.585280 Z-1.000000 I1.038962 J-2.095837
G03 X39.132699 Y92.563714 Z-1.000000 I2.432780 J-1.819294
G03 X38.920044 Y90.972525 Z-1.000000 I5.846698 J-1.591189
G03 X39.129941 Y89.379285 Z-1.000000 I6.151748 J0.000000
G03 X39.622842 Y88.351501 Z-1.000000 I2.989458 J0.801589
G03 X40.461944 Y87.656284 Z-1.000000 I1.859992 J1.390951
G03 X41.565872 Y87.400657 Z-1.000000 I1.103928 J2.255854
G03 X42.652631 Y87.656220 Z-1.000000 I-0.000000 J2.438453
G03 X43.492366 Y88.359769 Z-1.000000 I-1.046455 J2.101933
G03 X43.991772 Y89.388784 Z-1.000000 I-2.482657 J1.840589
G03 X44.203432 Y90.972525 Z-1.000000 I-5.819330 J1.583741
G03 X43.992213 Y92.548142 Z-1.000000 I-5.982377 J-0.000000
G03 X43.492366 Y93.577012 Z-1.000000 I-2.987951 J-0.815758
G03 X42.651154 Y94.287210 Z-1.000000 I-1.898610 J-1.395561
G03 X41.565872 Y94.544393 Z-1.000000 I-1.085282 J-2.161288
G01 X41.565872 Y94.544393 Z-1.000000
G00 Z1.000000

(End cutting path id: path61381)


(Start cutting path id: path61381)
(Change tool to Cylindrical cutter)

G00 Z1.000000
G00 X41.565872 Y94.544393

G01 Z-1.000000 F100.0(Penetrate)
G03 X40.471276 Y94.287972 Z-1.000000 I0.000000 J-2.464486 F500.000000
G03 X39.631110 Y93.585280 Z-1.000000 I1.038962 J-2.095837
G03 X39.132699 Y92.563714 Z-1.000000 I2.432780 J-1.819294
G03 X38.920044 Y90.972525 Z-1.000000 I5.846698 J-1.591189
G03 X39.129941 Y89.379285 Z-1.000000 I6.151748 J0.000000
G03 X39.622842 Y88.351501 Z-1.000000 I2.989458 J0.801589
G03 X40.461944 Y87.656284 Z-1.000000 I1.859992 J1.390951
G03 X41.565872 Y87.400657 Z-1.000000 I1.103928 J2.255854
G03 X42.652631 Y87.656220 Z-1.000000 I-0.000000 J2.438453
G03 X43.492366 Y88.359769 Z-1.000000 I-1.046455 J2.101933
G03 X43.991772 Y89.388784 Z-1.000000 I-2.482657 J1.840589
G03 X44.203432 Y90.972525 Z-1.000000 I-5.819330 J1.583741
G03 X43.992213 Y92.548142 Z-1.000000 I-5.982377 J-0.000000
G03 X43.492366 Y93.577012 Z-1.000000 I-2.987951 J-0.815758
G03 X42.651154 Y94.287210 Z-1.000000 I-1.898610 J-1.395561
G03 X41.565872 Y94.544393 Z-1.000000 I-1.085282 J-2.161288
G01 X41.565872 Y94.544393 Z-1.000000
G00 Z1.000000

(End cutting path id: path61381)


(Start cutting path id: path61379)
(Change tool to Cylindrical cutter)

G00 Z1.000000
G00 X25.310566 Y98.695035

G01 Z-1.000000 F100.0(Penetrate)
G01 X26.980745 Y98.695035 Z-1.000000 F500.000000
G01 X26.980745 Y93.634889 Z-1.000000
G01 X33.049613 Y93.634889 Z-1.000000
G01 X33.049613 Y98.695035 Z-1.000000
G01 X34.719792 Y98.695035 Z-1.000000
G01 X34.719792 Y86.350594 Z-1.000000
G01 X33.049613 Y86.350594 Z-1.000000
G01 X33.049613 Y92.229293 Z-1.000000
G01 X26.980745 Y92.229293 Z-1.000000
G01 X26.980745 Y86.350594 Z-1.000000
G01 X25.310566 Y86.350594 Z-1.000000
G01 X25.310566 Y98.695035 Z-1.000000
G00 Z1.000000

(End cutting path id: path61379)


(Start cutting path id: path61379)
(Change tool to Cylindrical cutter)

G00 Z1.000000
G00 X25.310566 Y98.695035

G01 Z-1.000000 F100.0(Penetrate)
G01 X26.980745 Y98.695035 Z-1.000000 F500.000000
G01 X26.980745 Y93.634889 Z-1.000000
G01 X33.049613 Y93.634889 Z-1.000000
G01 X33.049613 Y98.695035 Z-1.000000
G01 X34.719792 Y98.695035 Z-1.000000
G01 X34.719792 Y86.350594 Z-1.000000
G01 X33.049613 Y86.350594 Z-1.000000
G01 X33.049613 Y92.229293 Z-1.000000
G01 X26.980745 Y92.229293 Z-1.000000
G01 X26.980745 Y86.350594 Z-1.000000
G01 X25.310566 Y86.350594 Z-1.000000
G01 X25.310566 Y98.695035 Z-1.000000
G00 Z1.000000

(End cutting path id: path61379)


(Start cutting path id: path61401)
(Change tool to Cylindrical cutter)

G00 Z1.000000
G00 X25.310566 Y77.528410

G01 Z-1.000000 F100.0(Penetrate)
G01 X26.980745 Y77.528410 Z-1.000000 F500.000000
G01 X26.980745 Y72.468264 Z-1.000000
G01 X33.049613 Y72.468264 Z-1.000000
G01 X33.049613 Y77.528410 Z-1.000000
G01 X34.719792 Y77.528410 Z-1.000000
G01 X34.719792 Y65.183969 Z-1.000000
G01 X33.049613 Y65.183969 Z-1.000000
G01 X33.049613 Y71.062668 Z-1.000000
G01 X26.980745 Y71.062668 Z-1.000000
G01 X26.980745 Y65.183969 Z-1.000000
G01 X25.310566 Y65.183969 Z-1.000000
G01 X25.310566 Y77.528410 Z-1.000000
G00 Z1.000000

(End cutting path id: path61401)


(Start cutting path id: path61401)
(Change tool to Cylindrical cutter)

G00 Z1.000000
G00 X25.310566 Y77.528410

G01 Z-1.000000 F100.0(Penetrate)
G01 X26.980745 Y77.528410 Z-1.000000 F500.000000
G01 X26.980745 Y72.468264 Z-1.000000
G01 X33.049613 Y72.468264 Z-1.000000
G01 X33.049613 Y77.528410 Z-1.000000
G01 X34.719792 Y77.528410 Z-1.000000
G01 X34.719792 Y65.183969 Z-1.000000
G01 X33.049613 Y65.183969 Z-1.000000
G01 X33.049613 Y71.062668 Z-1.000000
G01 X26.980745 Y71.062668 Z-1.000000
G01 X26.980745 Y65.183969 Z-1.000000
G01 X25.310566 Y65.183969 Z-1.000000
G01 X25.310566 Y77.528410 Z-1.000000
G00 Z1.000000

(End cutting path id: path61401)


(Footer)
M5
G00 X0.0000 Y0.0000
M2
(Using default footer. To add your own footer create file "footer" in the output dir.)
(end)
%