%
(Header)
(Generated by gcodetools from Inkscape.)
(Using default header. To add your own header create file "header" in the output dir.)
M3
(Header end.)
G21 (All units in mm)

(Start cutting path id: path890)
(Change tool to Cylindrical cutter)

G00 Z1.000000
G00 X127.321690 Y18.919470

G01 Z-1.000000 F100.0(Penetrate)
G01 X127.321690 Y28.927070 Z-1.000000 F400.000000
G01 X125.238890 Y28.927070 Z-1.000000
G01 X124.476890 Y28.927070 Z-1.000000
G02 X124.122026 Y28.938886 Z-1.000000 I-0.000000 J5.334781
G02 X123.714890 Y28.977870 Z-1.000000 I0.470867 J7.063006
G03 X122.744729 Y26.673496 Z-1.000000 I57.877660 J-25.723404
G03 X121.733690 Y23.999470 Z-1.000000 I76.933891 J-30.616548
G03 X120.786597 Y21.351545 Z-1.000000 I193.661451 J-70.760915
G03 X119.955690 Y18.919470 Z-1.000000 I162.542676 J-56.889937
G01 X115.485290 Y18.919470 Z-1.000000
G02 X115.856983 Y20.133552 Z-1.000000 I45.836830 J-13.369075
G02 X116.348890 Y21.611870 Z-1.000000 I68.456375 J-21.957705
G02 X116.879103 Y23.076653 Z-1.000000 I48.311054 J-16.658984
G02 X117.466490 Y24.558270 Z-1.000000 I50.015533 J-18.971409
G02 X118.096031 Y26.073660 Z-1.000000 I57.572863 J-23.029145
G02 X118.736490 Y27.504670 Z-1.000000 I51.979002 J-22.404742
G02 X119.400558 Y28.925341 Z-1.000000 I275.028575 J-127.691838
G02 X119.955690 Y30.095474 Z-1.000000 I187.132599 J-88.062264
G02 X118.279715 Y31.321831 Z-1.000000 I3.637776 J6.729885
G02 X117.009290 Y32.940274 Z-1.000000 I5.215789 J5.402068
G02 X116.283221 Y34.893219 Z-1.000000 I6.585979 J3.559988
G02 X115.993290 Y37.563074 Z-1.000000 I12.147840 J2.669855
G02 X116.193619 Y39.756370 Z-1.000000 I12.106790 J0.000000
G02 X116.704490 Y41.423874 Z-1.000000 I7.465808 J-1.375280
G02 X117.566442 Y42.939053 Z-1.000000 I7.632650 J-3.339284
G02 X118.634890 Y44.116274 Z-1.000000 I5.631463 J-4.037653
G02 X119.987224 Y45.031081 Z-1.000000 I5.062482 J-6.026765
G02 X121.581290 Y45.691073 Z-1.000000 I4.142942 J-7.751315
G02 X123.331910 Y46.101402 Z-1.000000 I3.351487 J-10.359142
G02 X125.340490 Y46.249873 Z-1.000000 I2.008580 J-13.512267
G02 X127.011667 Y46.184692 Z-1.000000 I0.000000 J-21.456249
G02 X128.591690 Y45.995873 Z-1.000000 I-1.512873 J-19.364771
G02 X130.207767 Y45.697645 Z-1.000000 I-4.615235 J-29.537507
G02 X131.690490 Y45.335474 Z-1.000000 I-5.375269 J-25.222453
G01 X131.690490 Y18.919470 Z-1.000000
G01 X127.321690 Y18.919470 Z-1.000000
G00 Z1.000000

(End cutting path id: path890)


(Start cutting path id: path890)
(Change tool to Cylindrical cutter)

G00 Z1.000000
G00 X127.321690 Y18.919470

G01 Z-1.000000 F100.0(Penetrate)
G01 X127.321690 Y28.927070 Z-1.000000 F400.000000
G01 X125.238890 Y28.927070 Z-1.000000
G01 X124.476890 Y28.927070 Z-1.000000
G02 X124.122026 Y28.938886 Z-1.000000 I-0.000000 J5.334781
G02 X123.714890 Y28.977870 Z-1.000000 I0.470867 J7.063006
G03 X122.744729 Y26.673496 Z-1.000000 I57.877660 J-25.723404
G03 X121.733690 Y23.999470 Z-1.000000 I76.933891 J-30.616548
G03 X120.786597 Y21.351545 Z-1.000000 I193.661451 J-70.760915
G03 X119.955690 Y18.919470 Z-1.000000 I162.542676 J-56.889937
G01 X115.485290 Y18.919470 Z-1.000000
G02 X115.856983 Y20.133552 Z-1.000000 I45.836830 J-13.369075
G02 X116.348890 Y21.611870 Z-1.000000 I68.456375 J-21.957705
G02 X116.879103 Y23.076653 Z-1.000000 I48.311054 J-16.658984
G02 X117.466490 Y24.558270 Z-1.000000 I50.015533 J-18.971409
G02 X118.096031 Y26.073660 Z-1.000000 I57.572863 J-23.029145
G02 X118.736490 Y27.504670 Z-1.000000 I51.979002 J-22.404742
G02 X119.400558 Y28.925341 Z-1.000000 I275.028575 J-127.691838
G02 X119.955690 Y30.095474 Z-1.000000 I187.132599 J-88.062264
G02 X118.279715 Y31.321831 Z-1.000000 I3.637776 J6.729885
G02 X117.009290 Y32.940274 Z-1.000000 I5.215789 J5.402068
G02 X116.283221 Y34.893219 Z-1.000000 I6.585979 J3.559988
G02 X115.993290 Y37.563074 Z-1.000000 I12.147840 J2.669855
G02 X116.193619 Y39.756370 Z-1.000000 I12.106790 J0.000000
G02 X116.704490 Y41.423874 Z-1.000000 I7.465808 J-1.375280
G02 X117.566442 Y42.939053 Z-1.000000 I7.632650 J-3.339284
G02 X118.634890 Y44.116274 Z-1.000000 I5.631463 J-4.037653
G02 X119.987224 Y45.031081 Z-1.000000 I5.062482 J-6.026765
G02 X121.581290 Y45.691073 Z-1.000000 I4.142942 J-7.751315
G02 X123.331910 Y46.101402 Z-1.000000 I3.351487 J-10.359142
G02 X125.340490 Y46.249873 Z-1.000000 I2.008580 J-13.512267
G02 X127.011667 Y46.184692 Z-1.000000 I0.000000 J-21.456249
G02 X128.591690 Y45.995873 Z-1.000000 I-1.512873 J-19.364771
G02 X130.207767 Y45.697645 Z-1.000000 I-4.615235 J-29.537507
G02 X131.690490 Y45.335474 Z-1.000000 I-5.375269 J-25.222453
G01 X131.690490 Y18.919470 Z-1.000000
G01 X127.321690 Y18.919470 Z-1.000000
G00 Z1.000000

(End cutting path id: path890)


(Start cutting path id: path890)
(Change tool to Cylindrical cutter)

G00 Z1.000000
G00 X127.321690 Y42.389074

G01 Z-1.000000 F100.0(Penetrate)
G03 X126.761388 Y42.479998 Z-1.000000 I-2.675358 J-14.714470 F400.000000
G03 X126.254890 Y42.541474 Z-1.000000 I-1.708819 J-11.961734
G03 X125.744273 Y42.616649 Z-1.000000 I-0.988482 J-4.942408
G03 X125.188090 Y42.643074 Z-1.000000 I-0.556183 J-5.839926
G03 X121.939880 Y41.217684 Z-1.000000 I0.000000 J-4.413743
G03 X120.514490 Y37.563074 Z-1.000000 I3.972403 J-3.654610
G03 X120.800475 Y35.521122 Z-1.000000 I7.432816 J0.000000
G03 X121.530490 Y34.007074 Z-1.000000 I4.749470 J1.356992
G03 X122.769183 Y33.077566 Z-1.000000 I2.179647 J1.614554
G03 X125.238890 Y32.635474 Z-1.000000 I2.469707 J6.677356
G01 X127.321690 Y32.635474 Z-1.000000
G01 X127.321690 Y42.389074 Z-1.000000
G00 Z1.000000

(End cutting path id: path890)


(Start cutting path id: path890)
(Change tool to Cylindrical cutter)

G00 Z1.000000
G00 X127.321690 Y42.389074

G01 Z-1.000000 F100.0(Penetrate)
G03 X126.761388 Y42.479998 Z-1.000000 I-2.675358 J-14.714470 F400.000000
G03 X126.254890 Y42.541474 Z-1.000000 I-1.708819 J-11.961734
G03 X125.744273 Y42.616649 Z-1.000000 I-0.988482 J-4.942408
G03 X125.188090 Y42.643074 Z-1.000000 I-0.556183 J-5.839926
G03 X121.939880 Y41.217684 Z-1.000000 I0.000000 J-4.413743
G03 X120.514490 Y37.563074 Z-1.000000 I3.972403 J-3.654610
G03 X120.800475 Y35.521122 Z-1.000000 I7.432816 J0.000000
G03 X121.530490 Y34.007074 Z-1.000000 I4.749470 J1.356992
G03 X122.769183 Y33.077566 Z-1.000000 I2.179647 J1.614554
G03 X125.238890 Y32.635474 Z-1.000000 I2.469707 J6.677356
G01 X127.321690 Y32.635474 Z-1.000000
G01 X127.321690 Y42.389074 Z-1.000000
G00 Z1.000000

(End cutting path id: path890)


(Start cutting path id: path888)
(Change tool to Cylindrical cutter)

G00 Z1.000000
G00 X109.229750 Y45.589473

G01 Z-1.000000 F100.0(Penetrate)
G01 X109.229750 Y18.919470 Z-1.000000 F400.000000
G01 X104.860950 Y18.919470 Z-1.000000
G01 X104.860950 Y30.806674 Z-1.000000
G01 X96.428146 Y30.806674 Z-1.000000
G01 X96.428146 Y18.919470 Z-1.000000
G01 X92.059346 Y18.919470 Z-1.000000
G01 X92.059346 Y45.589473 Z-1.000000
G01 X96.428146 Y45.589473 Z-1.000000
G01 X96.428146 Y34.565874 Z-1.000000
G01 X104.860950 Y34.565874 Z-1.000000
G01 X104.860950 Y45.589473 Z-1.000000
G01 X109.229750 Y45.589473 Z-1.000000
G00 Z1.000000

(End cutting path id: path888)


(Start cutting path id: path888)
(Change tool to Cylindrical cutter)

G00 Z1.000000
G00 X109.229750 Y45.589473

G01 Z-1.000000 F100.0(Penetrate)
G01 X109.229750 Y18.919470 Z-1.000000 F400.000000
G01 X104.860950 Y18.919470 Z-1.000000
G01 X104.860950 Y30.806674 Z-1.000000
G01 X96.428146 Y30.806674 Z-1.000000
G01 X96.428146 Y18.919470 Z-1.000000
G01 X92.059346 Y18.919470 Z-1.000000
G01 X92.059346 Y45.589473 Z-1.000000
G01 X96.428146 Y45.589473 Z-1.000000
G01 X96.428146 Y34.565874 Z-1.000000
G01 X104.860950 Y34.565874 Z-1.000000
G01 X104.860950 Y45.589473 Z-1.000000
G01 X109.229750 Y45.589473 Z-1.000000
G00 Z1.000000

(End cutting path id: path888)


(Start cutting path id: path880)
(Change tool to Cylindrical cutter)

G00 Z1.000000
G00 X101.028720 Y84.843983

G01 Z-1.000000 F100.0(Penetrate)
G01 X101.028720 Y94.851583 Z-1.000000 F400.000000
G01 X98.945918 Y94.851583 Z-1.000000
G01 X98.183918 Y94.851583 Z-1.000000
G02 X97.829054 Y94.863399 Z-1.000000 I-0.000000 J5.334781
G02 X97.421918 Y94.902383 Z-1.000000 I0.470867 J7.063006
G03 X96.451757 Y92.598009 Z-1.000000 I57.877660 J-25.723404
G03 X95.440718 Y89.923983 Z-1.000000 I76.933891 J-30.616548
G03 X94.493625 Y87.276058 Z-1.000000 I193.661451 J-70.760915
G03 X93.662718 Y84.843983 Z-1.000000 I162.542676 J-56.889937
G01 X89.192318 Y84.843983 Z-1.000000
G02 X89.564011 Y86.058065 Z-1.000000 I45.836830 J-13.369075
G02 X90.055918 Y87.536383 Z-1.000000 I68.456375 J-21.957705
G02 X90.586131 Y89.001166 Z-1.000000 I48.311054 J-16.658984
G02 X91.173518 Y90.482783 Z-1.000000 I50.015533 J-18.971409
G02 X91.803059 Y91.998173 Z-1.000000 I57.572863 J-23.029145
G02 X92.443518 Y93.429183 Z-1.000000 I51.979002 J-22.404742
G02 X93.107587 Y94.849854 Z-1.000000 I274.996945 J-127.677154
G02 X93.662718 Y96.019983 Z-1.000000 I187.109983 J-88.051757
G02 X91.986743 Y97.246340 Z-1.000000 I3.637778 J6.729890
G02 X90.716318 Y98.864782 Z-1.000000 I5.215788 J5.402068
G02 X89.990249 Y100.817727 Z-1.000000 I6.585979 J3.559988
G02 X89.700318 Y103.487582 Z-1.000000 I12.147840 J2.669855
G02 X89.900647 Y105.680878 Z-1.000000 I12.106790 J0.000000
G02 X90.411518 Y107.348382 Z-1.000000 I7.465808 J-1.375280
G02 X91.273470 Y108.863561 Z-1.000000 I7.632650 J-3.339284
G02 X92.341918 Y110.040782 Z-1.000000 I5.631463 J-4.037653
G02 X93.694252 Y110.955589 Z-1.000000 I5.062489 J-6.026773
G02 X95.288318 Y111.615582 Z-1.000000 I4.142951 J-7.751327
G02 X97.038938 Y112.025911 Z-1.000000 I3.351487 J-10.359142
G02 X99.047518 Y112.174382 Z-1.000000 I2.008580 J-13.512267
G02 X100.718697 Y112.109201 Z-1.000000 I-0.000000 J-21.456288
G02 X102.298720 Y111.920382 Z-1.000000 I-1.512871 J-19.364760
G02 X103.914797 Y111.622154 Z-1.000000 I-4.615209 J-29.537341
G02 X105.397520 Y111.259982 Z-1.000000 I-5.375248 J-25.222318
G01 X105.397520 Y84.843983 Z-1.000000
G01 X101.028720 Y84.843983 Z-1.000000
G00 Z1.000000

(End cutting path id: path880)


(Start cutting path id: path880)
(Change tool to Cylindrical cutter)

G00 Z1.000000
G00 X101.028720 Y84.843983

G01 Z-1.000000 F100.0(Penetrate)
G01 X101.028720 Y94.851583 Z-1.000000 F400.000000
G01 X98.945918 Y94.851583 Z-1.000000
G01 X98.183918 Y94.851583 Z-1.000000
G02 X97.829054 Y94.863399 Z-1.000000 I-0.000000 J5.334781
G02 X97.421918 Y94.902383 Z-1.000000 I0.470867 J7.063006
G03 X96.451757 Y92.598009 Z-1.000000 I57.877660 J-25.723404
G03 X95.440718 Y89.923983 Z-1.000000 I76.933891 J-30.616548
G03 X94.493625 Y87.276058 Z-1.000000 I193.661451 J-70.760915
G03 X93.662718 Y84.843983 Z-1.000000 I162.542676 J-56.889937
G01 X89.192318 Y84.843983 Z-1.000000
G02 X89.564011 Y86.058065 Z-1.000000 I45.836830 J-13.369075
G02 X90.055918 Y87.536383 Z-1.000000 I68.456375 J-21.957705
G02 X90.586131 Y89.001166 Z-1.000000 I48.311054 J-16.658984
G02 X91.173518 Y90.482783 Z-1.000000 I50.015533 J-18.971409
G02 X91.803059 Y91.998173 Z-1.000000 I57.572863 J-23.029145
G02 X92.443518 Y93.429183 Z-1.000000 I51.979002 J-22.404742
G02 X93.107587 Y94.849854 Z-1.000000 I274.996945 J-127.677154
G02 X93.662718 Y96.019983 Z-1.000000 I187.109983 J-88.051757
G02 X91.986743 Y97.246340 Z-1.000000 I3.637778 J6.729890
G02 X90.716318 Y98.864782 Z-1.000000 I5.215788 J5.402068
G02 X89.990249 Y100.817727 Z-1.000000 I6.585979 J3.559988
G02 X89.700318 Y103.487582 Z-1.000000 I12.147840 J2.669855
G02 X89.900647 Y105.680878 Z-1.000000 I12.106790 J0.000000
G02 X90.411518 Y107.348382 Z-1.000000 I7.465808 J-1.375280
G02 X91.273470 Y108.863561 Z-1.000000 I7.632650 J-3.339284
G02 X92.341918 Y110.040782 Z-1.000000 I5.631463 J-4.037653
G02 X93.694252 Y110.955589 Z-1.000000 I5.062489 J-6.026773
G02 X95.288318 Y111.615582 Z-1.000000 I4.142951 J-7.751327
G02 X97.038938 Y112.025911 Z-1.000000 I3.351487 J-10.359142
G02 X99.047518 Y112.174382 Z-1.000000 I2.008580 J-13.512267
G02 X100.718697 Y112.109201 Z-1.000000 I-0.000000 J-21.456288
G02 X102.298720 Y111.920382 Z-1.000000 I-1.512871 J-19.364760
G02 X103.914797 Y111.622154 Z-1.000000 I-4.615209 J-29.537341
G02 X105.397520 Y111.259982 Z-1.000000 I-5.375248 J-25.222318
G01 X105.397520 Y84.843983 Z-1.000000
G01 X101.028720 Y84.843983 Z-1.000000
G00 Z1.000000

(End cutting path id: path880)


(Start cutting path id: path880)
(Change tool to Cylindrical cutter)

G00 Z1.000000
G00 X101.028720 Y108.313582

G01 Z-1.000000 F100.0(Penetrate)
G03 X100.468418 Y108.404506 Z-1.000000 I-2.675340 J-14.714368 F400.000000
G03 X99.961918 Y108.465982 Z-1.000000 I-1.708817 J-11.961745
G03 X99.451301 Y108.541157 Z-1.000000 I-0.988482 J-4.942408
G03 X98.895118 Y108.567582 Z-1.000000 I-0.556183 J-5.839926
G03 X95.646908 Y107.142192 Z-1.000000 I-0.000000 J-4.413743
G03 X94.221518 Y103.487582 Z-1.000000 I3.972403 J-3.654610
G03 X94.507503 Y101.445630 Z-1.000000 I7.432816 J0.000000
G03 X95.237518 Y99.931582 Z-1.000000 I4.749470 J1.356992
G03 X96.476211 Y99.002074 Z-1.000000 I2.179647 J1.614554
G03 X98.945918 Y98.559982 Z-1.000000 I2.469707 J6.677356
G01 X101.028720 Y98.559982 Z-1.000000
G01 X101.028720 Y108.313582 Z-1.000000
G00 Z1.000000

(End cutting path id: path880)


(Start cutting path id: path880)
(Change tool to Cylindrical cutter)

G00 Z1.000000
G00 X101.028720 Y108.313582

G01 Z-1.000000 F100.0(Penetrate)
G03 X100.468418 Y108.404506 Z-1.000000 I-2.675340 J-14.714368 F400.000000
G03 X99.961918 Y108.465982 Z-1.000000 I-1.708817 J-11.961745
G03 X99.451301 Y108.541157 Z-1.000000 I-0.988482 J-4.942408
G03 X98.895118 Y108.567582 Z-1.000000 I-0.556183 J-5.839926
G03 X95.646908 Y107.142192 Z-1.000000 I-0.000000 J-4.413743
G03 X94.221518 Y103.487582 Z-1.000000 I3.972403 J-3.654610
G03 X94.507503 Y101.445630 Z-1.000000 I7.432816 J0.000000
G03 X95.237518 Y99.931582 Z-1.000000 I4.749470 J1.356992
G03 X96.476211 Y99.002074 Z-1.000000 I2.179647 J1.614554
G03 X98.945918 Y98.559982 Z-1.000000 I2.469707 J6.677356
G01 X101.028720 Y98.559982 Z-1.000000
G01 X101.028720 Y108.313582 Z-1.000000
G00 Z1.000000

(End cutting path id: path880)


(Start cutting path id: path878)
(Change tool to Cylindrical cutter)

G00 Z1.000000
G00 X82.936777 Y111.513982

G01 Z-1.000000 F100.0(Penetrate)
G01 X82.936777 Y84.843983 Z-1.000000 F400.000000
G01 X78.567977 Y84.843983 Z-1.000000
G01 X78.567977 Y96.731183 Z-1.000000
G01 X70.135177 Y96.731183 Z-1.000000
G01 X70.135177 Y84.843983 Z-1.000000
G01 X65.766377 Y84.843983 Z-1.000000
G01 X65.766377 Y111.513982 Z-1.000000
G01 X70.135177 Y111.513982 Z-1.000000
G01 X70.135177 Y100.490382 Z-1.000000
G01 X78.567977 Y100.490382 Z-1.000000
G01 X78.567977 Y111.513982 Z-1.000000
G01 X82.936777 Y111.513982 Z-1.000000
G00 Z1.000000

(End cutting path id: path878)


(Start cutting path id: path878)
(Change tool to Cylindrical cutter)

G00 Z1.000000
G00 X82.936777 Y111.513982

G01 Z-1.000000 F100.0(Penetrate)
G01 X82.936777 Y84.843983 Z-1.000000 F400.000000
G01 X78.567977 Y84.843983 Z-1.000000
G01 X78.567977 Y96.731183 Z-1.000000
G01 X70.135177 Y96.731183 Z-1.000000
G01 X70.135177 Y84.843983 Z-1.000000
G01 X65.766377 Y84.843983 Z-1.000000
G01 X65.766377 Y111.513982 Z-1.000000
G01 X70.135177 Y111.513982 Z-1.000000
G01 X70.135177 Y100.490382 Z-1.000000
G01 X78.567977 Y100.490382 Z-1.000000
G01 X78.567977 Y111.513982 Z-1.000000
G01 X82.936777 Y111.513982 Z-1.000000
G00 Z1.000000

(End cutting path id: path878)


(Start cutting path id: path876)
(Change tool to Cylindrical cutter)

G00 Z1.000000
G00 X44.146215 Y110.955182

G01 Z-1.000000 F100.0(Penetrate)
G02 X45.488466 Y111.445155 Z-1.000000 I5.544092 J-13.104218 F400.000000
G02 X46.940215 Y111.818782 Z-1.000000 I4.624675 J-14.962184
G02 X48.424722 Y112.079347 Z-1.000000 I2.804351 J-11.618024
G02 X50.140615 Y112.174382 Z-1.000000 I1.715893 J-15.443034
G02 X53.441883 Y111.559404 Z-1.000000 I0.000000 J-9.168263
G02 X55.931815 Y109.939182 Z-1.000000 I-2.583525 J-6.693679
G02 X57.471143 Y107.461846 Z-1.000000 I-4.272071 J-4.371422
G02 X58.167015 Y103.081182 Z-1.000000 I-13.440673 J-4.380664
G01 X58.167015 Y85.402783 Z-1.000000
G02 X56.326533 Y84.948595 Z-1.000000 I-8.747725 J31.491809
G02 X54.407815 Y84.589983 Z-1.000000 I-7.323215 J33.869868
G02 X52.522191 Y84.359966 Z-1.000000 I-3.861963 J23.815438
G02 X50.699415 Y84.285183 Z-1.000000 I-1.822776 J22.177107
G02 X48.887088 Y84.404596 Z-1.000000 I0.000000 J13.812551
G02 X47.245015 Y84.742383 Z-1.000000 I1.544067 J11.666285
G02 X45.748518 Y85.346865 Z-1.000000 I2.224099 J7.660786
G02 X44.451015 Y86.215583 Z-1.000000 I3.482471 J6.604686
G02 X43.417795 Y87.333463 Z-1.000000 I4.591372 J5.280078
G02 X42.571415 Y88.755583 Z-1.000000 I6.647917 J4.919459
G02 X42.063007 Y90.374051 Z-1.000000 I6.466864 J2.920519
G02 X41.860215 Y92.565583 Z-1.000000 I11.740348 J2.191532
G02 X42.032208 Y94.615260 Z-1.000000 I12.299250 J-0.000000
G02 X42.469815 Y96.172383 Z-1.000000 I7.499010 J-1.267438
G02 X43.273452 Y97.645996 Z-1.000000 I7.587026 J-3.181656
G02 X44.247815 Y98.763182 Z-1.000000 I5.290906 J-3.631015
G02 X45.455229 Y99.680809 Z-1.000000 I4.672858 J-4.895375
G02 X46.889415 Y100.337982 Z-1.000000 I3.750040 J-6.290390
G02 X48.439549 Y100.749594 Z-1.000000 I3.008184 J-8.204137
G02 X50.191415 Y100.896782 Z-1.000000 I1.751866 J-10.351936
G02 X51.858795 Y100.805691 Z-1.000000 I-0.000000 J-15.305935
G02 X53.899815 Y100.490382 Z-1.000000 I-2.550402 J-23.272418
G01 X53.899815 Y102.928782 Z-1.000000
G03 X53.511973 Y105.714533 Z-1.000000 I-10.198529 J-0.000000
G03 X52.731415 Y107.043582 Z-1.000000 I-2.946176 J-0.836569
G03 X51.465979 Y107.865997 Z-1.000000 I-2.378653 J-2.275234
G03 X49.480215 Y108.211982 Z-1.000000 I-1.985764 J-5.525605
G03 X48.319533 Y108.146246 Z-1.000000 I0.000000 J-10.279739
G03 X47.245015 Y107.957982 Z-1.000000 I1.022008 J-8.993674
G03 X46.247211 Y107.696732 Z-1.000000 I1.724557 J-8.622787
G03 X45.060615 Y107.246782 Z-1.000000 I4.121084 J-12.657615
G01 X44.146215 Y110.955182 Z-1.000000
G00 Z1.000000

(End cutting path id: path876)


(Start cutting path id: path876)
(Change tool to Cylindrical cutter)

G00 Z1.000000
G00 X44.146215 Y110.955182

G01 Z-1.000000 F100.0(Penetrate)
G02 X45.488466 Y111.445155 Z-1.000000 I5.544092 J-13.104218 F400.000000
G02 X46.940215 Y111.818782 Z-1.000000 I4.624675 J-14.962184
G02 X48.424722 Y112.079347 Z-1.000000 I2.804351 J-11.618024
G02 X50.140615 Y112.174382 Z-1.000000 I1.715893 J-15.443034
G02 X53.441883 Y111.559404 Z-1.000000 I0.000000 J-9.168263
G02 X55.931815 Y109.939182 Z-1.000000 I-2.583525 J-6.693679
G02 X57.471143 Y107.461846 Z-1.000000 I-4.272071 J-4.371422
G02 X58.167015 Y103.081182 Z-1.000000 I-13.440673 J-4.380664
G01 X58.167015 Y85.402783 Z-1.000000
G02 X56.326533 Y84.948595 Z-1.000000 I-8.747725 J31.491809
G02 X54.407815 Y84.589983 Z-1.000000 I-7.323215 J33.869868
G02 X52.522191 Y84.359966 Z-1.000000 I-3.861963 J23.815438
G02 X50.699415 Y84.285183 Z-1.000000 I-1.822776 J22.177107
G02 X48.887088 Y84.404596 Z-1.000000 I0.000000 J13.812551
G02 X47.245015 Y84.742383 Z-1.000000 I1.544067 J11.666285
G02 X45.748518 Y85.346865 Z-1.000000 I2.224099 J7.660786
G02 X44.451015 Y86.215583 Z-1.000000 I3.482471 J6.604686
G02 X43.417795 Y87.333463 Z-1.000000 I4.591372 J5.280078
G02 X42.571415 Y88.755583 Z-1.000000 I6.647917 J4.919459
G02 X42.063007 Y90.374051 Z-1.000000 I6.466864 J2.920519
G02 X41.860215 Y92.565583 Z-1.000000 I11.740348 J2.191532
G02 X42.032208 Y94.615260 Z-1.000000 I12.299250 J-0.000000
G02 X42.469815 Y96.172383 Z-1.000000 I7.499010 J-1.267438
G02 X43.273452 Y97.645996 Z-1.000000 I7.587026 J-3.181656
G02 X44.247815 Y98.763182 Z-1.000000 I5.290906 J-3.631015
G02 X45.455229 Y99.680809 Z-1.000000 I4.672858 J-4.895375
G02 X46.889415 Y100.337982 Z-1.000000 I3.750040 J-6.290390
G02 X48.439549 Y100.749594 Z-1.000000 I3.008184 J-8.204137
G02 X50.191415 Y100.896782 Z-1.000000 I1.751866 J-10.351936
G02 X51.858795 Y100.805691 Z-1.000000 I-0.000000 J-15.305935
G02 X53.899815 Y100.490382 Z-1.000000 I-2.550402 J-23.272418
G01 X53.899815 Y102.928782 Z-1.000000
G03 X53.511973 Y105.714533 Z-1.000000 I-10.198529 J-0.000000
G03 X52.731415 Y107.043582 Z-1.000000 I-2.946176 J-0.836569
G03 X51.465979 Y107.865997 Z-1.000000 I-2.378653 J-2.275234
G03 X49.480215 Y108.211982 Z-1.000000 I-1.985764 J-5.525605
G03 X48.319533 Y108.146246 Z-1.000000 I0.000000 J-10.279739
G03 X47.245015 Y107.957982 Z-1.000000 I1.022008 J-8.993674
G03 X46.247211 Y107.696732 Z-1.000000 I1.724557 J-8.622787
G03 X45.060615 Y107.246782 Z-1.000000 I4.121084 J-12.657615
G01 X44.146215 Y110.955182 Z-1.000000
G00 Z1.000000

(End cutting path id: path876)


(Start cutting path id: path876)
(Change tool to Cylindrical cutter)

G00 Z1.000000
G00 X46.229015 Y92.616383

G01 Z-1.000000 F100.0(Penetrate)
G03 X46.601244 Y90.443327 Z-1.000000 I6.529221 J0.000000 F400.000000
G03 X47.448215 Y89.161983 Z-1.000000 I2.988359 J1.054715
G03 X48.796634 Y88.376580 Z-1.000000 I2.476622 J2.701770
G03 X50.902615 Y88.044383 Z-1.000000 I2.105981 J6.509395
G03 X52.265506 Y88.124950 Z-1.000000 I0.000000 J11.567791
G03 X53.899815 Y88.399983 Z-1.000000 I-2.008264 J16.926794
G01 X53.899815 Y96.883583 Z-1.000000
G03 X52.362900 Y97.191432 Z-1.000000 I-3.211750 J-12.044062
G03 X50.902615 Y97.289983 Z-1.000000 I-1.460285 J-10.769605
G03 X49.946927 Y97.223933 Z-1.000000 I0.000000 J-6.947005
G03 X49.073815 Y97.035983 Z-1.000000 I0.830666 J-5.980794
G03 X48.256856 Y96.740203 Z-1.000000 I0.857644 J-3.644986
G03 X47.549815 Y96.273983 Z-1.000000 I1.591105 J-3.182211
G03 X47.030640 Y95.700952 Z-1.000000 I1.774602 J-2.129522
G03 X46.584615 Y94.851583 Z-1.000000 I3.530842 J-2.395929
G03 X46.335768 Y93.966864 Z-1.000000 I3.658107 J-1.506279
G03 X46.229015 Y92.616383 Z-1.000000 I8.488741 J-1.350481
G01 X46.229015 Y92.616383 Z-1.000000
G00 Z1.000000

(End cutting path id: path876)


(Start cutting path id: path876)
(Change tool to Cylindrical cutter)

G00 Z1.000000
G00 X46.229015 Y92.616383

G01 Z-1.000000 F100.0(Penetrate)
G03 X46.601244 Y90.443327 Z-1.000000 I6.529221 J0.000000 F400.000000
G03 X47.448215 Y89.161983 Z-1.000000 I2.988359 J1.054715
G03 X48.796634 Y88.376580 Z-1.000000 I2.476622 J2.701770
G03 X50.902615 Y88.044383 Z-1.000000 I2.105981 J6.509395
G03 X52.265506 Y88.124950 Z-1.000000 I0.000000 J11.567791
G03 X53.899815 Y88.399983 Z-1.000000 I-2.008264 J16.926794
G01 X53.899815 Y96.883583 Z-1.000000
G03 X52.362900 Y97.191432 Z-1.000000 I-3.211750 J-12.044062
G03 X50.902615 Y97.289983 Z-1.000000 I-1.460285 J-10.769605
G03 X49.946927 Y97.223933 Z-1.000000 I0.000000 J-6.947005
G03 X49.073815 Y97.035983 Z-1.000000 I0.830666 J-5.980794
G03 X48.256856 Y96.740203 Z-1.000000 I0.857644 J-3.644986
G03 X47.549815 Y96.273983 Z-1.000000 I1.591105 J-3.182211
G03 X47.030640 Y95.700952 Z-1.000000 I1.774602 J-2.129522
G03 X46.584615 Y94.851583 Z-1.000000 I3.530842 J-2.395929
G03 X46.335768 Y93.966864 Z-1.000000 I3.658107 J-1.506279
G03 X46.229015 Y92.616383 Z-1.000000 I8.488741 J-1.350481
G01 X46.229015 Y92.616383 Z-1.000000
G00 Z1.000000

(End cutting path id: path876)


(Start cutting path id: path874)
(Change tool to Cylindrical cutter)

G00 Z1.000000
G00 X22.621303 Y88.653983

G01 Z-1.000000 F100.0(Penetrate)
G03 X23.842963 Y88.541098 Z-1.000000 I2.362372 J18.898973 F400.000000
G03 X25.161303 Y88.501583 Z-1.000000 I1.318340 J21.972332
G03 X26.722750 Y88.598795 Z-1.000000 I-0.000000 J12.588789
G03 X28.006103 Y88.857183 Z-1.000000 I-1.093308 J8.746461
G03 X29.255492 Y89.345126 Z-1.000000 I-1.597829 J5.934795
G03 X30.241303 Y90.025583 Z-1.000000 I-2.270807 J4.344153
G03 X31.025621 Y90.975216 Z-1.000000 I-3.429308 J3.631032
G03 X31.663703 Y92.260783 Z-1.000000 I-5.721548 J3.640985
G03 X32.021346 Y93.659332 Z-1.000000 I-6.498293 J2.406775
G03 X32.171703 Y95.715183 Z-1.000000 I-13.979784 J2.055851
G03 X31.524966 Y99.417544 Z-1.000000 I-10.920787 J0.000000
G03 X30.139703 Y101.353982 Z-1.000000 I-4.123037 J-1.485779
G03 X27.937410 Y102.494115 Z-1.000000 I-3.956884 J-4.946105
G03 X24.500903 Y102.979582 Z-1.000000 I-3.436507 J-11.920385
G01 X22.621303 Y102.979582 Z-1.000000
G01 X22.621303 Y88.653983 Z-1.000000
G00 Z1.000000

(End cutting path id: path874)


(Start cutting path id: path874)
(Change tool to Cylindrical cutter)

G00 Z1.000000
G00 X22.621303 Y88.653983

G01 Z-1.000000 F100.0(Penetrate)
G03 X23.842963 Y88.541098 Z-1.000000 I2.362372 J18.898973 F400.000000
G03 X25.161303 Y88.501583 Z-1.000000 I1.318340 J21.972332
G03 X26.722750 Y88.598795 Z-1.000000 I-0.000000 J12.588789
G03 X28.006103 Y88.857183 Z-1.000000 I-1.093308 J8.746461
G03 X29.255492 Y89.345126 Z-1.000000 I-1.597829 J5.934795
G03 X30.241303 Y90.025583 Z-1.000000 I-2.270807 J4.344153
G03 X31.025621 Y90.975216 Z-1.000000 I-3.429308 J3.631032
G03 X31.663703 Y92.260783 Z-1.000000 I-5.721548 J3.640985
G03 X32.021346 Y93.659332 Z-1.000000 I-6.498293 J2.406775
G03 X32.171703 Y95.715183 Z-1.000000 I-13.979784 J2.055851
G03 X31.524966 Y99.417544 Z-1.000000 I-10.920787 J0.000000
G03 X30.139703 Y101.353982 Z-1.000000 I-4.123037 J-1.485779
G03 X27.937410 Y102.494115 Z-1.000000 I-3.956884 J-4.946105
G03 X24.500903 Y102.979582 Z-1.000000 I-3.436507 J-11.920385
G01 X22.621303 Y102.979582 Z-1.000000
G01 X22.621303 Y88.653983 Z-1.000000
G00 Z1.000000

(End cutting path id: path874)


(Start cutting path id: path874)
(Change tool to Cylindrical cutter)

G00 Z1.000000
G00 X18.049303 Y120.048382

G01 Z-1.000000 F100.0(Penetrate)
G01 X33.848103 Y120.048382 Z-1.000000 F400.000000
G01 X33.848103 Y116.136782 Z-1.000000
G01 X22.621303 Y116.136782 Z-1.000000
G01 X22.621303 Y106.992782 Z-1.000000
G01 X24.805703 Y106.992782 Z-1.000000
G02 X27.526677 Y106.826812 Z-1.000000 I-0.000000 J-22.387254
G02 X29.784103 Y106.383182 Z-1.000000 I-1.937969 J-15.826746
G02 X31.902128 Y105.554639 Z-1.000000 I-2.811251 J-10.307921
G02 X33.594103 Y104.401982 Z-1.000000 I-3.994296 J-7.681338
G02 X34.989845 Y102.912712 Z-1.000000 I-4.764373 J-5.863844
G02 X36.083303 Y100.896782 Z-1.000000 I-7.777187 J-5.522930
G02 X36.735535 Y98.709370 Z-1.000000 I-9.133298 J-3.914271
G02 X36.997703 Y95.715183 Z-1.000000 I-16.967057 J-2.994187
G02 X36.751236 Y92.765972 Z-1.000000 I-17.768249 J-0.000000
G02 X36.134103 Y90.584383 Z-1.000000 I-10.283069 J1.730814
G02 X35.060194 Y88.600743 Z-1.000000 I-9.387411 J3.799667
G02 X33.695703 Y87.079183 Z-1.000000 I-6.824809 J4.747693
G02 X32.016560 Y85.951328 Z-1.000000 I-6.117925 J7.294449
G02 X29.936503 Y85.097983 Z-1.000000 I-5.483778 J10.405118
G02 X27.729544 Y84.653142 Z-1.000000 I-4.134599 J14.815647
G02 X25.110503 Y84.488383 Z-1.000000 I-2.619041 J20.734078
G02 X21.630678 Y84.700388 Z-1.000000 I-0.000000 J28.664694
G02 X18.049303 Y85.351983 Z-1.000000 I3.793817 J31.020029
G01 X18.049303 Y120.048382 Z-1.000000
G00 Z1.000000

(End cutting path id: path874)


(Start cutting path id: path874)
(Change tool to Cylindrical cutter)

G00 Z1.000000
G00 X18.049303 Y120.048382

G01 Z-1.000000 F100.0(Penetrate)
G01 X33.848103 Y120.048382 Z-1.000000 F400.000000
G01 X33.848103 Y116.136782 Z-1.000000
G01 X22.621303 Y116.136782 Z-1.000000
G01 X22.621303 Y106.992782 Z-1.000000
G01 X24.805703 Y106.992782 Z-1.000000
G02 X27.526677 Y106.826812 Z-1.000000 I-0.000000 J-22.387254
G02 X29.784103 Y106.383182 Z-1.000000 I-1.937969 J-15.826746
G02 X31.902128 Y105.554639 Z-1.000000 I-2.811251 J-10.307921
G02 X33.594103 Y104.401982 Z-1.000000 I-3.994296 J-7.681338
G02 X34.989845 Y102.912712 Z-1.000000 I-4.764373 J-5.863844
G02 X36.083303 Y100.896782 Z-1.000000 I-7.777187 J-5.522930
G02 X36.735535 Y98.709370 Z-1.000000 I-9.133298 J-3.914271
G02 X36.997703 Y95.715183 Z-1.000000 I-16.967057 J-2.994187
G02 X36.751236 Y92.765972 Z-1.000000 I-17.768249 J-0.000000
G02 X36.134103 Y90.584383 Z-1.000000 I-10.283069 J1.730814
G02 X35.060194 Y88.600743 Z-1.000000 I-9.387411 J3.799667
G02 X33.695703 Y87.079183 Z-1.000000 I-6.824809 J4.747693
G02 X32.016560 Y85.951328 Z-1.000000 I-6.117925 J7.294449
G02 X29.936503 Y85.097983 Z-1.000000 I-5.483778 J10.405118
G02 X27.729544 Y84.653142 Z-1.000000 I-4.134599 J14.815647
G02 X25.110503 Y84.488383 Z-1.000000 I-2.619041 J20.734078
G02 X21.630678 Y84.700388 Z-1.000000 I-0.000000 J28.664694
G02 X18.049303 Y85.351983 Z-1.000000 I3.793817 J31.020029
G01 X18.049303 Y120.048382 Z-1.000000
G00 Z1.000000

(End cutting path id: path874)


(Start cutting path id: path882)
(Change tool to Cylindrical cutter)

G00 Z1.000000
G00 X38.115303 Y54.123873

G01 Z-1.000000 F100.0(Penetrate)
G01 X38.115303 Y18.919470 Z-1.000000 F400.000000
G01 X33.543303 Y18.919470 Z-1.000000
G01 X33.543303 Y50.212273 Z-1.000000
G01 X22.621303 Y50.212273 Z-1.000000
G01 X22.621303 Y18.919470 Z-1.000000
G01 X18.049303 Y18.919470 Z-1.000000
G01 X18.049303 Y54.123873 Z-1.000000
G01 X38.115303 Y54.123873 Z-1.000000
G00 Z1.000000

(End cutting path id: path882)


(Start cutting path id: path882)
(Change tool to Cylindrical cutter)

G00 Z1.000000
G00 X38.115303 Y54.123873

G01 Z-1.000000 F100.0(Penetrate)
G01 X38.115303 Y18.919470 Z-1.000000 F400.000000
G01 X33.543303 Y18.919470 Z-1.000000
G01 X33.543303 Y50.212273 Z-1.000000
G01 X22.621303 Y50.212273 Z-1.000000
G01 X22.621303 Y18.919470 Z-1.000000
G01 X18.049303 Y18.919470 Z-1.000000
G01 X18.049303 Y54.123873 Z-1.000000
G01 X38.115303 Y54.123873 Z-1.000000
G00 Z1.000000

(End cutting path id: path882)


(Start cutting path id: path884)
(Change tool to Cylindrical cutter)

G00 Z1.000000
G00 X46.725902 Y45.030674

G01 Z-1.000000 F100.0(Penetrate)
G02 X48.068153 Y45.520646 Z-1.000000 I5.544100 J-13.104259 F400.000000
G02 X49.519902 Y45.894273 Z-1.000000 I4.624686 J-14.962237
G02 X51.004409 Y46.154838 Z-1.000000 I2.804351 J-11.618024
G02 X52.720302 Y46.249873 Z-1.000000 I1.715893 J-15.443034
G02 X56.021570 Y45.634895 Z-1.000000 I-0.000000 J-9.168267
G02 X58.511502 Y44.014674 Z-1.000000 I-2.583524 J-6.693680
G02 X60.050830 Y41.537338 Z-1.000000 I-4.272071 J-4.371422
G02 X60.746702 Y37.156674 Z-1.000000 I-13.440673 J-4.380664
G01 X60.746702 Y19.478270 Z-1.000000
G02 X58.906220 Y19.024082 Z-1.000000 I-8.747725 J31.491809
G02 X56.987502 Y18.665470 Z-1.000000 I-7.323215 J33.869868
G02 X55.101878 Y18.435453 Z-1.000000 I-3.861963 J23.815438
G02 X53.279102 Y18.360670 Z-1.000000 I-1.822776 J22.177107
G02 X51.466775 Y18.480083 Z-1.000000 I0.000000 J13.812551
G02 X49.824702 Y18.817870 Z-1.000000 I1.544067 J11.666285
G02 X48.328205 Y19.422352 Z-1.000000 I2.224099 J7.660786
G02 X47.030702 Y20.291070 Z-1.000000 I3.482471 J6.604686
G02 X45.997482 Y21.408950 Z-1.000000 I4.591372 J5.280078
G02 X45.151102 Y22.831070 Z-1.000000 I6.647917 J4.919459
G02 X44.642694 Y24.449538 Z-1.000000 I6.466864 J2.920519
G02 X44.439902 Y26.641070 Z-1.000000 I11.740348 J2.191532
G02 X44.611894 Y28.690747 Z-1.000000 I12.299264 J-0.000000
G02 X45.049502 Y30.247874 Z-1.000000 I7.499053 J-1.267444
G02 X45.853139 Y31.721487 Z-1.000000 I7.587033 J-3.181659
G02 X46.827502 Y32.838674 Z-1.000000 I5.290916 J-3.631021
G02 X48.034916 Y33.756301 Z-1.000000 I4.672858 J-4.895375
G02 X49.469102 Y34.413474 Z-1.000000 I3.750040 J-6.290390
G02 X51.019236 Y34.825086 Z-1.000000 I3.008184 J-8.204137
G02 X52.771102 Y34.972274 Z-1.000000 I1.751866 J-10.351936
G02 X54.438482 Y34.881183 Z-1.000000 I-0.000000 J-15.305935
G02 X56.479502 Y34.565874 Z-1.000000 I-2.550402 J-23.272418
G01 X56.479502 Y37.004274 Z-1.000000
G03 X56.091660 Y39.790025 Z-1.000000 I-10.198529 J-0.000000
G03 X55.311102 Y41.119074 Z-1.000000 I-2.946176 J-0.836569
G03 X54.045666 Y41.941489 Z-1.000000 I-2.378653 J-2.275234
G03 X52.059902 Y42.287474 Z-1.000000 I-1.985764 J-5.525605
G03 X50.899220 Y42.221738 Z-1.000000 I0.000000 J-10.279739
G03 X49.824702 Y42.033474 Z-1.000000 I1.022008 J-8.993674
G03 X48.826898 Y41.772224 Z-1.000000 I1.724557 J-8.622787
G03 X47.640302 Y41.322274 Z-1.000000 I4.121084 J-12.657615
G01 X46.725902 Y45.030674 Z-1.000000
G00 Z1.000000

(End cutting path id: path884)


(Start cutting path id: path884)
(Change tool to Cylindrical cutter)

G00 Z1.000000
G00 X46.725902 Y45.030674

G01 Z-1.000000 F100.0(Penetrate)
G02 X48.068153 Y45.520646 Z-1.000000 I5.544100 J-13.104259 F400.000000
G02 X49.519902 Y45.894273 Z-1.000000 I4.624686 J-14.962237
G02 X51.004409 Y46.154838 Z-1.000000 I2.804351 J-11.618024
G02 X52.720302 Y46.249873 Z-1.000000 I1.715893 J-15.443034
G02 X56.021570 Y45.634895 Z-1.000000 I-0.000000 J-9.168267
G02 X58.511502 Y44.014674 Z-1.000000 I-2.583524 J-6.693680
G02 X60.050830 Y41.537338 Z-1.000000 I-4.272071 J-4.371422
G02 X60.746702 Y37.156674 Z-1.000000 I-13.440673 J-4.380664
G01 X60.746702 Y19.478270 Z-1.000000
G02 X58.906220 Y19.024082 Z-1.000000 I-8.747725 J31.491809
G02 X56.987502 Y18.665470 Z-1.000000 I-7.323215 J33.869868
G02 X55.101878 Y18.435453 Z-1.000000 I-3.861963 J23.815438
G02 X53.279102 Y18.360670 Z-1.000000 I-1.822776 J22.177107
G02 X51.466775 Y18.480083 Z-1.000000 I0.000000 J13.812551
G02 X49.824702 Y18.817870 Z-1.000000 I1.544067 J11.666285
G02 X48.328205 Y19.422352 Z-1.000000 I2.224099 J7.660786
G02 X47.030702 Y20.291070 Z-1.000000 I3.482471 J6.604686
G02 X45.997482 Y21.408950 Z-1.000000 I4.591372 J5.280078
G02 X45.151102 Y22.831070 Z-1.000000 I6.647917 J4.919459
G02 X44.642694 Y24.449538 Z-1.000000 I6.466864 J2.920519
G02 X44.439902 Y26.641070 Z-1.000000 I11.740348 J2.191532
G02 X44.611894 Y28.690747 Z-1.000000 I12.299264 J-0.000000
G02 X45.049502 Y30.247874 Z-1.000000 I7.499053 J-1.267444
G02 X45.853139 Y31.721487 Z-1.000000 I7.587033 J-3.181659
G02 X46.827502 Y32.838674 Z-1.000000 I5.290916 J-3.631021
G02 X48.034916 Y33.756301 Z-1.000000 I4.672858 J-4.895375
G02 X49.469102 Y34.413474 Z-1.000000 I3.750040 J-6.290390
G02 X51.019236 Y34.825086 Z-1.000000 I3.008184 J-8.204137
G02 X52.771102 Y34.972274 Z-1.000000 I1.751866 J-10.351936
G02 X54.438482 Y34.881183 Z-1.000000 I-0.000000 J-15.305935
G02 X56.479502 Y34.565874 Z-1.000000 I-2.550402 J-23.272418
G01 X56.479502 Y37.004274 Z-1.000000
G03 X56.091660 Y39.790025 Z-1.000000 I-10.198529 J-0.000000
G03 X55.311102 Y41.119074 Z-1.000000 I-2.946176 J-0.836569
G03 X54.045666 Y41.941489 Z-1.000000 I-2.378653 J-2.275234
G03 X52.059902 Y42.287474 Z-1.000000 I-1.985764 J-5.525605
G03 X50.899220 Y42.221738 Z-1.000000 I0.000000 J-10.279739
G03 X49.824702 Y42.033474 Z-1.000000 I1.022008 J-8.993674
G03 X48.826898 Y41.772224 Z-1.000000 I1.724557 J-8.622787
G03 X47.640302 Y41.322274 Z-1.000000 I4.121084 J-12.657615
G01 X46.725902 Y45.030674 Z-1.000000
G00 Z1.000000

(End cutting path id: path884)


(Start cutting path id: path884)
(Change tool to Cylindrical cutter)

G00 Z1.000000
G00 X48.808702 Y26.691870

G01 Z-1.000000 F100.0(Penetrate)
G03 X49.180931 Y24.518814 Z-1.000000 I6.529221 J0.000000 F400.000000
G03 X50.027902 Y23.237470 Z-1.000000 I2.988359 J1.054715
G03 X51.376321 Y22.452067 Z-1.000000 I2.476622 J2.701770
G03 X53.482302 Y22.119870 Z-1.000000 I2.105981 J6.509395
G03 X54.845193 Y22.200437 Z-1.000000 I0.000000 J11.567791
G03 X56.479502 Y22.475470 Z-1.000000 I-2.008264 J16.926794
G01 X56.479502 Y30.959074 Z-1.000000
G03 X54.942587 Y31.266923 Z-1.000000 I-3.211750 J-12.044062
G03 X53.482302 Y31.365474 Z-1.000000 I-1.460285 J-10.769605
G03 X52.526614 Y31.299424 Z-1.000000 I0.000000 J-6.947005
G03 X51.653502 Y31.111474 Z-1.000000 I0.830666 J-5.980794
G03 X50.836543 Y30.815694 Z-1.000000 I0.857644 J-3.644986
G03 X50.129502 Y30.349474 Z-1.000000 I1.591105 J-3.182211
G03 X49.610327 Y29.776440 Z-1.000000 I1.774633 J-2.129542
G03 X49.164302 Y28.927070 Z-1.000000 I3.530867 J-2.395939
G03 X48.915455 Y28.042351 Z-1.000000 I3.658107 J-1.506279
G03 X48.808702 Y26.691870 Z-1.000000 I8.488741 J-1.350481
G01 X48.808702 Y26.691870 Z-1.000000
G00 Z1.000000

(End cutting path id: path884)


(Start cutting path id: path884)
(Change tool to Cylindrical cutter)

G00 Z1.000000
G00 X48.808702 Y26.691870

G01 Z-1.000000 F100.0(Penetrate)
G03 X49.180931 Y24.518814 Z-1.000000 I6.529221 J0.000000 F400.000000
G03 X50.027902 Y23.237470 Z-1.000000 I2.988359 J1.054715
G03 X51.376321 Y22.452067 Z-1.000000 I2.476622 J2.701770
G03 X53.482302 Y22.119870 Z-1.000000 I2.105981 J6.509395
G03 X54.845193 Y22.200437 Z-1.000000 I0.000000 J11.567791
G03 X56.479502 Y22.475470 Z-1.000000 I-2.008264 J16.926794
G01 X56.479502 Y30.959074 Z-1.000000
G03 X54.942587 Y31.266923 Z-1.000000 I-3.211750 J-12.044062
G03 X53.482302 Y31.365474 Z-1.000000 I-1.460285 J-10.769605
G03 X52.526614 Y31.299424 Z-1.000000 I0.000000 J-6.947005
G03 X51.653502 Y31.111474 Z-1.000000 I0.830666 J-5.980794
G03 X50.836543 Y30.815694 Z-1.000000 I0.857644 J-3.644986
G03 X50.129502 Y30.349474 Z-1.000000 I1.591105 J-3.182211
G03 X49.610327 Y29.776440 Z-1.000000 I1.774633 J-2.129542
G03 X49.164302 Y28.927070 Z-1.000000 I3.530867 J-2.395939
G03 X48.915455 Y28.042351 Z-1.000000 I3.658107 J-1.506279
G03 X48.808702 Y26.691870 Z-1.000000 I8.488741 J-1.350481
G01 X48.808702 Y26.691870 Z-1.000000
G00 Z1.000000

(End cutting path id: path884)


(Start cutting path id: path886)
(Change tool to Cylindrical cutter)

G00 Z1.000000
G00 X72.664066 Y22.932670

G01 Z-1.000000 F100.0(Penetrate)
G03 X74.190346 Y22.325955 Z-1.000000 I3.161721 J5.730618 F400.000000
G03 X75.813666 Y22.119870 Z-1.000000 I1.623320 J6.290367
G03 X77.049405 Y22.258527 Z-1.000000 I0.000000 J5.575909
G03 X78.048866 Y22.627870 Z-1.000000 I-0.907328 J3.992241
G03 X78.893449 Y23.260158 Z-1.000000 I-1.560005 J2.964009
G03 X79.674466 Y24.304270 Z-1.000000 I-3.672761 J3.561465
G03 X80.248015 Y25.525187 Z-1.000000 I-5.363803 J3.264924
G03 X80.741266 Y27.403070 Z-1.000000 I-12.300675 J4.234659
G03 X80.991447 Y29.343099 Z-1.000000 I-17.847771 J3.287747
G03 X81.096866 Y32.178274 Z-1.000000 I-38.072387 J2.835175
G03 X80.614358 Y37.529371 Z-1.000000 I-29.913542 J0.000000
G03 X79.674466 Y40.001474 Z-1.000000 I-7.131346 J-1.296608
G03 X77.913749 Y41.716786 Z-1.000000 I-3.896700 J-2.238530
G03 X75.254866 Y42.389074 Z-1.000000 I-2.658883 J-4.921763
G03 X74.697838 Y42.365905 Z-1.000000 I0.000000 J-6.707507
G03 X74.035666 Y42.287474 Z-1.000000 I0.796827 J-9.561922
G03 X73.381490 Y42.201988 Z-1.000000 I0.476058 J-6.188751
G03 X72.664066 Y42.033474 Z-1.000000 I1.410261 J-7.615410
G01 X72.664066 Y22.932670 Z-1.000000
G00 Z1.000000

(End cutting path id: path886)


(Start cutting path id: path886)
(Change tool to Cylindrical cutter)

G00 Z1.000000
G00 X72.664066 Y22.932670

G01 Z-1.000000 F100.0(Penetrate)
G03 X74.190346 Y22.325955 Z-1.000000 I3.161721 J5.730618 F400.000000
G03 X75.813666 Y22.119870 Z-1.000000 I1.623320 J6.290367
G03 X77.049405 Y22.258527 Z-1.000000 I0.000000 J5.575909
G03 X78.048866 Y22.627870 Z-1.000000 I-0.907328 J3.992241
G03 X78.893449 Y23.260158 Z-1.000000 I-1.560005 J2.964009
G03 X79.674466 Y24.304270 Z-1.000000 I-3.672761 J3.561465
G03 X80.248015 Y25.525187 Z-1.000000 I-5.363803 J3.264924
G03 X80.741266 Y27.403070 Z-1.000000 I-12.300675 J4.234659
G03 X80.991447 Y29.343099 Z-1.000000 I-17.847771 J3.287747
G03 X81.096866 Y32.178274 Z-1.000000 I-38.072387 J2.835175
G03 X80.614358 Y37.529371 Z-1.000000 I-29.913542 J0.000000
G03 X79.674466 Y40.001474 Z-1.000000 I-7.131346 J-1.296608
G03 X77.913749 Y41.716786 Z-1.000000 I-3.896700 J-2.238530
G03 X75.254866 Y42.389074 Z-1.000000 I-2.658883 J-4.921763
G03 X74.697838 Y42.365905 Z-1.000000 I0.000000 J-6.707507
G03 X74.035666 Y42.287474 Z-1.000000 I0.796827 J-9.561922
G03 X73.381490 Y42.201988 Z-1.000000 I0.476058 J-6.188751
G03 X72.664066 Y42.033474 Z-1.000000 I1.410261 J-7.615410
G01 X72.664066 Y22.932670 Z-1.000000
G00 Z1.000000

(End cutting path id: path886)


(Start cutting path id: path886)
(Change tool to Cylindrical cutter)

G00 Z1.000000
G00 X72.664066 Y9.521470

G01 Z-1.000000 F100.0(Penetrate)
G01 X68.295266 Y9.521470 Z-1.000000 F400.000000
G01 X68.295266 Y44.878274 Z-1.000000
G02 X69.743382 Y45.405076 Z-1.000000 I5.423607 J-12.655105
G02 X71.495666 Y45.843473 Z-1.000000 I5.462403 J-18.112196
G02 X73.335671 Y46.147801 Z-1.000000 I3.696080 J-16.632361
G02 X75.204066 Y46.249873 Z-1.000000 I1.868395 J-17.049107
G02 X77.935048 Y45.976633 Z-1.000000 I0.000000 J-13.784428
G02 X79.979266 Y45.284674 Z-1.000000 I-1.688577 J-8.354019
G02 X81.813938 Y44.091342 Z-1.000000 I-3.534547 J-7.441151
G02 X83.230466 Y42.490674 Z-1.000000 I-5.121076 J-5.959070
G02 X84.272075 Y40.612223 Z-1.000000 I-7.685586 J-5.489705
G02 X85.059266 Y38.071074 Z-1.000000 I-13.387430 J-5.539626
G02 X85.498389 Y35.460488 Z-1.000000 I-20.007714 J-4.707697
G02 X85.668866 Y32.127474 Z-1.000000 I-32.496887 J-3.333014
G02 X84.981487 Y25.565331 Z-1.000000 I-31.666809 J-0.000000
G02 X83.484466 Y21.815070 Z-1.000000 I-11.603199 J2.457820
G02 X80.769337 Y19.286161 Z-1.000000 I-5.746994 J3.448196
G02 X76.474066 Y18.259070 Z-1.000000 I-4.295271 J8.467820
G02 X75.315262 Y18.329468 Z-1.000000 I-0.000000 J9.572592
G02 X74.391266 Y18.513070 Z-1.000000 I0.763041 J6.256933
G02 X73.495793 Y18.769579 Z-1.000000 I1.676210 J7.542944
G02 X72.664066 Y19.122670 Z-1.000000 I2.419854 J6.856252
G01 X72.664066 Y9.521470 Z-1.000000
G00 Z1.000000

(End cutting path id: path886)


(Start cutting path id: path886)
(Change tool to Cylindrical cutter)

G00 Z1.000000
G00 X72.664066 Y9.521470

G01 Z-1.000000 F100.0(Penetrate)
G01 X68.295266 Y9.521470 Z-1.000000 F400.000000
G01 X68.295266 Y44.878274 Z-1.000000
G02 X69.743382 Y45.405076 Z-1.000000 I5.423607 J-12.655105
G02 X71.495666 Y45.843473 Z-1.000000 I5.462403 J-18.112196
G02 X73.335671 Y46.147801 Z-1.000000 I3.696080 J-16.632361
G02 X75.204066 Y46.249873 Z-1.000000 I1.868395 J-17.049107
G02 X77.935048 Y45.976633 Z-1.000000 I0.000000 J-13.784428
G02 X79.979266 Y45.284674 Z-1.000000 I-1.688577 J-8.354019
G02 X81.813938 Y44.091342 Z-1.000000 I-3.534547 J-7.441151
G02 X83.230466 Y42.490674 Z-1.000000 I-5.121076 J-5.959070
G02 X84.272075 Y40.612223 Z-1.000000 I-7.685586 J-5.489705
G02 X85.059266 Y38.071074 Z-1.000000 I-13.387430 J-5.539626
G02 X85.498389 Y35.460488 Z-1.000000 I-20.007714 J-4.707697
G02 X85.668866 Y32.127474 Z-1.000000 I-32.496887 J-3.333014
G02 X84.981487 Y25.565331 Z-1.000000 I-31.666809 J-0.000000
G02 X83.484466 Y21.815070 Z-1.000000 I-11.603199 J2.457820
G02 X80.769337 Y19.286161 Z-1.000000 I-5.746994 J3.448196
G02 X76.474066 Y18.259070 Z-1.000000 I-4.295271 J8.467820
G02 X75.315262 Y18.329468 Z-1.000000 I-0.000000 J9.572592
G02 X74.391266 Y18.513070 Z-1.000000 I0.763041 J6.256933
G02 X73.495793 Y18.769579 Z-1.000000 I1.676210 J7.542944
G02 X72.664066 Y19.122670 Z-1.000000 I2.419854 J6.856252
G01 X72.664066 Y9.521470 Z-1.000000
G00 Z1.000000

(End cutting path id: path886)


(Footer)
M5
G00 X0.0000 Y0.0000
M2
(Using default footer. To add your own footer create file "footer" in the output dir.)
(end)
%