(Exported by FreeCAD)
(Post Processor: grbl_post)
(Output Time:2020-07-04 07:50:37.867390)
(begin preamble)
G17 G90
G21
(begin operation: T1: Chine_Mill_Defaut)
(Path: T1: Chine_Mill_Defaut)
(T1: Chine_Mill_Defaut)
(begin toolchange)
; M6 T1
M3 S500.0000
(finish operation: T1: Chine_Mill_Defaut)
(begin operation: Pocket_Shape)
(Path: Pocket_Shape)
(Pocket_Shape)
G0 Z26.6000
G0 X88.5500 Y58.0500
G0 Z24.6000
G1 X88.5500 Y58.0500 Z21.6000 F60.00
G1 X88.5500 Y1.4500 Z21.6000 F60.00
G1 X1.4500 Y1.4500 Z21.6000 F60.00
G1 X1.4500 Y58.0500 Z21.6000 F60.00
G1 X88.5500 Y58.0500 Z21.6000 F60.00
G0 X88.5500 Y58.0500 Z26.6000
G0 X88.5500 Y1.4500 Z26.6000
G1 X88.5500 Y1.4500 Z21.6000 F60.00
G1 X88.5500 Y3.5006 Z21.6000 F60.00
G1 X86.4994 Y1.4500 Z21.6000 F60.00
G1 X84.4488 Y1.4500 Z21.6000 F60.00
G1 X88.5500 Y5.5512 Z21.6000 F60.00
G1 X88.5500 Y7.6018 Z21.6000 F60.00
G1 X82.3982 Y1.4500 Z21.6000 F60.00
G1 X80.3476 Y1.4500 Z21.6000 F60.00
G1 X88.5500 Y9.6524 Z21.6000 F60.00
G1 X88.5500 Y11.7030 Z21.6000 F60.00
G1 X78.2970 Y1.4500 Z21.6000 F60.00
G1 X76.2463 Y1.4500 Z21.6000 F60.00
G1 X88.5500 Y13.7537 Z21.6000 F60.00
G1 X88.5500 Y15.8043 Z21.6000 F60.00
G1 X74.1957 Y1.4500 Z21.6000 F60.00
G1 X72.1451 Y1.4500 Z21.6000 F60.00
G1 X88.5500 Y17.8549 Z21.6000 F60.00
G1 X88.5500 Y19.9055 Z21.6000 F60.00
G1 X70.0945 Y1.4500 Z21.6000 F60.00
G1 X68.0439 Y1.4500 Z21.6000 F60.00
G1 X88.5500 Y21.9561 Z21.6000 F60.00
G1 X88.5500 Y24.0067 Z21.6000 F60.00
G1 X65.9933 Y1.4500 Z21.6000 F60.00
G1 X63.9427 Y1.4500 Z21.6000 F60.00
G1 X88.5500 Y26.0573 Z21.6000 F60.00
G1 X88.5500 Y28.1079 Z21.6000 F60.00
G1 X61.8921 Y1.4500 Z21.6000 F60.00
G1 X59.8415 Y1.4500 Z21.6000 F60.00
G1 X88.5500 Y30.1585 Z21.6000 F60.00
G1 X88.5500 Y32.2091 Z21.6000 F60.00
G1 X57.7909 Y1.4500 Z21.6000 F60.00
G1 X55.7402 Y1.4500 Z21.6000 F60.00
G1 X88.5500 Y34.2598 Z21.6000 F60.00
G1 X88.5500 Y36.3104 Z21.6000 F60.00
G1 X53.6896 Y1.4500 Z21.6000 F60.00
G1 X51.6390 Y1.4500 Z21.6000 F60.00
G1 X88.5500 Y38.3610 Z21.6000 F60.00
G1 X88.5500 Y40.4116 Z21.6000 F60.00
G1 X49.5884 Y1.4500 Z21.6000 F60.00
G1 X47.5378 Y1.4500 Z21.6000 F60.00
G1 X88.5500 Y42.4622 Z21.6000 F60.00
G1 X88.5500 Y44.5128 Z21.6000 F60.00
G1 X45.4872 Y1.4500 Z21.6000 F60.00
G1 X43.4366 Y1.4500 Z21.6000 F60.00
G1 X88.5500 Y46.5634 Z21.6000 F60.00
G1 X88.5500 Y48.6140 Z21.6000 F60.00
G1 X41.3860 Y1.4500 Z21.6000 F60.00
G1 X39.3354 Y1.4500 Z21.6000 F60.00
G1 X88.5500 Y50.6646 Z21.6000 F60.00
G1 X88.5500 Y52.7152 Z21.6000 F60.00
G1 X37.2848 Y1.4500 Z21.6000 F60.00
G1 X35.2341 Y1.4500 Z21.6000 F60.00
G1 X88.5500 Y54.7659 Z21.6000 F60.00
G1 X88.5500 Y56.8165 Z21.6000 F60.00
G1 X33.1835 Y1.4500 Z21.6000 F60.00
G1 X31.1329 Y1.4500 Z21.6000 F60.00
G1 X87.7329 Y58.0500 Z21.6000 F60.00
G1 X85.6823 Y58.0500 Z21.6000 F60.00
G1 X29.0823 Y1.4500 Z21.6000 F60.00
G1 X27.0317 Y1.4500 Z21.6000 F60.00
G1 X83.6317 Y58.0500 Z21.6000 F60.00
G1 X81.5811 Y58.0500 Z21.6000 F60.00
G1 X24.9811 Y1.4500 Z21.6000 F60.00
G1 X22.9305 Y1.4500 Z21.6000 F60.00
G1 X79.5305 Y58.0500 Z21.6000 F60.00
G1 X77.4799 Y58.0500 Z21.6000 F60.00
G1 X20.8799 Y1.4500 Z21.6000 F60.00
G1 X18.8293 Y1.4500 Z21.6000 F60.00
G1 X75.4293 Y58.0500 Z21.6000 F60.00
G1 X73.3787 Y58.0500 Z21.6000 F60.00
G1 X16.7787 Y1.4500 Z21.6000 F60.00
G1 X14.7281 Y1.4500 Z21.6000 F60.00
G1 X71.3281 Y58.0500 Z21.6000 F60.00
G1 X69.2774 Y58.0500 Z21.6000 F60.00
G1 X12.6774 Y1.4500 Z21.6000 F60.00
G1 X10.6268 Y1.4500 Z21.6000 F60.00
G1 X67.2268 Y58.0500 Z21.6000 F60.00
G1 X65.1762 Y58.0500 Z21.6000 F60.00
G1 X8.5762 Y1.4500 Z21.6000 F60.00
G1 X6.5256 Y1.4500 Z21.6000 F60.00
G1 X63.1256 Y58.0500 Z21.6000 F60.00
G1 X61.0750 Y58.0500 Z21.6000 F60.00
G1 X4.4750 Y1.4500 Z21.6000 F60.00
G1 X2.4244 Y1.4500 Z21.6000 F60.00
G1 X59.0244 Y58.0500 Z21.6000 F60.00
G1 X56.9738 Y58.0500 Z21.6000 F60.00
G1 X1.4500 Y2.5262 Z21.6000 F60.00
G1 X1.4500 Y4.5768 Z21.6000 F60.00
G1 X54.9232 Y58.0500 Z21.6000 F60.00
G1 X52.8726 Y58.0500 Z21.6000 F60.00
G1 X1.4500 Y6.6274 Z21.6000 F60.00
G1 X1.4500 Y8.6780 Z21.6000 F60.00
G1 X50.8220 Y58.0500 Z21.6000 F60.00
G1 X48.7713 Y58.0500 Z21.6000 F60.00
G1 X1.4500 Y10.7287 Z21.6000 F60.00
G1 X1.4500 Y12.7793 Z21.6000 F60.00
G1 X46.7207 Y58.0500 Z21.6000 F60.00
G1 X44.6701 Y58.0500 Z21.6000 F60.00
G1 X1.4500 Y14.8299 Z21.6000 F60.00
G1 X1.4500 Y16.8805 Z21.6000 F60.00
G1 X42.6195 Y58.0500 Z21.6000 F60.00
G1 X40.5689 Y58.0500 Z21.6000 F60.00
G1 X1.4500 Y18.9311 Z21.6000 F60.00
G1 X1.4500 Y20.9817 Z21.6000 F60.00
G1 X38.5183 Y58.0500 Z21.6000 F60.00
G1 X36.4677 Y58.0500 Z21.6000 F60.00
G1 X1.4500 Y23.0323 Z21.6000 F60.00
G1 X1.4500 Y25.0829 Z21.6000 F60.00
G1 X34.4171 Y58.0500 Z21.6000 F60.00
G1 X32.3665 Y58.0500 Z21.6000 F60.00
G1 X1.4500 Y27.1335 Z21.6000 F60.00
G1 X1.4500 Y29.1841 Z21.6000 F60.00
G1 X30.3159 Y58.0500 Z21.6000 F60.00
G1 X28.2652 Y58.0500 Z21.6000 F60.00
G1 X1.4500 Y31.2348 Z21.6000 F60.00
G1 X1.4500 Y33.2854 Z21.6000 F60.00
G1 X26.2146 Y58.0500 Z21.6000 F60.00
G1 X24.1640 Y58.0500 Z21.6000 F60.00
G1 X1.4500 Y35.3360 Z21.6000 F60.00
G1 X1.4500 Y37.3866 Z21.6000 F60.00
G1 X22.1134 Y58.0500 Z21.6000 F60.00
G1 X20.0628 Y58.0500 Z21.6000 F60.00
G1 X1.4500 Y39.4372 Z21.6000 F60.00
G1 X1.4500 Y41.4878 Z21.6000 F60.00
G1 X18.0122 Y58.0500 Z21.6000 F60.00
G1 X15.9616 Y58.0500 Z21.6000 F60.00
G1 X1.4500 Y43.5384 Z21.6000 F60.00
G1 X1.4500 Y45.5890 Z21.6000 F60.00
G1 X13.9110 Y58.0500 Z21.6000 F60.00
G1 X11.8604 Y58.0500 Z21.6000 F60.00
G1 X1.4500 Y47.6396 Z21.6000 F60.00
G1 X1.4500 Y49.6902 Z21.6000 F60.00
G1 X9.8098 Y58.0500 Z21.6000 F60.00
G1 X7.7592 Y58.0500 Z21.6000 F60.00
G1 X1.4500 Y51.7408 Z21.6000 F60.00
G1 X1.4500 Y53.7915 Z21.6000 F60.00
G1 X5.7085 Y58.0500 Z21.6000 F60.00
G1 X3.6579 Y58.0500 Z21.6000 F60.00
G1 X1.4500 Y55.8421 Z21.6000 F60.00
G1 X1.4500 Y57.8927 Z21.6000 F60.00
G1 X1.4500 Y58.0500 Z21.6000 F60.00
G1 X1.6073 Y58.0500 Z21.6000 F60.00
G1 X1.4500 Y57.8927 Z21.6000 F60.00
G0 Z26.6000
(finish operation: Pocket_Shape)
(begin postamble)
M5
G17 G90
; M2
