(Exported by FreeCAD)
(Post Processor: grbl_post)
(Output Time:2020-07-04 07:51:21.918731)
(begin preamble)
G17 G90
G21
(begin operation: T1: Chine_Mill_Defaut001)
(Path: T1: Chine_Mill_Defaut001)
(T1: Chine_Mill_Defaut001)
(begin toolchange)
; M6 T1
M3 S500.0000
(finish operation: T1: Chine_Mill_Defaut001)
(begin operation: Pocket_Shape001)
(Path: Pocket_Shape001)
(Pocket_Shape001)
G0 Z26.0000
G0 X86.5500 Y55.0500
G0 Z24.0000
G1 X86.5500 Y55.0500 Z19.9000 F60.00
G1 X86.5500 Y51.0500 Z19.9000 F60.00
G1 X83.9537 Y51.0500 Z19.9000 F60.00
G1 X83.9537 Y53.6000 Z19.9000 F60.00
G1 X85.1000 Y53.6000 Z19.9000 F60.00
G1 X83.9537 Y53.6000 Z19.9000 F60.00
G1 X83.9537 Y52.5000 Z19.9000 F60.00
G1 X85.1000 Y52.5000 Z19.9000 F60.00
G1 X85.1000 Y53.6000 Z19.9000 F60.00
G1 X85.1000 Y52.5000 Z19.9000 F60.00
G1 X83.9537 Y52.5000 Z19.9000 F60.00
G1 X83.9537 Y51.0500 Z19.9000 F60.00
G1 X82.5037 Y51.0500 Z19.9000 F60.00
G1 X82.5037 Y55.0500 Z19.9000 F60.00
G1 X86.5500 Y55.0500 Z19.9000 F60.00
G1 X86.5500 Y55.0500 Z18.8000 F60.00
G1 X86.5500 Y51.0500 Z18.8000 F60.00
G1 X83.9537 Y51.0500 Z18.8000 F60.00
G1 X83.9537 Y53.6000 Z18.8000 F60.00
G1 X85.1000 Y53.6000 Z18.8000 F60.00
G1 X83.9537 Y53.6000 Z18.8000 F60.00
G1 X83.9537 Y52.5000 Z18.8000 F60.00
G1 X85.1000 Y52.5000 Z18.8000 F60.00
G1 X85.1000 Y53.6000 Z18.8000 F60.00
G1 X85.1000 Y52.5000 Z18.8000 F60.00
G1 X83.9537 Y52.5000 Z18.8000 F60.00
G1 X83.9537 Y51.0500 Z18.8000 F60.00
G1 X82.5037 Y51.0500 Z18.8000 F60.00
G1 X82.5037 Y55.0500 Z18.8000 F60.00
G1 X86.5500 Y55.0500 Z18.8000 F60.00
G1 X86.5500 Y55.0500 Z17.7000 F60.00
G1 X86.5500 Y51.0500 Z17.7000 F60.00
G1 X83.9537 Y51.0500 Z17.7000 F60.00
G1 X83.9537 Y53.6000 Z17.7000 F60.00
G1 X85.1000 Y53.6000 Z17.7000 F60.00
G1 X83.9537 Y53.6000 Z17.7000 F60.00
G1 X83.9537 Y52.5000 Z17.7000 F60.00
G1 X85.1000 Y52.5000 Z17.7000 F60.00
G1 X85.1000 Y53.6000 Z17.7000 F60.00
G1 X85.1000 Y52.5000 Z17.7000 F60.00
G1 X83.9537 Y52.5000 Z17.7000 F60.00
G1 X83.9537 Y51.0500 Z17.7000 F60.00
G1 X82.5037 Y51.0500 Z17.7000 F60.00
G1 X82.5037 Y55.0500 Z17.7000 F60.00
G1 X86.5500 Y55.0500 Z17.7000 F60.00
G1 X86.5500 Y55.0500 Z16.6000 F60.00
G1 X86.5500 Y51.0500 Z16.6000 F60.00
G1 X83.9537 Y51.0500 Z16.6000 F60.00
G1 X83.9537 Y53.6000 Z16.6000 F60.00
G1 X85.1000 Y53.6000 Z16.6000 F60.00
G1 X83.9537 Y53.6000 Z16.6000 F60.00
G1 X83.9537 Y52.5000 Z16.6000 F60.00
G1 X85.1000 Y52.5000 Z16.6000 F60.00
G1 X85.1000 Y53.6000 Z16.6000 F60.00
G1 X85.1000 Y52.5000 Z16.6000 F60.00
G1 X83.9537 Y52.5000 Z16.6000 F60.00
G1 X83.9537 Y51.0500 Z16.6000 F60.00
G1 X82.5037 Y51.0500 Z16.6000 F60.00
G1 X82.5037 Y55.0500 Z16.6000 F60.00
G1 X86.5500 Y55.0500 Z16.6000 F60.00
G1 X86.5500 Y55.0500 Z15.5000 F60.00
G1 X86.5500 Y51.0500 Z15.5000 F60.00
G1 X83.9537 Y51.0500 Z15.5000 F60.00
G1 X83.9537 Y53.6000 Z15.5000 F60.00
G1 X85.1000 Y53.6000 Z15.5000 F60.00
G1 X83.9537 Y53.6000 Z15.5000 F60.00
G1 X83.9537 Y52.5000 Z15.5000 F60.00
G1 X85.1000 Y52.5000 Z15.5000 F60.00
G1 X85.1000 Y53.6000 Z15.5000 F60.00
G1 X85.1000 Y52.5000 Z15.5000 F60.00
G1 X83.9537 Y52.5000 Z15.5000 F60.00
G1 X83.9537 Y51.0500 Z15.5000 F60.00
G1 X82.5037 Y51.0500 Z15.5000 F60.00
G1 X82.5037 Y55.0500 Z15.5000 F60.00
G1 X86.5500 Y55.0500 Z15.5000 F60.00
G1 X86.5500 Y55.0500 Z14.4000 F60.00
G1 X86.5500 Y51.0500 Z14.4000 F60.00
G1 X83.9537 Y51.0500 Z14.4000 F60.00
G1 X83.9537 Y53.6000 Z14.4000 F60.00
G1 X85.1000 Y53.6000 Z14.4000 F60.00
G1 X83.9537 Y53.6000 Z14.4000 F60.00
G1 X83.9537 Y52.5000 Z14.4000 F60.00
G1 X85.1000 Y52.5000 Z14.4000 F60.00
G1 X85.1000 Y53.6000 Z14.4000 F60.00
G1 X85.1000 Y52.5000 Z14.4000 F60.00
G1 X83.9537 Y52.5000 Z14.4000 F60.00
G1 X83.9537 Y51.0500 Z14.4000 F60.00
G1 X82.5037 Y51.0500 Z14.4000 F60.00
G1 X82.5037 Y55.0500 Z14.4000 F60.00
G1 X86.5500 Y55.0500 Z14.4000 F60.00
G1 X86.5500 Y55.0500 Z13.3000 F60.00
G1 X86.5500 Y51.0500 Z13.3000 F60.00
G1 X83.9537 Y51.0500 Z13.3000 F60.00
G1 X83.9537 Y53.6000 Z13.3000 F60.00
G1 X85.1000 Y53.6000 Z13.3000 F60.00
G1 X83.9537 Y53.6000 Z13.3000 F60.00
G1 X83.9537 Y52.5000 Z13.3000 F60.00
G1 X85.1000 Y52.5000 Z13.3000 F60.00
G1 X85.1000 Y53.6000 Z13.3000 F60.00
G1 X85.1000 Y52.5000 Z13.3000 F60.00
G1 X83.9537 Y52.5000 Z13.3000 F60.00
G1 X83.9537 Y51.0500 Z13.3000 F60.00
G1 X82.5037 Y51.0500 Z13.3000 F60.00
G1 X82.5037 Y55.0500 Z13.3000 F60.00
G1 X86.5500 Y55.0500 Z13.3000 F60.00
G1 X86.5500 Y55.0500 Z12.2000 F60.00
G1 X86.5500 Y51.0500 Z12.2000 F60.00
G1 X83.9537 Y51.0500 Z12.2000 F60.00
G1 X83.9537 Y53.6000 Z12.2000 F60.00
G1 X85.1000 Y53.6000 Z12.2000 F60.00
G1 X83.9537 Y53.6000 Z12.2000 F60.00
G1 X83.9537 Y52.5000 Z12.2000 F60.00
G1 X85.1000 Y52.5000 Z12.2000 F60.00
G1 X85.1000 Y53.6000 Z12.2000 F60.00
G1 X85.1000 Y52.5000 Z12.2000 F60.00
G1 X83.9537 Y52.5000 Z12.2000 F60.00
G1 X83.9537 Y51.0500 Z12.2000 F60.00
G1 X82.5037 Y51.0500 Z12.2000 F60.00
G1 X82.5037 Y55.0500 Z12.2000 F60.00
G1 X86.5500 Y55.0500 Z12.2000 F60.00
G1 X86.5500 Y55.0500 Z11.1000 F60.00
G1 X86.5500 Y51.0500 Z11.1000 F60.00
G1 X83.9537 Y51.0500 Z11.1000 F60.00
G1 X83.9537 Y53.6000 Z11.1000 F60.00
G1 X85.1000 Y53.6000 Z11.1000 F60.00
G1 X83.9537 Y53.6000 Z11.1000 F60.00
G1 X83.9537 Y52.5000 Z11.1000 F60.00
G1 X85.1000 Y52.5000 Z11.1000 F60.00
G1 X85.1000 Y53.6000 Z11.1000 F60.00
G1 X85.1000 Y52.5000 Z11.1000 F60.00
G1 X83.9537 Y52.5000 Z11.1000 F60.00
G1 X83.9537 Y51.0500 Z11.1000 F60.00
G1 X82.5037 Y51.0500 Z11.1000 F60.00
G1 X82.5037 Y55.0500 Z11.1000 F60.00
G1 X86.5500 Y55.0500 Z11.1000 F60.00
G1 X86.5500 Y55.0500 Z10.0000 F60.00
G1 X86.5500 Y51.0500 Z10.0000 F60.00
G1 X83.9537 Y51.0500 Z10.0000 F60.00
G1 X83.9537 Y53.6000 Z10.0000 F60.00
G1 X85.1000 Y53.6000 Z10.0000 F60.00
G1 X83.9537 Y53.6000 Z10.0000 F60.00
G1 X83.9537 Y52.5000 Z10.0000 F60.00
G1 X85.1000 Y52.5000 Z10.0000 F60.00
G1 X85.1000 Y53.6000 Z10.0000 F60.00
G1 X85.1000 Y52.5000 Z10.0000 F60.00
G1 X83.9537 Y52.5000 Z10.0000 F60.00
G1 X83.9537 Y51.0500 Z10.0000 F60.00
G1 X82.5037 Y51.0500 Z10.0000 F60.00
G1 X82.5037 Y55.0500 Z10.0000 F60.00
G1 X86.5500 Y55.0500 Z10.0000 F60.00
G1 X86.5500 Y55.0500 Z8.9000 F60.00
G1 X86.5500 Y51.0500 Z8.9000 F60.00
G1 X83.9537 Y51.0500 Z8.9000 F60.00
G1 X83.9537 Y53.6000 Z8.9000 F60.00
G1 X85.1000 Y53.6000 Z8.9000 F60.00
G1 X83.9537 Y53.6000 Z8.9000 F60.00
G1 X83.9537 Y52.5000 Z8.9000 F60.00
G1 X85.1000 Y52.5000 Z8.9000 F60.00
G1 X85.1000 Y53.6000 Z8.9000 F60.00
G1 X85.1000 Y52.5000 Z8.9000 F60.00
G1 X83.9537 Y52.5000 Z8.9000 F60.00
G1 X83.9537 Y51.0500 Z8.9000 F60.00
G1 X82.5037 Y51.0500 Z8.9000 F60.00
G1 X82.5037 Y55.0500 Z8.9000 F60.00
G1 X86.5500 Y55.0500 Z8.9000 F60.00
G1 X86.5500 Y55.0500 Z7.8000 F60.00
G1 X86.5500 Y51.0500 Z7.8000 F60.00
G1 X83.9537 Y51.0500 Z7.8000 F60.00
G1 X83.9537 Y53.6000 Z7.8000 F60.00
G1 X85.1000 Y53.6000 Z7.8000 F60.00
G1 X83.9537 Y53.6000 Z7.8000 F60.00
G1 X83.9537 Y52.5000 Z7.8000 F60.00
G1 X85.1000 Y52.5000 Z7.8000 F60.00
G1 X85.1000 Y53.6000 Z7.8000 F60.00
G1 X85.1000 Y52.5000 Z7.8000 F60.00
G1 X83.9537 Y52.5000 Z7.8000 F60.00
G1 X83.9537 Y51.0500 Z7.8000 F60.00
G1 X82.5037 Y51.0500 Z7.8000 F60.00
G1 X82.5037 Y55.0500 Z7.8000 F60.00
G1 X86.5500 Y55.0500 Z7.8000 F60.00
G1 X86.5500 Y55.0500 Z6.7000 F60.00
G1 X86.5500 Y51.0500 Z6.7000 F60.00
G1 X83.9537 Y51.0500 Z6.7000 F60.00
G1 X83.9537 Y53.6000 Z6.7000 F60.00
G1 X85.1000 Y53.6000 Z6.7000 F60.00
G1 X83.9537 Y53.6000 Z6.7000 F60.00
G1 X83.9537 Y52.5000 Z6.7000 F60.00
G1 X85.1000 Y52.5000 Z6.7000 F60.00
G1 X85.1000 Y53.6000 Z6.7000 F60.00
G1 X85.1000 Y52.5000 Z6.7000 F60.00
G1 X83.9537 Y52.5000 Z6.7000 F60.00
G1 X83.9537 Y51.0500 Z6.7000 F60.00
G1 X82.5037 Y51.0500 Z6.7000 F60.00
G1 X82.5037 Y55.0500 Z6.7000 F60.00
G1 X86.5500 Y55.0500 Z6.7000 F60.00
G1 X86.5500 Y55.0500 Z5.6000 F60.00
G1 X86.5500 Y51.0500 Z5.6000 F60.00
G1 X83.9537 Y51.0500 Z5.6000 F60.00
G1 X83.9537 Y53.6000 Z5.6000 F60.00
G1 X85.1000 Y53.6000 Z5.6000 F60.00
G1 X83.9537 Y53.6000 Z5.6000 F60.00
G1 X83.9537 Y52.5000 Z5.6000 F60.00
G1 X85.1000 Y52.5000 Z5.6000 F60.00
G1 X85.1000 Y53.6000 Z5.6000 F60.00
G1 X85.1000 Y52.5000 Z5.6000 F60.00
G1 X83.9537 Y52.5000 Z5.6000 F60.00
G1 X83.9537 Y51.0500 Z5.6000 F60.00
G1 X82.5037 Y51.0500 Z5.6000 F60.00
G1 X82.5037 Y55.0500 Z5.6000 F60.00
G1 X86.5500 Y55.0500 Z5.6000 F60.00
G1 X86.5500 Y55.0500 Z4.7000 F60.00
G1 X86.5500 Y51.0500 Z4.7000 F60.00
G1 X83.9537 Y51.0500 Z4.7000 F60.00
G1 X83.9537 Y53.6000 Z4.7000 F60.00
G1 X85.1000 Y53.6000 Z4.7000 F60.00
G1 X83.9537 Y53.6000 Z4.7000 F60.00
G1 X83.9537 Y52.5000 Z4.7000 F60.00
G1 X85.1000 Y52.5000 Z4.7000 F60.00
G1 X85.1000 Y53.6000 Z4.7000 F60.00
G1 X85.1000 Y52.5000 Z4.7000 F60.00
G1 X83.9537 Y52.5000 Z4.7000 F60.00
G1 X83.9537 Y51.0500 Z4.7000 F60.00
G1 X82.5037 Y51.0500 Z4.7000 F60.00
G1 X82.5037 Y55.0500 Z4.7000 F60.00
G1 X86.5500 Y55.0500 Z4.7000 F60.00
G0 Z26.0000
G0 X86.5500 Y7.5500
G0 Z24.0000
G1 X86.5500 Y7.5500 Z19.9000 F60.00
G1 X86.5500 Y3.4500 Z19.9000 F60.00
G1 X83.9537 Y3.4500 Z19.9000 F60.00
G1 X83.9537 Y6.1000 Z19.9000 F60.00
G1 X85.1000 Y6.1000 Z19.9000 F60.00
G1 X83.9537 Y6.1000 Z19.9000 F60.00
G1 X83.9537 Y4.9000 Z19.9000 F60.00
G1 X85.1000 Y4.9000 Z19.9000 F60.00
G1 X85.1000 Y6.1000 Z19.9000 F60.00
G1 X85.1000 Y4.9000 Z19.9000 F60.00
G1 X83.9537 Y4.9000 Z19.9000 F60.00
G1 X83.9537 Y3.4500 Z19.9000 F60.00
G1 X82.5037 Y3.4500 Z19.9000 F60.00
G1 X82.5037 Y7.5500 Z19.9000 F60.00
G1 X86.5500 Y7.5500 Z19.9000 F60.00
G1 X86.5500 Y7.5500 Z18.8000 F60.00
G1 X86.5500 Y3.4500 Z18.8000 F60.00
G1 X83.9537 Y3.4500 Z18.8000 F60.00
G1 X83.9537 Y6.1000 Z18.8000 F60.00
G1 X85.1000 Y6.1000 Z18.8000 F60.00
G1 X83.9537 Y6.1000 Z18.8000 F60.00
G1 X83.9537 Y4.9000 Z18.8000 F60.00
G1 X85.1000 Y4.9000 Z18.8000 F60.00
G1 X85.1000 Y6.1000 Z18.8000 F60.00
G1 X85.1000 Y4.9000 Z18.8000 F60.00
G1 X83.9537 Y4.9000 Z18.8000 F60.00
G1 X83.9537 Y3.4500 Z18.8000 F60.00
G1 X82.5037 Y3.4500 Z18.8000 F60.00
G1 X82.5037 Y7.5500 Z18.8000 F60.00
G1 X86.5500 Y7.5500 Z18.8000 F60.00
G1 X86.5500 Y7.5500 Z17.7000 F60.00
G1 X86.5500 Y3.4500 Z17.7000 F60.00
G1 X83.9537 Y3.4500 Z17.7000 F60.00
G1 X83.9537 Y6.1000 Z17.7000 F60.00
G1 X85.1000 Y6.1000 Z17.7000 F60.00
G1 X83.9537 Y6.1000 Z17.7000 F60.00
G1 X83.9537 Y4.9000 Z17.7000 F60.00
G1 X85.1000 Y4.9000 Z17.7000 F60.00
G1 X85.1000 Y6.1000 Z17.7000 F60.00
G1 X85.1000 Y4.9000 Z17.7000 F60.00
G1 X83.9537 Y4.9000 Z17.7000 F60.00
G1 X83.9537 Y3.4500 Z17.7000 F60.00
G1 X82.5037 Y3.4500 Z17.7000 F60.00
G1 X82.5037 Y7.5500 Z17.7000 F60.00
G1 X86.5500 Y7.5500 Z17.7000 F60.00
G1 X86.5500 Y7.5500 Z16.6000 F60.00
G1 X86.5500 Y3.4500 Z16.6000 F60.00
G1 X83.9537 Y3.4500 Z16.6000 F60.00
G1 X83.9537 Y6.1000 Z16.6000 F60.00
G1 X85.1000 Y6.1000 Z16.6000 F60.00
G1 X83.9537 Y6.1000 Z16.6000 F60.00
G1 X83.9537 Y4.9000 Z16.6000 F60.00
G1 X85.1000 Y4.9000 Z16.6000 F60.00
G1 X85.1000 Y6.1000 Z16.6000 F60.00
G1 X85.1000 Y4.9000 Z16.6000 F60.00
G1 X83.9537 Y4.9000 Z16.6000 F60.00
G1 X83.9537 Y3.4500 Z16.6000 F60.00
G1 X82.5037 Y3.4500 Z16.6000 F60.00
G1 X82.5037 Y7.5500 Z16.6000 F60.00
G1 X86.5500 Y7.5500 Z16.6000 F60.00
G1 X86.5500 Y7.5500 Z15.5000 F60.00
G1 X86.5500 Y3.4500 Z15.5000 F60.00
G1 X83.9537 Y3.4500 Z15.5000 F60.00
G1 X83.9537 Y6.1000 Z15.5000 F60.00
G1 X85.1000 Y6.1000 Z15.5000 F60.00
G1 X83.9537 Y6.1000 Z15.5000 F60.00
G1 X83.9537 Y4.9000 Z15.5000 F60.00
G1 X85.1000 Y4.9000 Z15.5000 F60.00
G1 X85.1000 Y6.1000 Z15.5000 F60.00
G1 X85.1000 Y4.9000 Z15.5000 F60.00
G1 X83.9537 Y4.9000 Z15.5000 F60.00
G1 X83.9537 Y3.4500 Z15.5000 F60.00
G1 X82.5037 Y3.4500 Z15.5000 F60.00
G1 X82.5037 Y7.5500 Z15.5000 F60.00
G1 X86.5500 Y7.5500 Z15.5000 F60.00
G1 X86.5500 Y7.5500 Z14.4000 F60.00
G1 X86.5500 Y3.4500 Z14.4000 F60.00
G1 X83.9537 Y3.4500 Z14.4000 F60.00
G1 X83.9537 Y6.1000 Z14.4000 F60.00
G1 X85.1000 Y6.1000 Z14.4000 F60.00
G1 X83.9537 Y6.1000 Z14.4000 F60.00
G1 X83.9537 Y4.9000 Z14.4000 F60.00
G1 X85.1000 Y4.9000 Z14.4000 F60.00
G1 X85.1000 Y6.1000 Z14.4000 F60.00
G1 X85.1000 Y4.9000 Z14.4000 F60.00
G1 X83.9537 Y4.9000 Z14.4000 F60.00
G1 X83.9537 Y3.4500 Z14.4000 F60.00
G1 X82.5037 Y3.4500 Z14.4000 F60.00
G1 X82.5037 Y7.5500 Z14.4000 F60.00
G1 X86.5500 Y7.5500 Z14.4000 F60.00
G1 X86.5500 Y7.5500 Z13.3000 F60.00
G1 X86.5500 Y3.4500 Z13.3000 F60.00
G1 X83.9537 Y3.4500 Z13.3000 F60.00
G1 X83.9537 Y6.1000 Z13.3000 F60.00
G1 X85.1000 Y6.1000 Z13.3000 F60.00
G1 X83.9537 Y6.1000 Z13.3000 F60.00
G1 X83.9537 Y4.9000 Z13.3000 F60.00
G1 X85.1000 Y4.9000 Z13.3000 F60.00
G1 X85.1000 Y6.1000 Z13.3000 F60.00
G1 X85.1000 Y4.9000 Z13.3000 F60.00
G1 X83.9537 Y4.9000 Z13.3000 F60.00
G1 X83.9537 Y3.4500 Z13.3000 F60.00
G1 X82.5037 Y3.4500 Z13.3000 F60.00
G1 X82.5037 Y7.5500 Z13.3000 F60.00
G1 X86.5500 Y7.5500 Z13.3000 F60.00
G1 X86.5500 Y7.5500 Z12.2000 F60.00
G1 X86.5500 Y3.4500 Z12.2000 F60.00
G1 X83.9537 Y3.4500 Z12.2000 F60.00
G1 X83.9537 Y6.1000 Z12.2000 F60.00
G1 X85.1000 Y6.1000 Z12.2000 F60.00
G1 X83.9537 Y6.1000 Z12.2000 F60.00
G1 X83.9537 Y4.9000 Z12.2000 F60.00
G1 X85.1000 Y4.9000 Z12.2000 F60.00
G1 X85.1000 Y6.1000 Z12.2000 F60.00
G1 X85.1000 Y4.9000 Z12.2000 F60.00
G1 X83.9537 Y4.9000 Z12.2000 F60.00
G1 X83.9537 Y3.4500 Z12.2000 F60.00
G1 X82.5037 Y3.4500 Z12.2000 F60.00
G1 X82.5037 Y7.5500 Z12.2000 F60.00
G1 X86.5500 Y7.5500 Z12.2000 F60.00
G1 X86.5500 Y7.5500 Z11.1000 F60.00
G1 X86.5500 Y3.4500 Z11.1000 F60.00
G1 X83.9537 Y3.4500 Z11.1000 F60.00
G1 X83.9537 Y6.1000 Z11.1000 F60.00
G1 X85.1000 Y6.1000 Z11.1000 F60.00
G1 X83.9537 Y6.1000 Z11.1000 F60.00
G1 X83.9537 Y4.9000 Z11.1000 F60.00
G1 X85.1000 Y4.9000 Z11.1000 F60.00
G1 X85.1000 Y6.1000 Z11.1000 F60.00
G1 X85.1000 Y4.9000 Z11.1000 F60.00
G1 X83.9537 Y4.9000 Z11.1000 F60.00
G1 X83.9537 Y3.4500 Z11.1000 F60.00
G1 X82.5037 Y3.4500 Z11.1000 F60.00
G1 X82.5037 Y7.5500 Z11.1000 F60.00
G1 X86.5500 Y7.5500 Z11.1000 F60.00
G1 X86.5500 Y7.5500 Z10.0000 F60.00
G1 X86.5500 Y3.4500 Z10.0000 F60.00
G1 X83.9537 Y3.4500 Z10.0000 F60.00
G1 X83.9537 Y6.1000 Z10.0000 F60.00
G1 X85.1000 Y6.1000 Z10.0000 F60.00
G1 X83.9537 Y6.1000 Z10.0000 F60.00
G1 X83.9537 Y4.9000 Z10.0000 F60.00
G1 X85.1000 Y4.9000 Z10.0000 F60.00
G1 X85.1000 Y6.1000 Z10.0000 F60.00
G1 X85.1000 Y4.9000 Z10.0000 F60.00
G1 X83.9537 Y4.9000 Z10.0000 F60.00
G1 X83.9537 Y3.4500 Z10.0000 F60.00
G1 X82.5037 Y3.4500 Z10.0000 F60.00
G1 X82.5037 Y7.5500 Z10.0000 F60.00
G1 X86.5500 Y7.5500 Z10.0000 F60.00
G1 X86.5500 Y7.5500 Z8.9000 F60.00
G1 X86.5500 Y3.4500 Z8.9000 F60.00
G1 X83.9537 Y3.4500 Z8.9000 F60.00
G1 X83.9537 Y6.1000 Z8.9000 F60.00
G1 X85.1000 Y6.1000 Z8.9000 F60.00
G1 X83.9537 Y6.1000 Z8.9000 F60.00
G1 X83.9537 Y4.9000 Z8.9000 F60.00
G1 X85.1000 Y4.9000 Z8.9000 F60.00
G1 X85.1000 Y6.1000 Z8.9000 F60.00
G1 X85.1000 Y4.9000 Z8.9000 F60.00
G1 X83.9537 Y4.9000 Z8.9000 F60.00
G1 X83.9537 Y3.4500 Z8.9000 F60.00
G1 X82.5037 Y3.4500 Z8.9000 F60.00
G1 X82.5037 Y7.5500 Z8.9000 F60.00
G1 X86.5500 Y7.5500 Z8.9000 F60.00
G1 X86.5500 Y7.5500 Z7.8000 F60.00
G1 X86.5500 Y3.4500 Z7.8000 F60.00
G1 X83.9537 Y3.4500 Z7.8000 F60.00
G1 X83.9537 Y6.1000 Z7.8000 F60.00
G1 X85.1000 Y6.1000 Z7.8000 F60.00
G1 X83.9537 Y6.1000 Z7.8000 F60.00
G1 X83.9537 Y4.9000 Z7.8000 F60.00
G1 X85.1000 Y4.9000 Z7.8000 F60.00
G1 X85.1000 Y6.1000 Z7.8000 F60.00
G1 X85.1000 Y4.9000 Z7.8000 F60.00
G1 X83.9537 Y4.9000 Z7.8000 F60.00
G1 X83.9537 Y3.4500 Z7.8000 F60.00
G1 X82.5037 Y3.4500 Z7.8000 F60.00
G1 X82.5037 Y7.5500 Z7.8000 F60.00
G1 X86.5500 Y7.5500 Z7.8000 F60.00
G1 X86.5500 Y7.5500 Z6.7000 F60.00
G1 X86.5500 Y3.4500 Z6.7000 F60.00
G1 X83.9537 Y3.4500 Z6.7000 F60.00
G1 X83.9537 Y6.1000 Z6.7000 F60.00
G1 X85.1000 Y6.1000 Z6.7000 F60.00
G1 X83.9537 Y6.1000 Z6.7000 F60.00
G1 X83.9537 Y4.9000 Z6.7000 F60.00
G1 X85.1000 Y4.9000 Z6.7000 F60.00
G1 X85.1000 Y6.1000 Z6.7000 F60.00
G1 X85.1000 Y4.9000 Z6.7000 F60.00
G1 X83.9537 Y4.9000 Z6.7000 F60.00
G1 X83.9537 Y3.4500 Z6.7000 F60.00
G1 X82.5037 Y3.4500 Z6.7000 F60.00
G1 X82.5037 Y7.5500 Z6.7000 F60.00
G1 X86.5500 Y7.5500 Z6.7000 F60.00
G1 X86.5500 Y7.5500 Z5.6000 F60.00
G1 X86.5500 Y3.4500 Z5.6000 F60.00
G1 X83.9537 Y3.4500 Z5.6000 F60.00
G1 X83.9537 Y6.1000 Z5.6000 F60.00
G1 X85.1000 Y6.1000 Z5.6000 F60.00
G1 X83.9537 Y6.1000 Z5.6000 F60.00
G1 X83.9537 Y4.9000 Z5.6000 F60.00
G1 X85.1000 Y4.9000 Z5.6000 F60.00
G1 X85.1000 Y6.1000 Z5.6000 F60.00
G1 X85.1000 Y4.9000 Z5.6000 F60.00
G1 X83.9537 Y4.9000 Z5.6000 F60.00
G1 X83.9537 Y3.4500 Z5.6000 F60.00
G1 X82.5037 Y3.4500 Z5.6000 F60.00
G1 X82.5037 Y7.5500 Z5.6000 F60.00
G1 X86.5500 Y7.5500 Z5.6000 F60.00
G1 X86.5500 Y7.5500 Z4.7000 F60.00
G1 X86.5500 Y3.4500 Z4.7000 F60.00
G1 X83.9537 Y3.4500 Z4.7000 F60.00
G1 X83.9537 Y6.1000 Z4.7000 F60.00
G1 X85.1000 Y6.1000 Z4.7000 F60.00
G1 X83.9537 Y6.1000 Z4.7000 F60.00
G1 X83.9537 Y4.9000 Z4.7000 F60.00
G1 X85.1000 Y4.9000 Z4.7000 F60.00
G1 X85.1000 Y6.1000 Z4.7000 F60.00
G1 X85.1000 Y4.9000 Z4.7000 F60.00
G1 X83.9537 Y4.9000 Z4.7000 F60.00
G1 X83.9537 Y3.4500 Z4.7000 F60.00
G1 X82.5037 Y3.4500 Z4.7000 F60.00
G1 X82.5037 Y7.5500 Z4.7000 F60.00
G1 X86.5500 Y7.5500 Z4.7000 F60.00
G0 Z26.0000
G0 X8.5500 Y55.0500
G0 Z24.0000
G1 X8.5500 Y55.0500 Z19.9000 F60.00
G1 X8.5500 Y51.0500 Z19.9000 F60.00
G1 X3.0000 Y51.0500 Z19.9000 F60.00
G3 X1.5500 Y49.6000 Z19.9000 I0.0000 J-1.4500 F60.00
G1 X1.5500 Y9.0000 Z19.9000 F60.00
G3 X3.0000 Y7.5500 Z19.9000 I1.4500 J0.0000 F60.00
G1 X8.5500 Y7.5500 Z19.9000 F60.00
G1 X8.5500 Y3.4500 Z19.9000 F60.00
G1 X4.1676 Y3.4500 Z19.9000 F60.00
G3 X3.9041 Y3.7337 Z19.9000 I-0.7532 J-0.4355 F60.00
G3 X3.0000 Y4.0500 Z19.9000 I-0.9041 J-1.1337 F60.00
G1 X1.4500 Y4.0500 Z19.9000 F60.00
G1 X1.4500 Y55.1500 Z19.9000 F60.00
G1 X2.4955 Y55.1500 Z19.9000 F60.00
G3 X3.0000 Y55.0500 Z19.9000 I0.4713 J1.0553 F60.00
G1 X8.5500 Y55.0500 Z19.9000 F60.00
G0 X8.5500 Y55.0500 Z26.0000
G0 X7.1000 Y53.6000 Z26.0000
G1 X7.1000 Y53.6000 Z19.9000 F60.00
G1 X7.1000 Y52.5000 Z19.9000 F60.00
G1 X3.0000 Y52.5000 Z19.9000 F60.00
G3 X2.9390 Y52.4986 Z19.9000 I-0.0051 J-1.0875 F60.00
G3 X2.9000 Y52.4964 Z19.9000 I0.0191 J-0.6964 F60.00
G1 X2.9000 Y53.6036 Z19.9000 F60.00
G3 X2.9593 Y53.6006 Z19.9000 I0.0836 J1.0560 F60.00
G3 X7.1000 Y53.6000 Z19.9000 I2.0907 J147.6312 F60.00
G0 X7.1000 Y53.6000 Z26.0000
G0 X2.9390 Y52.4986 Z26.0000
G1 X2.9390 Y52.4986 Z19.9000 F60.00
G1 X3.0000 Y51.0500 Z19.9000 F60.00
G1 X2.9390 Y52.4986 Z19.9000 F60.00
G0 X2.9390 Y52.4986 Z26.0000
G0 X2.9000 Y6.1036 Z26.0000
G1 X2.9000 Y6.1036 Z19.9000 F60.00
G3 X2.9593 Y6.1006 Z19.9000 I0.0836 J1.0559 F60.00
G3 X7.1000 Y6.1000 Z19.9000 I2.0907 J147.6057 F60.00
G1 X7.1000 Y4.9000 Z19.9000 F60.00
G1 X4.7647 Y4.9000 Z19.9000 F60.00
G3 X4.7093 Y4.9388 Z19.9000 I-0.3732 J-0.4735 F60.00
G1 X3.9041 Y3.7337 Z19.9000 F60.00
G1 X4.7093 Y4.9388 Z19.9000 F60.00
G3 X2.9000 Y5.5000 Z19.9000 I-1.7207 J-2.3504 F60.00
G1 X2.9000 Y6.1036 Z19.9000 F60.00
G1 X2.9000 Y6.1036 Z18.8000 F60.00
G3 X2.9593 Y6.1006 Z18.8000 I0.0836 J1.0559 F60.00
G3 X7.1000 Y6.1000 Z18.8000 I2.0907 J147.6057 F60.00
G1 X7.1000 Y4.9000 Z18.8000 F60.00
G1 X4.7647 Y4.9000 Z18.8000 F60.00
G3 X4.7093 Y4.9388 Z18.8000 I-0.3732 J-0.4735 F60.00
G1 X3.9041 Y3.7337 Z18.8000 F60.00
G1 X4.7093 Y4.9388 Z18.8000 F60.00
G3 X2.9000 Y5.5000 Z18.8000 I-1.7207 J-2.3504 F60.00
G1 X2.9000 Y6.1036 Z18.8000 F60.00
G0 X2.9000 Y6.1036 Z26.0000
G0 X2.9500 Y7.5509 Z26.0000
G1 X2.9500 Y7.5509 Z18.8000 F60.00
G3 X3.0000 Y7.5500 Z18.8000 I0.0500 J1.4491 F60.00
G1 X8.5500 Y7.5500 Z18.8000 F60.00
G1 X8.5500 Y3.4500 Z18.8000 F60.00
G1 X4.1676 Y3.4500 Z18.8000 F60.00
G3 X3.9041 Y3.7337 Z18.8000 I-0.7532 J-0.4355 F60.00
G3 X3.0000 Y4.0500 Z18.8000 I-0.9041 J-1.1337 F60.00
G1 X1.4500 Y4.0500 Z18.8000 F60.00
G1 X1.4500 Y55.1500 Z18.8000 F60.00
G1 X2.4955 Y55.1500 Z18.8000 F60.00
G3 X3.0000 Y55.0500 Z18.8000 I0.4713 J1.0553 F60.00
G1 X8.5500 Y55.0500 Z18.8000 F60.00
G1 X8.5500 Y51.0500 Z18.8000 F60.00
G1 X3.0000 Y51.0500 Z18.8000 F60.00
G3 X1.5500 Y49.6000 Z18.8000 I0.0000 J-1.4500 F60.00
G1 X1.5500 Y9.0000 Z18.8000 F60.00
G3 X2.9500 Y7.5509 Z18.8000 I1.4500 J0.0000 F60.00
G0 X2.9500 Y7.5509 Z26.0000
G0 X3.0000 Y51.0500 Z26.0000
G1 X3.0000 Y51.0500 Z18.8000 F60.00
G1 X2.9390 Y52.4986 Z18.8000 F60.00
G1 X3.0000 Y51.0500 Z18.8000 F60.00
G0 X3.0000 Y51.0500 Z26.0000
G0 X2.9390 Y52.4986 Z26.0000
G1 X2.9390 Y52.4986 Z18.8000 F60.00
G3 X2.9000 Y52.4964 Z18.8000 I0.0191 J-0.6964 F60.00
G1 X2.9000 Y53.6036 Z18.8000 F60.00
G3 X2.9593 Y53.6006 Z18.8000 I0.0836 J1.0560 F60.00
G3 X7.1000 Y53.6000 Z18.8000 I2.0907 J147.6312 F60.00
G1 X7.1000 Y52.5000 Z18.8000 F60.00
G1 X3.0000 Y52.5000 Z18.8000 F60.00
G3 X2.9390 Y52.4986 Z18.8000 I-0.0051 J-1.0875 F60.00
G1 X2.9390 Y52.4986 Z17.7000 F60.00
G1 X3.0000 Y51.0500 Z17.7000 F60.00
G1 X2.9390 Y52.4986 Z17.7000 F60.00
G1 X2.9390 Y52.4986 Z17.7000 F60.00
G3 X2.9000 Y52.4964 Z17.7000 I0.0191 J-0.6964 F60.00
G1 X2.9000 Y53.6036 Z17.7000 F60.00
G3 X2.9593 Y53.6006 Z17.7000 I0.0836 J1.0560 F60.00
G3 X7.1000 Y53.6000 Z17.7000 I2.0907 J147.6312 F60.00
G1 X7.1000 Y52.5000 Z17.7000 F60.00
G1 X3.0000 Y52.5000 Z17.7000 F60.00
G3 X2.9390 Y52.4986 Z17.7000 I-0.0051 J-1.0875 F60.00
G0 X2.9390 Y52.4986 Z26.0000
G0 X2.9695 Y51.0497 Z26.0000
G1 X2.9695 Y51.0497 Z17.7000 F60.00
G3 X1.5500 Y49.6000 Z17.7000 I0.0305 J-1.4497 F60.00
G1 X1.5500 Y9.0000 Z17.7000 F60.00
G3 X3.0000 Y7.5500 Z17.7000 I1.4500 J0.0000 F60.00
G1 X8.5500 Y7.5500 Z17.7000 F60.00
G1 X8.5500 Y3.4500 Z17.7000 F60.00
G1 X4.1676 Y3.4500 Z17.7000 F60.00
G3 X3.9041 Y3.7337 Z17.7000 I-0.7532 J-0.4355 F60.00
G3 X3.0000 Y4.0500 Z17.7000 I-0.9041 J-1.1337 F60.00
G1 X1.4500 Y4.0500 Z17.7000 F60.00
G1 X1.4500 Y55.1500 Z17.7000 F60.00
G1 X2.4955 Y55.1500 Z17.7000 F60.00
G3 X3.0000 Y55.0500 Z17.7000 I0.4713 J1.0553 F60.00
G1 X8.5500 Y55.0500 Z17.7000 F60.00
G1 X8.5500 Y51.0500 Z17.7000 F60.00
G1 X3.0000 Y51.0500 Z17.7000 F60.00
G3 X2.9695 Y51.0497 Z17.7000 I0.0000 J-1.4500 F60.00
G0 X2.9695 Y51.0497 Z26.0000
G0 X2.9000 Y6.1036 Z26.0000
G1 X2.9000 Y6.1036 Z17.7000 F60.00
G3 X2.9593 Y6.1006 Z17.7000 I0.0836 J1.0559 F60.00
G3 X7.1000 Y6.1000 Z17.7000 I2.0907 J147.6057 F60.00
G1 X7.1000 Y4.9000 Z17.7000 F60.00
G1 X4.7647 Y4.9000 Z17.7000 F60.00
G3 X4.7093 Y4.9388 Z17.7000 I-0.3732 J-0.4735 F60.00
G1 X3.9041 Y3.7337 Z17.7000 F60.00
G1 X4.7093 Y4.9388 Z17.7000 F60.00
G3 X2.9000 Y5.5000 Z17.7000 I-1.7207 J-2.3504 F60.00
G1 X2.9000 Y6.1036 Z17.7000 F60.00
G1 X2.9000 Y6.1036 Z16.6000 F60.00
G3 X2.9593 Y6.1006 Z16.6000 I0.0836 J1.0559 F60.00
G3 X7.1000 Y6.1000 Z16.6000 I2.0907 J147.6057 F60.00
G1 X7.1000 Y4.9000 Z16.6000 F60.00
G1 X4.7647 Y4.9000 Z16.6000 F60.00
G3 X4.7093 Y4.9388 Z16.6000 I-0.3732 J-0.4735 F60.00
G1 X3.9041 Y3.7337 Z16.6000 F60.00
G1 X4.7093 Y4.9388 Z16.6000 F60.00
G3 X2.9000 Y5.5000 Z16.6000 I-1.7207 J-2.3504 F60.00
G1 X2.9000 Y6.1036 Z16.6000 F60.00
G0 X2.9000 Y6.1036 Z26.0000
G0 X2.9500 Y7.5509 Z26.0000
G1 X2.9500 Y7.5509 Z16.6000 F60.00
G3 X3.0000 Y7.5500 Z16.6000 I0.0500 J1.4491 F60.00
G1 X8.5500 Y7.5500 Z16.6000 F60.00
G1 X8.5500 Y3.4500 Z16.6000 F60.00
G1 X4.1676 Y3.4500 Z16.6000 F60.00
G3 X3.9041 Y3.7337 Z16.6000 I-0.7532 J-0.4355 F60.00
G3 X3.0000 Y4.0500 Z16.6000 I-0.9041 J-1.1337 F60.00
G1 X1.4500 Y4.0500 Z16.6000 F60.00
G1 X1.4500 Y55.1500 Z16.6000 F60.00
G1 X2.4955 Y55.1500 Z16.6000 F60.00
G3 X3.0000 Y55.0500 Z16.6000 I0.4713 J1.0553 F60.00
G1 X8.5500 Y55.0500 Z16.6000 F60.00
G1 X8.5500 Y51.0500 Z16.6000 F60.00
G1 X3.0000 Y51.0500 Z16.6000 F60.00
G3 X1.5500 Y49.6000 Z16.6000 I0.0000 J-1.4500 F60.00
G1 X1.5500 Y9.0000 Z16.6000 F60.00
G3 X2.9500 Y7.5509 Z16.6000 I1.4500 J0.0000 F60.00
G0 X2.9500 Y7.5509 Z26.0000
G0 X3.0000 Y51.0500 Z26.0000
G1 X3.0000 Y51.0500 Z16.6000 F60.00
G1 X2.9390 Y52.4986 Z16.6000 F60.00
G1 X3.0000 Y51.0500 Z16.6000 F60.00
G0 X3.0000 Y51.0500 Z26.0000
G0 X2.9390 Y52.4986 Z26.0000
G1 X2.9390 Y52.4986 Z16.6000 F60.00
G3 X2.9000 Y52.4964 Z16.6000 I0.0191 J-0.6964 F60.00
G1 X2.9000 Y53.6036 Z16.6000 F60.00
G3 X2.9593 Y53.6006 Z16.6000 I0.0836 J1.0560 F60.00
G3 X7.1000 Y53.6000 Z16.6000 I2.0907 J147.6312 F60.00
G1 X7.1000 Y52.5000 Z16.6000 F60.00
G1 X3.0000 Y52.5000 Z16.6000 F60.00
G3 X2.9390 Y52.4986 Z16.6000 I-0.0051 J-1.0875 F60.00
G1 X2.9390 Y52.4986 Z15.5000 F60.00
G1 X3.0000 Y51.0500 Z15.5000 F60.00
G1 X2.9390 Y52.4986 Z15.5000 F60.00
G1 X2.9390 Y52.4986 Z15.5000 F60.00
G3 X2.9000 Y52.4964 Z15.5000 I0.0191 J-0.6964 F60.00
G1 X2.9000 Y53.6036 Z15.5000 F60.00
G3 X2.9593 Y53.6006 Z15.5000 I0.0836 J1.0560 F60.00
G3 X7.1000 Y53.6000 Z15.5000 I2.0907 J147.6312 F60.00
G1 X7.1000 Y52.5000 Z15.5000 F60.00
G1 X3.0000 Y52.5000 Z15.5000 F60.00
G3 X2.9390 Y52.4986 Z15.5000 I-0.0051 J-1.0875 F60.00
G0 X2.9390 Y52.4986 Z26.0000
G0 X2.9695 Y51.0497 Z26.0000
G1 X2.9695 Y51.0497 Z15.5000 F60.00
G3 X1.5500 Y49.6000 Z15.5000 I0.0305 J-1.4497 F60.00
G1 X1.5500 Y9.0000 Z15.5000 F60.00
G3 X3.0000 Y7.5500 Z15.5000 I1.4500 J0.0000 F60.00
G1 X8.5500 Y7.5500 Z15.5000 F60.00
G1 X8.5500 Y3.4500 Z15.5000 F60.00
G1 X4.1676 Y3.4500 Z15.5000 F60.00
G3 X3.9041 Y3.7337 Z15.5000 I-0.7532 J-0.4355 F60.00
G3 X3.0000 Y4.0500 Z15.5000 I-0.9041 J-1.1337 F60.00
G1 X1.4500 Y4.0500 Z15.5000 F60.00
G1 X1.4500 Y55.1500 Z15.5000 F60.00
G1 X2.4955 Y55.1500 Z15.5000 F60.00
G3 X3.0000 Y55.0500 Z15.5000 I0.4713 J1.0553 F60.00
G1 X8.5500 Y55.0500 Z15.5000 F60.00
G1 X8.5500 Y51.0500 Z15.5000 F60.00
G1 X3.0000 Y51.0500 Z15.5000 F60.00
G3 X2.9695 Y51.0497 Z15.5000 I0.0000 J-1.4500 F60.00
G0 X2.9695 Y51.0497 Z26.0000
G0 X2.9000 Y6.1036 Z26.0000
G1 X2.9000 Y6.1036 Z15.5000 F60.00
G3 X2.9593 Y6.1006 Z15.5000 I0.0836 J1.0559 F60.00
G3 X7.1000 Y6.1000 Z15.5000 I2.0907 J147.6057 F60.00
G1 X7.1000 Y4.9000 Z15.5000 F60.00
G1 X4.7647 Y4.9000 Z15.5000 F60.00
G3 X4.7093 Y4.9388 Z15.5000 I-0.3732 J-0.4735 F60.00
G1 X3.9041 Y3.7337 Z15.5000 F60.00
G1 X4.7093 Y4.9388 Z15.5000 F60.00
G3 X2.9000 Y5.5000 Z15.5000 I-1.7207 J-2.3504 F60.00
G1 X2.9000 Y6.1036 Z15.5000 F60.00
G1 X2.9000 Y6.1036 Z14.4000 F60.00
G3 X2.9593 Y6.1006 Z14.4000 I0.0836 J1.0559 F60.00
G3 X7.1000 Y6.1000 Z14.4000 I2.0907 J147.6057 F60.00
G1 X7.1000 Y4.9000 Z14.4000 F60.00
G1 X4.7647 Y4.9000 Z14.4000 F60.00
G3 X4.7093 Y4.9388 Z14.4000 I-0.3732 J-0.4735 F60.00
G1 X3.9041 Y3.7337 Z14.4000 F60.00
G1 X4.7093 Y4.9388 Z14.4000 F60.00
G3 X2.9000 Y5.5000 Z14.4000 I-1.7207 J-2.3504 F60.00
G1 X2.9000 Y6.1036 Z14.4000 F60.00
G0 X2.9000 Y6.1036 Z26.0000
G0 X2.9500 Y7.5509 Z26.0000
G1 X2.9500 Y7.5509 Z14.4000 F60.00
G3 X3.0000 Y7.5500 Z14.4000 I0.0500 J1.4491 F60.00
G1 X8.5500 Y7.5500 Z14.4000 F60.00
G1 X8.5500 Y3.4500 Z14.4000 F60.00
G1 X4.1676 Y3.4500 Z14.4000 F60.00
G3 X3.9041 Y3.7337 Z14.4000 I-0.7532 J-0.4355 F60.00
G3 X3.0000 Y4.0500 Z14.4000 I-0.9041 J-1.1337 F60.00
G1 X1.4500 Y4.0500 Z14.4000 F60.00
G1 X1.4500 Y55.1500 Z14.4000 F60.00
G1 X2.4955 Y55.1500 Z14.4000 F60.00
G3 X3.0000 Y55.0500 Z14.4000 I0.4713 J1.0553 F60.00
G1 X8.5500 Y55.0500 Z14.4000 F60.00
G1 X8.5500 Y51.0500 Z14.4000 F60.00
G1 X3.0000 Y51.0500 Z14.4000 F60.00
G3 X1.5500 Y49.6000 Z14.4000 I0.0000 J-1.4500 F60.00
G1 X1.5500 Y9.0000 Z14.4000 F60.00
G3 X2.9500 Y7.5509 Z14.4000 I1.4500 J0.0000 F60.00
G0 X2.9500 Y7.5509 Z26.0000
G0 X3.0000 Y51.0500 Z26.0000
G1 X3.0000 Y51.0500 Z14.4000 F60.00
G1 X2.9390 Y52.4986 Z14.4000 F60.00
G1 X3.0000 Y51.0500 Z14.4000 F60.00
G0 X3.0000 Y51.0500 Z26.0000
G0 X2.9390 Y52.4986 Z26.0000
G1 X2.9390 Y52.4986 Z14.4000 F60.00
G3 X2.9000 Y52.4964 Z14.4000 I0.0191 J-0.6964 F60.00
G1 X2.9000 Y53.6036 Z14.4000 F60.00
G3 X2.9593 Y53.6006 Z14.4000 I0.0836 J1.0560 F60.00
G3 X7.1000 Y53.6000 Z14.4000 I2.0907 J147.6312 F60.00
G1 X7.1000 Y52.5000 Z14.4000 F60.00
G1 X3.0000 Y52.5000 Z14.4000 F60.00
G3 X2.9390 Y52.4986 Z14.4000 I-0.0051 J-1.0875 F60.00
G1 X2.9390 Y52.4986 Z13.3000 F60.00
G3 X2.9000 Y52.4964 Z13.3000 I0.0191 J-0.6964 F60.00
G1 X2.9000 Y53.6036 Z13.3000 F60.00
G3 X2.9593 Y53.6006 Z13.3000 I0.0836 J1.0560 F60.00
G3 X7.1000 Y53.6000 Z13.3000 I2.0907 J147.6312 F60.00
G1 X7.1000 Y52.5000 Z13.3000 F60.00
G1 X3.0000 Y52.5000 Z13.3000 F60.00
G3 X2.9390 Y52.4986 Z13.3000 I-0.0051 J-1.0875 F60.00
G1 X2.9390 Y52.4986 Z13.3000 F60.00
G1 X3.0000 Y51.0500 Z13.3000 F60.00
G1 X2.9390 Y52.4986 Z13.3000 F60.00
G0 X2.9390 Y52.4986 Z26.0000
G0 X2.9695 Y51.0497 Z26.0000
G1 X2.9695 Y51.0497 Z13.3000 F60.00
G3 X1.5500 Y49.6000 Z13.3000 I0.0305 J-1.4497 F60.00
G1 X1.5500 Y9.0000 Z13.3000 F60.00
G3 X3.0000 Y7.5500 Z13.3000 I1.4500 J0.0000 F60.00
G1 X8.5500 Y7.5500 Z13.3000 F60.00
G1 X8.5500 Y3.4500 Z13.3000 F60.00
G1 X4.1676 Y3.4500 Z13.3000 F60.00
G3 X3.9041 Y3.7337 Z13.3000 I-0.7532 J-0.4355 F60.00
G3 X3.0000 Y4.0500 Z13.3000 I-0.9041 J-1.1337 F60.00
G1 X1.4500 Y4.0500 Z13.3000 F60.00
G1 X1.4500 Y55.1500 Z13.3000 F60.00
G1 X2.4955 Y55.1500 Z13.3000 F60.00
G3 X3.0000 Y55.0500 Z13.3000 I0.4713 J1.0553 F60.00
G1 X8.5500 Y55.0500 Z13.3000 F60.00
G1 X8.5500 Y51.0500 Z13.3000 F60.00
G1 X3.0000 Y51.0500 Z13.3000 F60.00
G3 X2.9695 Y51.0497 Z13.3000 I0.0000 J-1.4500 F60.00
G0 X2.9695 Y51.0497 Z26.0000
G0 X2.9000 Y6.1036 Z26.0000
G1 X2.9000 Y6.1036 Z13.3000 F60.00
G3 X2.9593 Y6.1006 Z13.3000 I0.0836 J1.0559 F60.00
G3 X7.1000 Y6.1000 Z13.3000 I2.0907 J147.6057 F60.00
G1 X7.1000 Y4.9000 Z13.3000 F60.00
G1 X4.7647 Y4.9000 Z13.3000 F60.00
G3 X4.7093 Y4.9388 Z13.3000 I-0.3732 J-0.4735 F60.00
G1 X3.9041 Y3.7337 Z13.3000 F60.00
G1 X4.7093 Y4.9388 Z13.3000 F60.00
G3 X2.9000 Y5.5000 Z13.3000 I-1.7207 J-2.3504 F60.00
G1 X2.9000 Y6.1036 Z13.3000 F60.00
G1 X2.9000 Y6.1036 Z12.2000 F60.00
G3 X2.9593 Y6.1006 Z12.2000 I0.0836 J1.0559 F60.00
G3 X7.1000 Y6.1000 Z12.2000 I2.0907 J147.6057 F60.00
G1 X7.1000 Y4.9000 Z12.2000 F60.00
G1 X4.7647 Y4.9000 Z12.2000 F60.00
G3 X4.7093 Y4.9388 Z12.2000 I-0.3732 J-0.4735 F60.00
G1 X3.9041 Y3.7337 Z12.2000 F60.00
G1 X4.7093 Y4.9388 Z12.2000 F60.00
G3 X2.9000 Y5.5000 Z12.2000 I-1.7207 J-2.3504 F60.00
G1 X2.9000 Y6.1036 Z12.2000 F60.00
G0 X2.9000 Y6.1036 Z26.0000
G0 X2.9500 Y7.5509 Z26.0000
G1 X2.9500 Y7.5509 Z12.2000 F60.00
G3 X3.0000 Y7.5500 Z12.2000 I0.0500 J1.4491 F60.00
G1 X8.5500 Y7.5500 Z12.2000 F60.00
G1 X8.5500 Y3.4500 Z12.2000 F60.00
G1 X4.1676 Y3.4500 Z12.2000 F60.00
G3 X3.9041 Y3.7337 Z12.2000 I-0.7532 J-0.4355 F60.00
G3 X3.0000 Y4.0500 Z12.2000 I-0.9041 J-1.1337 F60.00
G1 X1.4500 Y4.0500 Z12.2000 F60.00
G1 X1.4500 Y55.1500 Z12.2000 F60.00
G1 X2.4955 Y55.1500 Z12.2000 F60.00
G3 X3.0000 Y55.0500 Z12.2000 I0.4713 J1.0553 F60.00
G1 X8.5500 Y55.0500 Z12.2000 F60.00
G1 X8.5500 Y51.0500 Z12.2000 F60.00
G1 X3.0000 Y51.0500 Z12.2000 F60.00
G3 X1.5500 Y49.6000 Z12.2000 I0.0000 J-1.4500 F60.00
G1 X1.5500 Y9.0000 Z12.2000 F60.00
G3 X2.9500 Y7.5509 Z12.2000 I1.4500 J0.0000 F60.00
G0 X2.9500 Y7.5509 Z26.0000
G0 X3.0000 Y51.0500 Z26.0000
G1 X3.0000 Y51.0500 Z12.2000 F60.00
G1 X2.9390 Y52.4986 Z12.2000 F60.00
G1 X3.0000 Y51.0500 Z12.2000 F60.00
G0 X3.0000 Y51.0500 Z26.0000
G0 X2.9390 Y52.4986 Z26.0000
G1 X2.9390 Y52.4986 Z12.2000 F60.00
G3 X2.9000 Y52.4964 Z12.2000 I0.0191 J-0.6964 F60.00
G1 X2.9000 Y53.6036 Z12.2000 F60.00
G3 X2.9593 Y53.6006 Z12.2000 I0.0836 J1.0560 F60.00
G3 X7.1000 Y53.6000 Z12.2000 I2.0907 J147.6312 F60.00
G1 X7.1000 Y52.5000 Z12.2000 F60.00
G1 X3.0000 Y52.5000 Z12.2000 F60.00
G3 X2.9390 Y52.4986 Z12.2000 I-0.0051 J-1.0875 F60.00
G1 X2.9390 Y52.4986 Z11.1000 F60.00
G3 X2.9000 Y52.4964 Z11.1000 I0.0191 J-0.6964 F60.00
G1 X2.9000 Y53.6036 Z11.1000 F60.00
G3 X2.9593 Y53.6006 Z11.1000 I0.0836 J1.0560 F60.00
G3 X7.1000 Y53.6000 Z11.1000 I2.0907 J147.6312 F60.00
G1 X7.1000 Y52.5000 Z11.1000 F60.00
G1 X3.0000 Y52.5000 Z11.1000 F60.00
G3 X2.9390 Y52.4986 Z11.1000 I-0.0051 J-1.0875 F60.00
G1 X2.9390 Y52.4986 Z11.1000 F60.00
G1 X3.0000 Y51.0500 Z11.1000 F60.00
G1 X2.9390 Y52.4986 Z11.1000 F60.00
G0 X2.9390 Y52.4986 Z26.0000
G0 X2.9695 Y51.0497 Z26.0000
G1 X2.9695 Y51.0497 Z11.1000 F60.00
G3 X1.5500 Y49.6000 Z11.1000 I0.0305 J-1.4497 F60.00
G1 X1.5500 Y9.0000 Z11.1000 F60.00
G3 X3.0000 Y7.5500 Z11.1000 I1.4500 J0.0000 F60.00
G1 X8.5500 Y7.5500 Z11.1000 F60.00
G1 X8.5500 Y3.4500 Z11.1000 F60.00
G1 X4.1676 Y3.4500 Z11.1000 F60.00
G3 X3.9041 Y3.7337 Z11.1000 I-0.7532 J-0.4355 F60.00
G3 X3.0000 Y4.0500 Z11.1000 I-0.9041 J-1.1337 F60.00
G1 X1.4500 Y4.0500 Z11.1000 F60.00
G1 X1.4500 Y55.1500 Z11.1000 F60.00
G1 X2.4955 Y55.1500 Z11.1000 F60.00
G3 X3.0000 Y55.0500 Z11.1000 I0.4713 J1.0553 F60.00
G1 X8.5500 Y55.0500 Z11.1000 F60.00
G1 X8.5500 Y51.0500 Z11.1000 F60.00
G1 X3.0000 Y51.0500 Z11.1000 F60.00
G3 X2.9695 Y51.0497 Z11.1000 I0.0000 J-1.4500 F60.00
G0 X2.9695 Y51.0497 Z26.0000
G0 X2.9000 Y6.1036 Z26.0000
G1 X2.9000 Y6.1036 Z11.1000 F60.00
G3 X2.9593 Y6.1006 Z11.1000 I0.0836 J1.0559 F60.00
G3 X7.1000 Y6.1000 Z11.1000 I2.0907 J147.6057 F60.00
G1 X7.1000 Y4.9000 Z11.1000 F60.00
G1 X4.7647 Y4.9000 Z11.1000 F60.00
G3 X4.7093 Y4.9388 Z11.1000 I-0.3732 J-0.4735 F60.00
G1 X3.9041 Y3.7337 Z11.1000 F60.00
G1 X4.7093 Y4.9388 Z11.1000 F60.00
G3 X2.9000 Y5.5000 Z11.1000 I-1.7207 J-2.3504 F60.00
G1 X2.9000 Y6.1036 Z11.1000 F60.00
G1 X2.9000 Y6.1036 Z10.0000 F60.00
G3 X2.9593 Y6.1006 Z10.0000 I0.0836 J1.0559 F60.00
G3 X7.1000 Y6.1000 Z10.0000 I2.0907 J147.6057 F60.00
G1 X7.1000 Y4.9000 Z10.0000 F60.00
G1 X4.7647 Y4.9000 Z10.0000 F60.00
G3 X4.7093 Y4.9388 Z10.0000 I-0.3732 J-0.4735 F60.00
G1 X3.9041 Y3.7337 Z10.0000 F60.00
G1 X4.7093 Y4.9388 Z10.0000 F60.00
G3 X2.9000 Y5.5000 Z10.0000 I-1.7207 J-2.3504 F60.00
G1 X2.9000 Y6.1036 Z10.0000 F60.00
G0 X2.9000 Y6.1036 Z26.0000
G0 X2.9500 Y7.5509 Z26.0000
G1 X2.9500 Y7.5509 Z10.0000 F60.00
G3 X3.0000 Y7.5500 Z10.0000 I0.0500 J1.4491 F60.00
G1 X8.5500 Y7.5500 Z10.0000 F60.00
G1 X8.5500 Y3.4500 Z10.0000 F60.00
G1 X4.1676 Y3.4500 Z10.0000 F60.00
G3 X3.9041 Y3.7337 Z10.0000 I-0.7532 J-0.4355 F60.00
G3 X3.0000 Y4.0500 Z10.0000 I-0.9041 J-1.1337 F60.00
G1 X1.4500 Y4.0500 Z10.0000 F60.00
G1 X1.4500 Y55.1500 Z10.0000 F60.00
G1 X2.4955 Y55.1500 Z10.0000 F60.00
G3 X3.0000 Y55.0500 Z10.0000 I0.4713 J1.0553 F60.00
G1 X8.5500 Y55.0500 Z10.0000 F60.00
G1 X8.5500 Y51.0500 Z10.0000 F60.00
G1 X3.0000 Y51.0500 Z10.0000 F60.00
G3 X1.5500 Y49.6000 Z10.0000 I0.0000 J-1.4500 F60.00
G1 X1.5500 Y9.0000 Z10.0000 F60.00
G3 X2.9500 Y7.5509 Z10.0000 I1.4500 J0.0000 F60.00
G0 X2.9500 Y7.5509 Z26.0000
G0 X3.0000 Y51.0500 Z26.0000
G1 X3.0000 Y51.0500 Z10.0000 F60.00
G1 X2.9390 Y52.4986 Z10.0000 F60.00
G1 X3.0000 Y51.0500 Z10.0000 F60.00
G0 X3.0000 Y51.0500 Z26.0000
G0 X2.9390 Y52.4986 Z26.0000
G1 X2.9390 Y52.4986 Z10.0000 F60.00
G3 X2.9000 Y52.4964 Z10.0000 I0.0191 J-0.6964 F60.00
G1 X2.9000 Y53.6036 Z10.0000 F60.00
G3 X2.9593 Y53.6006 Z10.0000 I0.0836 J1.0560 F60.00
G3 X7.1000 Y53.6000 Z10.0000 I2.0907 J147.6312 F60.00
G1 X7.1000 Y52.5000 Z10.0000 F60.00
G1 X3.0000 Y52.5000 Z10.0000 F60.00
G3 X2.9390 Y52.4986 Z10.0000 I-0.0051 J-1.0875 F60.00
G1 X2.9390 Y52.4986 Z8.9000 F60.00
G1 X3.0000 Y51.0500 Z8.9000 F60.00
G1 X2.9390 Y52.4986 Z8.9000 F60.00
G1 X2.9390 Y52.4986 Z8.9000 F60.00
G3 X2.9000 Y52.4964 Z8.9000 I0.0191 J-0.6964 F60.00
G1 X2.9000 Y53.6036 Z8.9000 F60.00
G3 X2.9593 Y53.6006 Z8.9000 I0.0836 J1.0560 F60.00
G3 X7.1000 Y53.6000 Z8.9000 I2.0907 J147.6312 F60.00
G1 X7.1000 Y52.5000 Z8.9000 F60.00
G1 X3.0000 Y52.5000 Z8.9000 F60.00
G3 X2.9390 Y52.4986 Z8.9000 I-0.0051 J-1.0875 F60.00
G0 X2.9390 Y52.4986 Z26.0000
G0 X2.9695 Y51.0497 Z26.0000
G1 X2.9695 Y51.0497 Z8.9000 F60.00
G3 X1.5500 Y49.6000 Z8.9000 I0.0305 J-1.4497 F60.00
G1 X1.5500 Y9.0000 Z8.9000 F60.00
G3 X3.0000 Y7.5500 Z8.9000 I1.4500 J0.0000 F60.00
G1 X8.5500 Y7.5500 Z8.9000 F60.00
G1 X8.5500 Y3.4500 Z8.9000 F60.00
G1 X4.1676 Y3.4500 Z8.9000 F60.00
G3 X3.9041 Y3.7337 Z8.9000 I-0.7532 J-0.4355 F60.00
G3 X3.0000 Y4.0500 Z8.9000 I-0.9041 J-1.1337 F60.00
G1 X1.4500 Y4.0500 Z8.9000 F60.00
G1 X1.4500 Y55.1500 Z8.9000 F60.00
G1 X2.4955 Y55.1500 Z8.9000 F60.00
G3 X3.0000 Y55.0500 Z8.9000 I0.4713 J1.0553 F60.00
G1 X8.5500 Y55.0500 Z8.9000 F60.00
G1 X8.5500 Y51.0500 Z8.9000 F60.00
G1 X3.0000 Y51.0500 Z8.9000 F60.00
G3 X2.9695 Y51.0497 Z8.9000 I0.0000 J-1.4500 F60.00
G0 X2.9695 Y51.0497 Z26.0000
G0 X2.9000 Y6.1036 Z26.0000
G1 X2.9000 Y6.1036 Z8.9000 F60.00
G3 X2.9593 Y6.1006 Z8.9000 I0.0836 J1.0559 F60.00
G3 X7.1000 Y6.1000 Z8.9000 I2.0907 J147.6057 F60.00
G1 X7.1000 Y4.9000 Z8.9000 F60.00
G1 X4.7647 Y4.9000 Z8.9000 F60.00
G3 X4.7093 Y4.9388 Z8.9000 I-0.3732 J-0.4735 F60.00
G1 X3.9041 Y3.7337 Z8.9000 F60.00
G1 X4.7093 Y4.9388 Z8.9000 F60.00
G3 X2.9000 Y5.5000 Z8.9000 I-1.7207 J-2.3504 F60.00
G1 X2.9000 Y6.1036 Z8.9000 F60.00
G1 X2.9000 Y6.1036 Z7.8000 F60.00
G3 X2.9593 Y6.1006 Z7.8000 I0.0836 J1.0559 F60.00
G3 X7.1000 Y6.1000 Z7.8000 I2.0907 J147.6057 F60.00
G1 X7.1000 Y4.9000 Z7.8000 F60.00
G1 X4.7647 Y4.9000 Z7.8000 F60.00
G3 X4.7093 Y4.9388 Z7.8000 I-0.3732 J-0.4735 F60.00
G1 X3.9041 Y3.7337 Z7.8000 F60.00
G1 X4.7093 Y4.9388 Z7.8000 F60.00
G3 X2.9000 Y5.5000 Z7.8000 I-1.7207 J-2.3504 F60.00
G1 X2.9000 Y6.1036 Z7.8000 F60.00
G0 X2.9000 Y6.1036 Z26.0000
G0 X2.9500 Y7.5509 Z26.0000
G1 X2.9500 Y7.5509 Z7.8000 F60.00
G3 X3.0000 Y7.5500 Z7.8000 I0.0500 J1.4491 F60.00
G1 X8.5500 Y7.5500 Z7.8000 F60.00
G1 X8.5500 Y3.4500 Z7.8000 F60.00
G1 X4.1676 Y3.4500 Z7.8000 F60.00
G3 X3.9041 Y3.7337 Z7.8000 I-0.7532 J-0.4355 F60.00
G3 X3.0000 Y4.0500 Z7.8000 I-0.9041 J-1.1337 F60.00
G1 X1.4500 Y4.0500 Z7.8000 F60.00
G1 X1.4500 Y55.1500 Z7.8000 F60.00
G1 X2.4955 Y55.1500 Z7.8000 F60.00
G3 X3.0000 Y55.0500 Z7.8000 I0.4713 J1.0553 F60.00
G1 X8.5500 Y55.0500 Z7.8000 F60.00
G1 X8.5500 Y51.0500 Z7.8000 F60.00
G1 X3.0000 Y51.0500 Z7.8000 F60.00
G3 X1.5500 Y49.6000 Z7.8000 I0.0000 J-1.4500 F60.00
G1 X1.5500 Y9.0000 Z7.8000 F60.00
G3 X2.9500 Y7.5509 Z7.8000 I1.4500 J0.0000 F60.00
G0 X2.9500 Y7.5509 Z26.0000
G0 X3.0000 Y51.0500 Z26.0000
G1 X3.0000 Y51.0500 Z7.8000 F60.00
G1 X2.9390 Y52.4986 Z7.8000 F60.00
G1 X3.0000 Y51.0500 Z7.8000 F60.00
G0 X3.0000 Y51.0500 Z26.0000
G0 X2.9390 Y52.4986 Z26.0000
G1 X2.9390 Y52.4986 Z7.8000 F60.00
G3 X2.9000 Y52.4964 Z7.8000 I0.0191 J-0.6964 F60.00
G1 X2.9000 Y53.6036 Z7.8000 F60.00
G3 X2.9593 Y53.6006 Z7.8000 I0.0836 J1.0560 F60.00
G3 X7.1000 Y53.6000 Z7.8000 I2.0907 J147.6312 F60.00
G1 X7.1000 Y52.5000 Z7.8000 F60.00
G1 X3.0000 Y52.5000 Z7.8000 F60.00
G3 X2.9390 Y52.4986 Z7.8000 I-0.0051 J-1.0875 F60.00
G1 X2.9390 Y52.4986 Z6.7000 F60.00
G1 X3.0000 Y51.0500 Z6.7000 F60.00
G1 X2.9390 Y52.4986 Z6.7000 F60.00
G1 X2.9390 Y52.4986 Z6.7000 F60.00
G3 X2.9000 Y52.4964 Z6.7000 I0.0191 J-0.6964 F60.00
G1 X2.9000 Y53.6036 Z6.7000 F60.00
G3 X2.9593 Y53.6006 Z6.7000 I0.0836 J1.0560 F60.00
G3 X7.1000 Y53.6000 Z6.7000 I2.0907 J147.6312 F60.00
G1 X7.1000 Y52.5000 Z6.7000 F60.00
G1 X3.0000 Y52.5000 Z6.7000 F60.00
G3 X2.9390 Y52.4986 Z6.7000 I-0.0051 J-1.0875 F60.00
G0 X2.9390 Y52.4986 Z26.0000
G0 X2.9695 Y51.0497 Z26.0000
G1 X2.9695 Y51.0497 Z6.7000 F60.00
G3 X1.5500 Y49.6000 Z6.7000 I0.0305 J-1.4497 F60.00
G1 X1.5500 Y9.0000 Z6.7000 F60.00
G3 X3.0000 Y7.5500 Z6.7000 I1.4500 J0.0000 F60.00
G1 X8.5500 Y7.5500 Z6.7000 F60.00
G1 X8.5500 Y3.4500 Z6.7000 F60.00
G1 X4.1676 Y3.4500 Z6.7000 F60.00
G3 X3.9041 Y3.7337 Z6.7000 I-0.7532 J-0.4355 F60.00
G3 X3.0000 Y4.0500 Z6.7000 I-0.9041 J-1.1337 F60.00
G1 X1.4500 Y4.0500 Z6.7000 F60.00
G1 X1.4500 Y55.1500 Z6.7000 F60.00
G1 X2.4955 Y55.1500 Z6.7000 F60.00
G3 X3.0000 Y55.0500 Z6.7000 I0.4713 J1.0553 F60.00
G1 X8.5500 Y55.0500 Z6.7000 F60.00
G1 X8.5500 Y51.0500 Z6.7000 F60.00
G1 X3.0000 Y51.0500 Z6.7000 F60.00
G3 X2.9695 Y51.0497 Z6.7000 I0.0000 J-1.4500 F60.00
G0 X2.9695 Y51.0497 Z26.0000
G0 X2.9000 Y6.1036 Z26.0000
G1 X2.9000 Y6.1036 Z6.7000 F60.00
G3 X2.9593 Y6.1006 Z6.7000 I0.0836 J1.0559 F60.00
G3 X7.1000 Y6.1000 Z6.7000 I2.0907 J147.6057 F60.00
G1 X7.1000 Y4.9000 Z6.7000 F60.00
G1 X4.7647 Y4.9000 Z6.7000 F60.00
G3 X4.7093 Y4.9388 Z6.7000 I-0.3732 J-0.4735 F60.00
G1 X3.9041 Y3.7337 Z6.7000 F60.00
G1 X4.7093 Y4.9388 Z6.7000 F60.00
G3 X2.9000 Y5.5000 Z6.7000 I-1.7207 J-2.3504 F60.00
G1 X2.9000 Y6.1036 Z6.7000 F60.00
G1 X2.9000 Y6.1036 Z5.6000 F60.00
G3 X2.9593 Y6.1006 Z5.6000 I0.0836 J1.0559 F60.00
G3 X7.1000 Y6.1000 Z5.6000 I2.0907 J147.6057 F60.00
G1 X7.1000 Y4.9000 Z5.6000 F60.00
G1 X4.7647 Y4.9000 Z5.6000 F60.00
G3 X4.7093 Y4.9388 Z5.6000 I-0.3732 J-0.4735 F60.00
G1 X3.9041 Y3.7337 Z5.6000 F60.00
G1 X4.7093 Y4.9388 Z5.6000 F60.00
G3 X2.9000 Y5.5000 Z5.6000 I-1.7207 J-2.3504 F60.00
G1 X2.9000 Y6.1036 Z5.6000 F60.00
G0 X2.9000 Y6.1036 Z26.0000
G0 X2.9500 Y7.5509 Z26.0000
G1 X2.9500 Y7.5509 Z5.6000 F60.00
G3 X3.0000 Y7.5500 Z5.6000 I0.0500 J1.4491 F60.00
G1 X8.5500 Y7.5500 Z5.6000 F60.00
G1 X8.5500 Y3.4500 Z5.6000 F60.00
G1 X4.1676 Y3.4500 Z5.6000 F60.00
G3 X3.9041 Y3.7337 Z5.6000 I-0.7532 J-0.4355 F60.00
G3 X3.0000 Y4.0500 Z5.6000 I-0.9041 J-1.1337 F60.00
G1 X1.4500 Y4.0500 Z5.6000 F60.00
G1 X1.4500 Y55.1500 Z5.6000 F60.00
G1 X2.4955 Y55.1500 Z5.6000 F60.00
G3 X3.0000 Y55.0500 Z5.6000 I0.4713 J1.0553 F60.00
G1 X8.5500 Y55.0500 Z5.6000 F60.00
G1 X8.5500 Y51.0500 Z5.6000 F60.00
G1 X3.0000 Y51.0500 Z5.6000 F60.00
G3 X1.5500 Y49.6000 Z5.6000 I0.0000 J-1.4500 F60.00
G1 X1.5500 Y9.0000 Z5.6000 F60.00
G3 X2.9500 Y7.5509 Z5.6000 I1.4500 J0.0000 F60.00
G0 X2.9500 Y7.5509 Z26.0000
G0 X3.0000 Y51.0500 Z26.0000
G1 X3.0000 Y51.0500 Z5.6000 F60.00
G1 X2.9390 Y52.4986 Z5.6000 F60.00
G1 X3.0000 Y51.0500 Z5.6000 F60.00
G0 X3.0000 Y51.0500 Z26.0000
G0 X2.9390 Y52.4986 Z26.0000
G1 X2.9390 Y52.4986 Z5.6000 F60.00
G3 X2.9000 Y52.4964 Z5.6000 I0.0191 J-0.6964 F60.00
G1 X2.9000 Y53.6036 Z5.6000 F60.00
G3 X2.9593 Y53.6006 Z5.6000 I0.0836 J1.0560 F60.00
G3 X7.1000 Y53.6000 Z5.6000 I2.0907 J147.6312 F60.00
G1 X7.1000 Y52.5000 Z5.6000 F60.00
G1 X3.0000 Y52.5000 Z5.6000 F60.00
G3 X2.9390 Y52.4986 Z5.6000 I-0.0051 J-1.0875 F60.00
G1 X2.9390 Y52.4986 Z4.7000 F60.00
G3 X2.9000 Y52.4964 Z4.7000 I0.0191 J-0.6964 F60.00
G1 X2.9000 Y53.6036 Z4.7000 F60.00
G3 X2.9593 Y53.6006 Z4.7000 I0.0836 J1.0560 F60.00
G3 X7.1000 Y53.6000 Z4.7000 I2.0907 J147.6312 F60.00
G1 X7.1000 Y52.5000 Z4.7000 F60.00
G1 X3.0000 Y52.5000 Z4.7000 F60.00
G3 X2.9390 Y52.4986 Z4.7000 I-0.0051 J-1.0875 F60.00
G1 X2.9390 Y52.4986 Z4.7000 F60.00
G1 X3.0000 Y51.0500 Z4.7000 F60.00
G1 X2.9390 Y52.4986 Z4.7000 F60.00
G0 X2.9390 Y52.4986 Z26.0000
G0 X2.9695 Y51.0497 Z26.0000
G1 X2.9695 Y51.0497 Z4.7000 F60.00
G3 X1.5500 Y49.6000 Z4.7000 I0.0305 J-1.4497 F60.00
G1 X1.5500 Y9.0000 Z4.7000 F60.00
G3 X3.0000 Y7.5500 Z4.7000 I1.4500 J0.0000 F60.00
G1 X8.5500 Y7.5500 Z4.7000 F60.00
G1 X8.5500 Y3.4500 Z4.7000 F60.00
G1 X4.1676 Y3.4500 Z4.7000 F60.00
G3 X3.9041 Y3.7337 Z4.7000 I-0.7532 J-0.4355 F60.00
G3 X3.0000 Y4.0500 Z4.7000 I-0.9041 J-1.1337 F60.00
G1 X1.4500 Y4.0500 Z4.7000 F60.00
G1 X1.4500 Y55.1500 Z4.7000 F60.00
G1 X2.4955 Y55.1500 Z4.7000 F60.00
G3 X3.0000 Y55.0500 Z4.7000 I0.4713 J1.0553 F60.00
G1 X8.5500 Y55.0500 Z4.7000 F60.00
G1 X8.5500 Y51.0500 Z4.7000 F60.00
G1 X3.0000 Y51.0500 Z4.7000 F60.00
G3 X2.9695 Y51.0497 Z4.7000 I0.0000 J-1.4500 F60.00
G0 X2.9695 Y51.0497 Z26.0000
G0 X2.9000 Y6.1036 Z26.0000
G1 X2.9000 Y6.1036 Z4.7000 F60.00
G3 X2.9593 Y6.1006 Z4.7000 I0.0836 J1.0559 F60.00
G3 X7.1000 Y6.1000 Z4.7000 I2.0907 J147.6057 F60.00
G1 X7.1000 Y4.9000 Z4.7000 F60.00
G1 X4.7647 Y4.9000 Z4.7000 F60.00
G3 X4.7093 Y4.9388 Z4.7000 I-0.3732 J-0.4735 F60.00
G1 X3.9041 Y3.7337 Z4.7000 F60.00
G1 X4.7093 Y4.9388 Z4.7000 F60.00
G3 X2.9000 Y5.5000 Z4.7000 I-1.7207 J-2.3504 F60.00
G1 X2.9000 Y6.1036 Z4.7000 F60.00
G0 Z26.0000
(finish operation: Pocket_Shape001)
(begin operation: Pocket_Shape002)
(Path: Pocket_Shape002)
(Pocket_Shape002)
G0 Z26.0000
G0 X79.6037 Y55.1500
G0 Z24.0000
G1 X79.6037 Y55.1500 Z20.1000 F60.00
G1 X79.6037 Y49.6000 Z20.1000 F60.00
G3 X81.0537 Y48.1500 Z20.1000 I1.4500 J-0.0000 F60.00
G1 X86.6037 Y48.1500 Z20.1000 F60.00
G1 X86.6037 Y10.4500 Z20.1000 F60.00
G1 X81.0537 Y10.4500 Z20.1000 F60.00
G3 X79.6037 Y9.0000 Z20.1000 I-0.0000 J-1.4500 F60.00
G1 X79.6037 Y3.4500 Z20.1000 F60.00
G1 X11.4500 Y3.4500 Z20.1000 F60.00
G1 X11.4500 Y9.0000 Z20.1000 F60.00
G3 X10.0000 Y10.4500 Z20.1000 I-1.4500 J0.0000 F60.00
G1 X4.4500 Y10.4500 Z20.1000 F60.00
G1 X4.4500 Y48.1500 Z20.1000 F60.00
G1 X10.0000 Y48.1500 Z20.1000 F60.00
G3 X11.4500 Y49.6000 Z20.1000 I0.0000 J1.4500 F60.00
G1 X11.4500 Y55.1500 Z20.1000 F60.00
G1 X79.6037 Y55.1500 Z20.1000 F60.00
G0 X79.6037 Y55.1500 Z26.0000
G0 X86.6037 Y14.5512 Z26.0000
G1 X86.6037 Y14.5512 Z20.1000 F60.00
G1 X82.5025 Y10.4500 Z20.1000 F60.00
G1 X84.5531 Y10.4500 Z20.1000 F60.00
G1 X86.6037 Y12.5006 Z20.1000 F60.00
G1 X86.6037 Y10.4500 Z20.1000 F60.00
G0 X86.6037 Y10.4500 Z26.0000
G0 X79.6037 Y3.4500 Z26.0000
G1 X79.6037 Y3.4500 Z20.1000 F60.00
G1 X79.6037 Y5.5006 Z20.1000 F60.00
G1 X77.5531 Y3.4500 Z20.1000 F60.00
G1 X75.5025 Y3.4500 Z20.1000 F60.00
G1 X79.6037 Y7.5512 Z20.1000 F60.00
G1 X79.6037 Y9.0000 Z20.1000 F60.00
G2 X81.0537 Y10.4500 Z20.1000 I1.4500 J0.0000 F60.00
G1 X82.5025 Y10.4500 Z20.1000 F60.00
G1 X86.6037 Y14.5512 Z20.1000 F60.00
G1 X86.6037 Y16.6018 Z20.1000 F60.00
G1 X73.4519 Y3.4500 Z20.1000 F60.00
G1 X71.4013 Y3.4500 Z20.1000 F60.00
G1 X86.6037 Y18.6524 Z20.1000 F60.00
G1 X86.6037 Y20.7030 Z20.1000 F60.00
G1 X69.3507 Y3.4500 Z20.1000 F60.00
G1 X67.3001 Y3.4500 Z20.1000 F60.00
G1 X86.6037 Y22.7537 Z20.1000 F60.00
G1 X86.6037 Y24.8043 Z20.1000 F60.00
G1 X65.2495 Y3.4500 Z20.1000 F60.00
G1 X63.1988 Y3.4500 Z20.1000 F60.00
G1 X86.6037 Y26.8549 Z20.1000 F60.00
G1 X86.6037 Y28.9055 Z20.1000 F60.00
G1 X61.1482 Y3.4500 Z20.1000 F60.00
G1 X59.0976 Y3.4500 Z20.1000 F60.00
G1 X86.6037 Y30.9561 Z20.1000 F60.00
G1 X86.6037 Y33.0067 Z20.1000 F60.00
G1 X57.0470 Y3.4500 Z20.1000 F60.00
G1 X54.9964 Y3.4500 Z20.1000 F60.00
G1 X86.6037 Y35.0573 Z20.1000 F60.00
G1 X86.6037 Y37.1079 Z20.1000 F60.00
G1 X52.9458 Y3.4500 Z20.1000 F60.00
G1 X50.8952 Y3.4500 Z20.1000 F60.00
G1 X86.6037 Y39.1585 Z20.1000 F60.00
G1 X86.6037 Y41.2091 Z20.1000 F60.00
G1 X48.8446 Y3.4500 Z20.1000 F60.00
G1 X46.7940 Y3.4500 Z20.1000 F60.00
G1 X86.6037 Y43.2598 Z20.1000 F60.00
G1 X86.6037 Y45.3104 Z20.1000 F60.00
G1 X44.7434 Y3.4500 Z20.1000 F60.00
G1 X42.6928 Y3.4500 Z20.1000 F60.00
G1 X86.6037 Y47.3610 Z20.1000 F60.00
G1 X86.6037 Y48.1500 Z20.1000 F60.00
G1 X85.3421 Y48.1500 Z20.1000 F60.00
G1 X40.6421 Y3.4500 Z20.1000 F60.00
G1 X38.5915 Y3.4500 Z20.1000 F60.00
G1 X83.2915 Y48.1500 Z20.1000 F60.00
G1 X81.2409 Y48.1500 Z20.1000 F60.00
G1 X36.5409 Y3.4500 Z20.1000 F60.00
G1 X34.4903 Y3.4500 Z20.1000 F60.00
G1 X79.8491 Y48.8088 Z20.1000 F60.00
G2 X79.6037 Y49.6000 Z20.1000 I1.1230 J0.7820 F60.00
G1 X79.6037 Y50.6140 Z20.1000 F60.00
G1 X32.4397 Y3.4500 Z20.1000 F60.00
G1 X30.3891 Y3.4500 Z20.1000 F60.00
G1 X79.6037 Y52.6646 Z20.1000 F60.00
G1 X79.6037 Y54.7152 Z20.1000 F60.00
G1 X28.3385 Y3.4500 Z20.1000 F60.00
G1 X26.2879 Y3.4500 Z20.1000 F60.00
G1 X77.9879 Y55.1500 Z20.1000 F60.00
G1 X75.9373 Y55.1500 Z20.1000 F60.00
G1 X24.2373 Y3.4500 Z20.1000 F60.00
G1 X22.1867 Y3.4500 Z20.1000 F60.00
G1 X73.8867 Y55.1500 Z20.1000 F60.00
G1 X71.8360 Y55.1500 Z20.1000 F60.00
G1 X20.1360 Y3.4500 Z20.1000 F60.00
G1 X18.0854 Y3.4500 Z20.1000 F60.00
G1 X69.7854 Y55.1500 Z20.1000 F60.00
G1 X67.7348 Y55.1500 Z20.1000 F60.00
G1 X16.0348 Y3.4500 Z20.1000 F60.00
G1 X13.9842 Y3.4500 Z20.1000 F60.00
G1 X65.6842 Y55.1500 Z20.1000 F60.00
G1 X63.6336 Y55.1500 Z20.1000 F60.00
G1 X11.9336 Y3.4500 Z20.1000 F60.00
G1 X11.4500 Y3.4500 Z20.1000 F60.00
G1 X11.4500 Y5.0170 Z20.1000 F60.00
G1 X61.5830 Y55.1500 Z20.1000 F60.00
G1 X59.5324 Y55.1500 Z20.1000 F60.00
G1 X11.4500 Y7.0676 Z20.1000 F60.00
G1 X11.4500 Y9.0000 Z20.1000 F60.00
G1 X11.4380 Y9.1063 Z20.1000 F60.00
G1 X57.4818 Y55.1500 Z20.1000 F60.00
G1 X55.4312 Y55.1500 Z20.1000 F60.00
G1 X10.5983 Y10.3172 Z20.1000 F60.00
G3 X10.0000 Y10.4500 Z20.1000 I-0.5901 J-1.2444 F60.00
G1 X8.6806 Y10.4500 Z20.1000 F60.00
G1 X53.3806 Y55.1500 Z20.1000 F60.00
G1 X51.3299 Y55.1500 Z20.1000 F60.00
G1 X6.6299 Y10.4500 Z20.1000 F60.00
G1 X4.5793 Y10.4500 Z20.1000 F60.00
G1 X49.2793 Y55.1500 Z20.1000 F60.00
G1 X47.2287 Y55.1500 Z20.1000 F60.00
G1 X4.4500 Y12.3713 Z20.1000 F60.00
G1 X4.4500 Y14.4219 Z20.1000 F60.00
G1 X45.1781 Y55.1500 Z20.1000 F60.00
G1 X43.1275 Y55.1500 Z20.1000 F60.00
G1 X4.4500 Y16.4725 Z20.1000 F60.00
G1 X4.4500 Y18.5231 Z20.1000 F60.00
G1 X41.0769 Y55.1500 Z20.1000 F60.00
G1 X39.0263 Y55.1500 Z20.1000 F60.00
G1 X4.4500 Y20.5737 Z20.1000 F60.00
G1 X4.4500 Y22.6243 Z20.1000 F60.00
G1 X36.9757 Y55.1500 Z20.1000 F60.00
G1 X34.9251 Y55.1500 Z20.1000 F60.00
G1 X4.4500 Y24.6749 Z20.1000 F60.00
G1 X4.4500 Y26.7255 Z20.1000 F60.00
G1 X32.8745 Y55.1500 Z20.1000 F60.00
G1 X30.8239 Y55.1500 Z20.1000 F60.00
G1 X4.4500 Y28.7761 Z20.1000 F60.00
G1 X4.4500 Y30.8268 Z20.1000 F60.00
G1 X28.7732 Y55.1500 Z20.1000 F60.00
G1 X26.7226 Y55.1500 Z20.1000 F60.00
G1 X4.4500 Y32.8774 Z20.1000 F60.00
G1 X4.4500 Y34.9280 Z20.1000 F60.00
G1 X24.6720 Y55.1500 Z20.1000 F60.00
G1 X22.6214 Y55.1500 Z20.1000 F60.00
G1 X4.4500 Y36.9786 Z20.1000 F60.00
G1 X4.4500 Y39.0292 Z20.1000 F60.00
G1 X20.5708 Y55.1500 Z20.1000 F60.00
G1 X18.5202 Y55.1500 Z20.1000 F60.00
G1 X4.4500 Y41.0798 Z20.1000 F60.00
G1 X4.4500 Y43.1304 Z20.1000 F60.00
G1 X9.4696 Y48.1500 Z20.1000 F60.00
G1 X7.4190 Y48.1500 Z20.1000 F60.00
G1 X4.4500 Y45.1810 Z20.1000 F60.00
G1 X4.4500 Y47.2316 Z20.1000 F60.00
G1 X4.4500 Y48.1500 Z20.1000 F60.00
G1 X5.3684 Y48.1500 Z20.1000 F60.00
G1 X4.4500 Y47.2316 Z20.1000 F60.00
G0 X4.4500 Y47.2316 Z26.0000
G0 X11.4500 Y50.1304 Z26.0000
G1 X11.4500 Y50.1304 Z20.1000 F60.00
G1 X16.4696 Y55.1500 Z20.1000 F60.00
G1 X14.4190 Y55.1500 Z20.1000 F60.00
G1 X11.4500 Y52.1810 Z20.1000 F60.00
G1 X11.4500 Y54.2316 Z20.1000 F60.00
G1 X11.4500 Y55.1500 Z20.1000 F60.00
G1 X12.3684 Y55.1500 Z20.1000 F60.00
G1 X11.4500 Y54.2316 Z20.1000 F60.00
G1 X11.4500 Y54.2316 Z19.2000 F60.00
G1 X12.3684 Y55.1500 Z19.2000 F60.00
G1 X11.4500 Y55.1500 Z19.2000 F60.00
G1 X11.4500 Y54.2316 Z19.2000 F60.00
G1 X11.4500 Y52.1810 Z19.2000 F60.00
G1 X14.4190 Y55.1500 Z19.2000 F60.00
G1 X16.4696 Y55.1500 Z19.2000 F60.00
G1 X11.4500 Y50.1304 Z19.2000 F60.00
G1 X11.4500 Y50.1304 Z19.2000 F60.00
G1 X11.4500 Y55.1500 Z19.2000 F60.00
G1 X79.6037 Y55.1500 Z19.2000 F60.00
G1 X79.6037 Y49.6000 Z19.2000 F60.00
G3 X81.0537 Y48.1500 Z19.2000 I1.4500 J-0.0000 F60.00
G1 X86.6037 Y48.1500 Z19.2000 F60.00
G1 X86.6037 Y10.4500 Z19.2000 F60.00
G1 X81.0537 Y10.4500 Z19.2000 F60.00
G3 X79.6037 Y9.0000 Z19.2000 I-0.0000 J-1.4500 F60.00
G1 X79.6037 Y3.4500 Z19.2000 F60.00
G1 X11.4500 Y3.4500 Z19.2000 F60.00
G1 X11.4500 Y9.0000 Z19.2000 F60.00
G3 X10.0000 Y10.4500 Z19.2000 I-1.4500 J0.0000 F60.00
G1 X4.4500 Y10.4500 Z19.2000 F60.00
G1 X4.4500 Y48.1500 Z19.2000 F60.00
G1 X10.0000 Y48.1500 Z19.2000 F60.00
G3 X11.4500 Y49.6000 Z19.2000 I0.0000 J1.4500 F60.00
G1 X11.4500 Y50.1304 Z19.2000 F60.00
G0 X11.4500 Y50.1304 Z26.0000
G0 X4.4500 Y47.2316 Z26.0000
G1 X4.4500 Y47.2316 Z19.2000 F60.00
G1 X5.3684 Y48.1500 Z19.2000 F60.00
G1 X4.4500 Y48.1500 Z19.2000 F60.00
G1 X4.4500 Y47.2316 Z19.2000 F60.00
G1 X4.4500 Y45.1810 Z19.2000 F60.00
G1 X7.4190 Y48.1500 Z19.2000 F60.00
G1 X9.4696 Y48.1500 Z19.2000 F60.00
G1 X4.4500 Y43.1304 Z19.2000 F60.00
G1 X4.4500 Y41.0798 Z19.2000 F60.00
G1 X18.5202 Y55.1500 Z19.2000 F60.00
G1 X20.5708 Y55.1500 Z19.2000 F60.00
G1 X4.4500 Y39.0292 Z19.2000 F60.00
G1 X4.4500 Y36.9786 Z19.2000 F60.00
G1 X22.6214 Y55.1500 Z19.2000 F60.00
G1 X24.6720 Y55.1500 Z19.2000 F60.00
G1 X4.4500 Y34.9280 Z19.2000 F60.00
G1 X4.4500 Y32.8774 Z19.2000 F60.00
G1 X26.7226 Y55.1500 Z19.2000 F60.00
G1 X28.7732 Y55.1500 Z19.2000 F60.00
G1 X4.4500 Y30.8268 Z19.2000 F60.00
G1 X4.4500 Y28.7761 Z19.2000 F60.00
G1 X30.8239 Y55.1500 Z19.2000 F60.00
G1 X32.8745 Y55.1500 Z19.2000 F60.00
G1 X4.4500 Y26.7255 Z19.2000 F60.00
G1 X4.4500 Y24.6749 Z19.2000 F60.00
G1 X34.9251 Y55.1500 Z19.2000 F60.00
G1 X36.9757 Y55.1500 Z19.2000 F60.00
G1 X4.4500 Y22.6243 Z19.2000 F60.00
G1 X4.4500 Y20.5737 Z19.2000 F60.00
G1 X39.0263 Y55.1500 Z19.2000 F60.00
G1 X41.0769 Y55.1500 Z19.2000 F60.00
G1 X4.4500 Y18.5231 Z19.2000 F60.00
G1 X4.4500 Y16.4725 Z19.2000 F60.00
G1 X43.1275 Y55.1500 Z19.2000 F60.00
G1 X45.1781 Y55.1500 Z19.2000 F60.00
G1 X4.4500 Y14.4219 Z19.2000 F60.00
G1 X4.4500 Y12.3713 Z19.2000 F60.00
G1 X47.2287 Y55.1500 Z19.2000 F60.00
G1 X49.2793 Y55.1500 Z19.2000 F60.00
G1 X4.5793 Y10.4500 Z19.2000 F60.00
G1 X6.6299 Y10.4500 Z19.2000 F60.00
G1 X51.3299 Y55.1500 Z19.2000 F60.00
G1 X53.3806 Y55.1500 Z19.2000 F60.00
G1 X8.6806 Y10.4500 Z19.2000 F60.00
G1 X10.0000 Y10.4500 Z19.2000 F60.00
G2 X10.5983 Y10.3172 Z19.2000 I0.0082 J-1.3772 F60.00
G1 X55.4312 Y55.1500 Z19.2000 F60.00
G1 X57.4818 Y55.1500 Z19.2000 F60.00
G1 X11.4380 Y9.1063 Z19.2000 F60.00
G1 X11.4500 Y9.0000 Z19.2000 F60.00
G1 X11.4500 Y7.0676 Z19.2000 F60.00
G1 X59.5324 Y55.1500 Z19.2000 F60.00
G1 X61.5830 Y55.1500 Z19.2000 F60.00
G1 X11.4500 Y5.0170 Z19.2000 F60.00
G1 X11.4500 Y3.4500 Z19.2000 F60.00
G1 X11.9336 Y3.4500 Z19.2000 F60.00
G1 X63.6336 Y55.1500 Z19.2000 F60.00
G1 X65.6842 Y55.1500 Z19.2000 F60.00
G1 X13.9842 Y3.4500 Z19.2000 F60.00
G1 X16.0348 Y3.4500 Z19.2000 F60.00
G1 X67.7348 Y55.1500 Z19.2000 F60.00
G1 X69.7854 Y55.1500 Z19.2000 F60.00
G1 X18.0854 Y3.4500 Z19.2000 F60.00
G1 X20.1360 Y3.4500 Z19.2000 F60.00
G1 X71.8360 Y55.1500 Z19.2000 F60.00
G1 X73.8867 Y55.1500 Z19.2000 F60.00
G1 X22.1867 Y3.4500 Z19.2000 F60.00
G1 X24.2373 Y3.4500 Z19.2000 F60.00
G1 X75.9373 Y55.1500 Z19.2000 F60.00
G1 X77.9879 Y55.1500 Z19.2000 F60.00
G1 X26.2879 Y3.4500 Z19.2000 F60.00
G1 X28.3385 Y3.4500 Z19.2000 F60.00
G1 X79.6037 Y54.7152 Z19.2000 F60.00
G1 X79.6037 Y52.6646 Z19.2000 F60.00
G1 X30.3891 Y3.4500 Z19.2000 F60.00
G1 X32.4397 Y3.4500 Z19.2000 F60.00
G1 X79.6037 Y50.6140 Z19.2000 F60.00
G1 X79.6037 Y49.6000 Z19.2000 F60.00
G3 X79.8491 Y48.8088 Z19.2000 I1.3684 J-0.0092 F60.00
G1 X34.4903 Y3.4500 Z19.2000 F60.00
G1 X36.5409 Y3.4500 Z19.2000 F60.00
G1 X81.2409 Y48.1500 Z19.2000 F60.00
G1 X83.2915 Y48.1500 Z19.2000 F60.00
G1 X38.5915 Y3.4500 Z19.2000 F60.00
G1 X40.6421 Y3.4500 Z19.2000 F60.00
G1 X85.3421 Y48.1500 Z19.2000 F60.00
G1 X86.6037 Y48.1500 Z19.2000 F60.00
G1 X86.6037 Y47.3610 Z19.2000 F60.00
G1 X42.6928 Y3.4500 Z19.2000 F60.00
G1 X44.7434 Y3.4500 Z19.2000 F60.00
G1 X86.6037 Y45.3104 Z19.2000 F60.00
G1 X86.6037 Y43.2598 Z19.2000 F60.00
G1 X46.7940 Y3.4500 Z19.2000 F60.00
G1 X48.8446 Y3.4500 Z19.2000 F60.00
G1 X86.6037 Y41.2091 Z19.2000 F60.00
G1 X86.6037 Y39.1585 Z19.2000 F60.00
G1 X50.8952 Y3.4500 Z19.2000 F60.00
G1 X52.9458 Y3.4500 Z19.2000 F60.00
G1 X86.6037 Y37.1079 Z19.2000 F60.00
G1 X86.6037 Y35.0573 Z19.2000 F60.00
G1 X54.9964 Y3.4500 Z19.2000 F60.00
G1 X57.0470 Y3.4500 Z19.2000 F60.00
G1 X86.6037 Y33.0067 Z19.2000 F60.00
G1 X86.6037 Y30.9561 Z19.2000 F60.00
G1 X59.0976 Y3.4500 Z19.2000 F60.00
G1 X61.1482 Y3.4500 Z19.2000 F60.00
G1 X86.6037 Y28.9055 Z19.2000 F60.00
G1 X86.6037 Y26.8549 Z19.2000 F60.00
G1 X63.1988 Y3.4500 Z19.2000 F60.00
G1 X65.2495 Y3.4500 Z19.2000 F60.00
G1 X86.6037 Y24.8043 Z19.2000 F60.00
G1 X86.6037 Y22.7537 Z19.2000 F60.00
G1 X67.3001 Y3.4500 Z19.2000 F60.00
G1 X69.3507 Y3.4500 Z19.2000 F60.00
G1 X86.6037 Y20.7030 Z19.2000 F60.00
G1 X86.6037 Y18.6524 Z19.2000 F60.00
G1 X71.4013 Y3.4500 Z19.2000 F60.00
G1 X73.4519 Y3.4500 Z19.2000 F60.00
G1 X86.6037 Y16.6018 Z19.2000 F60.00
G1 X86.6037 Y14.5512 Z19.2000 F60.00
G1 X82.5025 Y10.4500 Z19.2000 F60.00
G1 X81.0537 Y10.4500 Z19.2000 F60.00
G3 X79.6037 Y9.0000 Z19.2000 I-0.0000 J-1.4500 F60.00
G1 X79.6037 Y7.5512 Z19.2000 F60.00
G1 X75.5025 Y3.4500 Z19.2000 F60.00
G1 X77.5531 Y3.4500 Z19.2000 F60.00
G1 X79.6037 Y5.5006 Z19.2000 F60.00
G1 X79.6037 Y3.4500 Z19.2000 F60.00
G0 X79.6037 Y3.4500 Z26.0000
G0 X86.6037 Y10.4500 Z26.0000
G1 X86.6037 Y10.4500 Z19.2000 F60.00
G1 X86.6037 Y12.5006 Z19.2000 F60.00
G1 X84.5531 Y10.4500 Z19.2000 F60.00
G1 X82.5025 Y10.4500 Z19.2000 F60.00
G1 X86.6037 Y14.5512 Z19.2000 F60.00
G1 X86.6037 Y14.5512 Z18.3000 F60.00
G1 X82.5025 Y10.4500 Z18.3000 F60.00
G1 X84.5531 Y10.4500 Z18.3000 F60.00
G1 X86.6037 Y12.5006 Z18.3000 F60.00
G1 X86.6037 Y10.4500 Z18.3000 F60.00
G1 X86.6037 Y10.4500 Z18.3000 F60.00
G1 X81.0537 Y10.4500 Z18.3000 F60.00
G3 X79.6037 Y9.0000 Z18.3000 I-0.0000 J-1.4500 F60.00
G1 X79.6037 Y3.4500 Z18.3000 F60.00
G1 X11.4500 Y3.4500 Z18.3000 F60.00
G1 X11.4500 Y9.0000 Z18.3000 F60.00
G3 X10.0000 Y10.4500 Z18.3000 I-1.4500 J0.0000 F60.00
G1 X4.4500 Y10.4500 Z18.3000 F60.00
G1 X4.4500 Y48.1500 Z18.3000 F60.00
G1 X10.0000 Y48.1500 Z18.3000 F60.00
G3 X11.4500 Y49.6000 Z18.3000 I0.0000 J1.4500 F60.00
G1 X11.4500 Y55.1500 Z18.3000 F60.00
G1 X79.6037 Y55.1500 Z18.3000 F60.00
G1 X79.6037 Y49.6000 Z18.3000 F60.00
G3 X81.0537 Y48.1500 Z18.3000 I1.4500 J-0.0000 F60.00
G1 X86.6037 Y48.1500 Z18.3000 F60.00
G1 X86.6037 Y10.4500 Z18.3000 F60.00
G0 X86.6037 Y10.4500 Z26.0000
G0 X79.6037 Y3.4500 Z26.0000
G1 X79.6037 Y3.4500 Z18.3000 F60.00
G1 X79.6037 Y5.5006 Z18.3000 F60.00
G1 X77.5531 Y3.4500 Z18.3000 F60.00
G1 X75.5025 Y3.4500 Z18.3000 F60.00
G1 X79.6037 Y7.5512 Z18.3000 F60.00
G1 X79.6037 Y9.0000 Z18.3000 F60.00
G2 X81.0537 Y10.4500 Z18.3000 I1.4500 J0.0000 F60.00
G1 X82.5025 Y10.4500 Z18.3000 F60.00
G1 X86.6037 Y14.5512 Z18.3000 F60.00
G1 X86.6037 Y16.6018 Z18.3000 F60.00
G1 X73.4519 Y3.4500 Z18.3000 F60.00
G1 X71.4013 Y3.4500 Z18.3000 F60.00
G1 X86.6037 Y18.6524 Z18.3000 F60.00
G1 X86.6037 Y20.7030 Z18.3000 F60.00
G1 X69.3507 Y3.4500 Z18.3000 F60.00
G1 X67.3001 Y3.4500 Z18.3000 F60.00
G1 X86.6037 Y22.7537 Z18.3000 F60.00
G1 X86.6037 Y24.8043 Z18.3000 F60.00
G1 X65.2495 Y3.4500 Z18.3000 F60.00
G1 X63.1988 Y3.4500 Z18.3000 F60.00
G1 X86.6037 Y26.8549 Z18.3000 F60.00
G1 X86.6037 Y28.9055 Z18.3000 F60.00
G1 X61.1482 Y3.4500 Z18.3000 F60.00
G1 X59.0976 Y3.4500 Z18.3000 F60.00
G1 X86.6037 Y30.9561 Z18.3000 F60.00
G1 X86.6037 Y33.0067 Z18.3000 F60.00
G1 X57.0470 Y3.4500 Z18.3000 F60.00
G1 X54.9964 Y3.4500 Z18.3000 F60.00
G1 X86.6037 Y35.0573 Z18.3000 F60.00
G1 X86.6037 Y37.1079 Z18.3000 F60.00
G1 X52.9458 Y3.4500 Z18.3000 F60.00
G1 X50.8952 Y3.4500 Z18.3000 F60.00
G1 X86.6037 Y39.1585 Z18.3000 F60.00
G1 X86.6037 Y41.2091 Z18.3000 F60.00
G1 X48.8446 Y3.4500 Z18.3000 F60.00
G1 X46.7940 Y3.4500 Z18.3000 F60.00
G1 X86.6037 Y43.2598 Z18.3000 F60.00
G1 X86.6037 Y45.3104 Z18.3000 F60.00
G1 X44.7434 Y3.4500 Z18.3000 F60.00
G1 X42.6928 Y3.4500 Z18.3000 F60.00
G1 X86.6037 Y47.3610 Z18.3000 F60.00
G1 X86.6037 Y48.1500 Z18.3000 F60.00
G1 X85.3421 Y48.1500 Z18.3000 F60.00
G1 X40.6421 Y3.4500 Z18.3000 F60.00
G1 X38.5915 Y3.4500 Z18.3000 F60.00
G1 X83.2915 Y48.1500 Z18.3000 F60.00
G1 X81.2409 Y48.1500 Z18.3000 F60.00
G1 X36.5409 Y3.4500 Z18.3000 F60.00
G1 X34.4903 Y3.4500 Z18.3000 F60.00
G1 X79.8491 Y48.8088 Z18.3000 F60.00
G2 X79.6037 Y49.6000 Z18.3000 I1.1230 J0.7820 F60.00
G1 X79.6037 Y50.6140 Z18.3000 F60.00
G1 X32.4397 Y3.4500 Z18.3000 F60.00
G1 X30.3891 Y3.4500 Z18.3000 F60.00
G1 X79.6037 Y52.6646 Z18.3000 F60.00
G1 X79.6037 Y54.7152 Z18.3000 F60.00
G1 X28.3385 Y3.4500 Z18.3000 F60.00
G1 X26.2879 Y3.4500 Z18.3000 F60.00
G1 X77.9879 Y55.1500 Z18.3000 F60.00
G1 X75.9373 Y55.1500 Z18.3000 F60.00
G1 X24.2373 Y3.4500 Z18.3000 F60.00
G1 X22.1867 Y3.4500 Z18.3000 F60.00
G1 X73.8867 Y55.1500 Z18.3000 F60.00
G1 X71.8360 Y55.1500 Z18.3000 F60.00
G1 X20.1360 Y3.4500 Z18.3000 F60.00
G1 X18.0854 Y3.4500 Z18.3000 F60.00
G1 X69.7854 Y55.1500 Z18.3000 F60.00
G1 X67.7348 Y55.1500 Z18.3000 F60.00
G1 X16.0348 Y3.4500 Z18.3000 F60.00
G1 X13.9842 Y3.4500 Z18.3000 F60.00
G1 X65.6842 Y55.1500 Z18.3000 F60.00
G1 X63.6336 Y55.1500 Z18.3000 F60.00
G1 X11.9336 Y3.4500 Z18.3000 F60.00
G1 X11.4500 Y3.4500 Z18.3000 F60.00
G1 X11.4500 Y5.0170 Z18.3000 F60.00
G1 X61.5830 Y55.1500 Z18.3000 F60.00
G1 X59.5324 Y55.1500 Z18.3000 F60.00
G1 X11.4500 Y7.0676 Z18.3000 F60.00
G1 X11.4500 Y9.0000 Z18.3000 F60.00
G1 X11.4380 Y9.1063 Z18.3000 F60.00
G1 X57.4818 Y55.1500 Z18.3000 F60.00
G1 X55.4312 Y55.1500 Z18.3000 F60.00
G1 X10.5983 Y10.3172 Z18.3000 F60.00
G3 X10.0000 Y10.4500 Z18.3000 I-0.5901 J-1.2444 F60.00
G1 X8.6806 Y10.4500 Z18.3000 F60.00
G1 X53.3806 Y55.1500 Z18.3000 F60.00
G1 X51.3299 Y55.1500 Z18.3000 F60.00
G1 X6.6299 Y10.4500 Z18.3000 F60.00
G1 X4.5793 Y10.4500 Z18.3000 F60.00
G1 X49.2793 Y55.1500 Z18.3000 F60.00
G1 X47.2287 Y55.1500 Z18.3000 F60.00
G1 X4.4500 Y12.3713 Z18.3000 F60.00
G1 X4.4500 Y14.4219 Z18.3000 F60.00
G1 X45.1781 Y55.1500 Z18.3000 F60.00
G1 X43.1275 Y55.1500 Z18.3000 F60.00
G1 X4.4500 Y16.4725 Z18.3000 F60.00
G1 X4.4500 Y18.5231 Z18.3000 F60.00
G1 X41.0769 Y55.1500 Z18.3000 F60.00
G1 X39.0263 Y55.1500 Z18.3000 F60.00
G1 X4.4500 Y20.5737 Z18.3000 F60.00
G1 X4.4500 Y22.6243 Z18.3000 F60.00
G1 X36.9757 Y55.1500 Z18.3000 F60.00
G1 X34.9251 Y55.1500 Z18.3000 F60.00
G1 X4.4500 Y24.6749 Z18.3000 F60.00
G1 X4.4500 Y26.7255 Z18.3000 F60.00
G1 X32.8745 Y55.1500 Z18.3000 F60.00
G1 X30.8239 Y55.1500 Z18.3000 F60.00
G1 X4.4500 Y28.7761 Z18.3000 F60.00
G1 X4.4500 Y30.8268 Z18.3000 F60.00
G1 X28.7732 Y55.1500 Z18.3000 F60.00
G1 X26.7226 Y55.1500 Z18.3000 F60.00
G1 X4.4500 Y32.8774 Z18.3000 F60.00
G1 X4.4500 Y34.9280 Z18.3000 F60.00
G1 X24.6720 Y55.1500 Z18.3000 F60.00
G1 X22.6214 Y55.1500 Z18.3000 F60.00
G1 X4.4500 Y36.9786 Z18.3000 F60.00
G1 X4.4500 Y39.0292 Z18.3000 F60.00
G1 X20.5708 Y55.1500 Z18.3000 F60.00
G1 X18.5202 Y55.1500 Z18.3000 F60.00
G1 X4.4500 Y41.0798 Z18.3000 F60.00
G1 X4.4500 Y43.1304 Z18.3000 F60.00
G1 X9.4696 Y48.1500 Z18.3000 F60.00
G1 X7.4190 Y48.1500 Z18.3000 F60.00
G1 X4.4500 Y45.1810 Z18.3000 F60.00
G1 X4.4500 Y47.2316 Z18.3000 F60.00
G1 X4.4500 Y48.1500 Z18.3000 F60.00
G1 X5.3684 Y48.1500 Z18.3000 F60.00
G1 X4.4500 Y47.2316 Z18.3000 F60.00
G0 X4.4500 Y47.2316 Z26.0000
G0 X11.4500 Y50.1304 Z26.0000
G1 X11.4500 Y50.1304 Z18.3000 F60.00
G1 X16.4696 Y55.1500 Z18.3000 F60.00
G1 X14.4190 Y55.1500 Z18.3000 F60.00
G1 X11.4500 Y52.1810 Z18.3000 F60.00
G1 X11.4500 Y54.2316 Z18.3000 F60.00
G1 X11.4500 Y55.1500 Z18.3000 F60.00
G1 X12.3684 Y55.1500 Z18.3000 F60.00
G1 X11.4500 Y54.2316 Z18.3000 F60.00
G1 X11.4500 Y54.2316 Z17.4000 F60.00
G1 X12.3684 Y55.1500 Z17.4000 F60.00
G1 X11.4500 Y55.1500 Z17.4000 F60.00
G1 X11.4500 Y54.2316 Z17.4000 F60.00
G1 X11.4500 Y52.1810 Z17.4000 F60.00
G1 X14.4190 Y55.1500 Z17.4000 F60.00
G1 X16.4696 Y55.1500 Z17.4000 F60.00
G1 X11.4500 Y50.1304 Z17.4000 F60.00
G1 X11.4500 Y50.1304 Z17.4000 F60.00
G1 X11.4500 Y55.1500 Z17.4000 F60.00
G1 X79.6037 Y55.1500 Z17.4000 F60.00
G1 X79.6037 Y49.6000 Z17.4000 F60.00
G3 X81.0537 Y48.1500 Z17.4000 I1.4500 J-0.0000 F60.00
G1 X86.6037 Y48.1500 Z17.4000 F60.00
G1 X86.6037 Y10.4500 Z17.4000 F60.00
G1 X81.0537 Y10.4500 Z17.4000 F60.00
G3 X79.6037 Y9.0000 Z17.4000 I-0.0000 J-1.4500 F60.00
G1 X79.6037 Y3.4500 Z17.4000 F60.00
G1 X11.4500 Y3.4500 Z17.4000 F60.00
G1 X11.4500 Y9.0000 Z17.4000 F60.00
G3 X10.0000 Y10.4500 Z17.4000 I-1.4500 J0.0000 F60.00
G1 X4.4500 Y10.4500 Z17.4000 F60.00
G1 X4.4500 Y48.1500 Z17.4000 F60.00
G1 X10.0000 Y48.1500 Z17.4000 F60.00
G3 X11.4500 Y49.6000 Z17.4000 I0.0000 J1.4500 F60.00
G1 X11.4500 Y50.1304 Z17.4000 F60.00
G0 X11.4500 Y50.1304 Z26.0000
G0 X4.4500 Y47.2316 Z26.0000
G1 X4.4500 Y47.2316 Z17.4000 F60.00
G1 X5.3684 Y48.1500 Z17.4000 F60.00
G1 X4.4500 Y48.1500 Z17.4000 F60.00
G1 X4.4500 Y47.2316 Z17.4000 F60.00
G1 X4.4500 Y45.1810 Z17.4000 F60.00
G1 X7.4190 Y48.1500 Z17.4000 F60.00
G1 X9.4696 Y48.1500 Z17.4000 F60.00
G1 X4.4500 Y43.1304 Z17.4000 F60.00
G1 X4.4500 Y41.0798 Z17.4000 F60.00
G1 X18.5202 Y55.1500 Z17.4000 F60.00
G1 X20.5708 Y55.1500 Z17.4000 F60.00
G1 X4.4500 Y39.0292 Z17.4000 F60.00
G1 X4.4500 Y36.9786 Z17.4000 F60.00
G1 X22.6214 Y55.1500 Z17.4000 F60.00
G1 X24.6720 Y55.1500 Z17.4000 F60.00
G1 X4.4500 Y34.9280 Z17.4000 F60.00
G1 X4.4500 Y32.8774 Z17.4000 F60.00
G1 X26.7226 Y55.1500 Z17.4000 F60.00
G1 X28.7732 Y55.1500 Z17.4000 F60.00
G1 X4.4500 Y30.8268 Z17.4000 F60.00
G1 X4.4500 Y28.7761 Z17.4000 F60.00
G1 X30.8239 Y55.1500 Z17.4000 F60.00
G1 X32.8745 Y55.1500 Z17.4000 F60.00
G1 X4.4500 Y26.7255 Z17.4000 F60.00
G1 X4.4500 Y24.6749 Z17.4000 F60.00
G1 X34.9251 Y55.1500 Z17.4000 F60.00
G1 X36.9757 Y55.1500 Z17.4000 F60.00
G1 X4.4500 Y22.6243 Z17.4000 F60.00
G1 X4.4500 Y20.5737 Z17.4000 F60.00
G1 X39.0263 Y55.1500 Z17.4000 F60.00
G1 X41.0769 Y55.1500 Z17.4000 F60.00
G1 X4.4500 Y18.5231 Z17.4000 F60.00
G1 X4.4500 Y16.4725 Z17.4000 F60.00
G1 X43.1275 Y55.1500 Z17.4000 F60.00
G1 X45.1781 Y55.1500 Z17.4000 F60.00
G1 X4.4500 Y14.4219 Z17.4000 F60.00
G1 X4.4500 Y12.3713 Z17.4000 F60.00
G1 X47.2287 Y55.1500 Z17.4000 F60.00
G1 X49.2793 Y55.1500 Z17.4000 F60.00
G1 X4.5793 Y10.4500 Z17.4000 F60.00
G1 X6.6299 Y10.4500 Z17.4000 F60.00
G1 X51.3299 Y55.1500 Z17.4000 F60.00
G1 X53.3806 Y55.1500 Z17.4000 F60.00
G1 X8.6806 Y10.4500 Z17.4000 F60.00
G1 X10.0000 Y10.4500 Z17.4000 F60.00
G2 X10.5983 Y10.3172 Z17.4000 I0.0082 J-1.3772 F60.00
G1 X55.4312 Y55.1500 Z17.4000 F60.00
G1 X57.4818 Y55.1500 Z17.4000 F60.00
G1 X11.4380 Y9.1063 Z17.4000 F60.00
G1 X11.4500 Y9.0000 Z17.4000 F60.00
G1 X11.4500 Y7.0676 Z17.4000 F60.00
G1 X59.5324 Y55.1500 Z17.4000 F60.00
G1 X61.5830 Y55.1500 Z17.4000 F60.00
G1 X11.4500 Y5.0170 Z17.4000 F60.00
G1 X11.4500 Y3.4500 Z17.4000 F60.00
G1 X11.9336 Y3.4500 Z17.4000 F60.00
G1 X63.6336 Y55.1500 Z17.4000 F60.00
G1 X65.6842 Y55.1500 Z17.4000 F60.00
G1 X13.9842 Y3.4500 Z17.4000 F60.00
G1 X16.0348 Y3.4500 Z17.4000 F60.00
G1 X67.7348 Y55.1500 Z17.4000 F60.00
G1 X69.7854 Y55.1500 Z17.4000 F60.00
G1 X18.0854 Y3.4500 Z17.4000 F60.00
G1 X20.1360 Y3.4500 Z17.4000 F60.00
G1 X71.8360 Y55.1500 Z17.4000 F60.00
G1 X73.8867 Y55.1500 Z17.4000 F60.00
G1 X22.1867 Y3.4500 Z17.4000 F60.00
G1 X24.2373 Y3.4500 Z17.4000 F60.00
G1 X75.9373 Y55.1500 Z17.4000 F60.00
G1 X77.9879 Y55.1500 Z17.4000 F60.00
G1 X26.2879 Y3.4500 Z17.4000 F60.00
G1 X28.3385 Y3.4500 Z17.4000 F60.00
G1 X79.6037 Y54.7152 Z17.4000 F60.00
G1 X79.6037 Y52.6646 Z17.4000 F60.00
G1 X30.3891 Y3.4500 Z17.4000 F60.00
G1 X32.4397 Y3.4500 Z17.4000 F60.00
G1 X79.6037 Y50.6140 Z17.4000 F60.00
G1 X79.6037 Y49.6000 Z17.4000 F60.00
G3 X79.8491 Y48.8088 Z17.4000 I1.3684 J-0.0092 F60.00
G1 X34.4903 Y3.4500 Z17.4000 F60.00
G1 X36.5409 Y3.4500 Z17.4000 F60.00
G1 X81.2409 Y48.1500 Z17.4000 F60.00
G1 X83.2915 Y48.1500 Z17.4000 F60.00
G1 X38.5915 Y3.4500 Z17.4000 F60.00
G1 X40.6421 Y3.4500 Z17.4000 F60.00
G1 X85.3421 Y48.1500 Z17.4000 F60.00
G1 X86.6037 Y48.1500 Z17.4000 F60.00
G1 X86.6037 Y47.3610 Z17.4000 F60.00
G1 X42.6928 Y3.4500 Z17.4000 F60.00
G1 X44.7434 Y3.4500 Z17.4000 F60.00
G1 X86.6037 Y45.3104 Z17.4000 F60.00
G1 X86.6037 Y43.2598 Z17.4000 F60.00
G1 X46.7940 Y3.4500 Z17.4000 F60.00
G1 X48.8446 Y3.4500 Z17.4000 F60.00
G1 X86.6037 Y41.2091 Z17.4000 F60.00
G1 X86.6037 Y39.1585 Z17.4000 F60.00
G1 X50.8952 Y3.4500 Z17.4000 F60.00
G1 X52.9458 Y3.4500 Z17.4000 F60.00
G1 X86.6037 Y37.1079 Z17.4000 F60.00
G1 X86.6037 Y35.0573 Z17.4000 F60.00
G1 X54.9964 Y3.4500 Z17.4000 F60.00
G1 X57.0470 Y3.4500 Z17.4000 F60.00
G1 X86.6037 Y33.0067 Z17.4000 F60.00
G1 X86.6037 Y30.9561 Z17.4000 F60.00
G1 X59.0976 Y3.4500 Z17.4000 F60.00
G1 X61.1482 Y3.4500 Z17.4000 F60.00
G1 X86.6037 Y28.9055 Z17.4000 F60.00
G1 X86.6037 Y26.8549 Z17.4000 F60.00
G1 X63.1988 Y3.4500 Z17.4000 F60.00
G1 X65.2495 Y3.4500 Z17.4000 F60.00
G1 X86.6037 Y24.8043 Z17.4000 F60.00
G1 X86.6037 Y22.7537 Z17.4000 F60.00
G1 X67.3001 Y3.4500 Z17.4000 F60.00
G1 X69.3507 Y3.4500 Z17.4000 F60.00
G1 X86.6037 Y20.7030 Z17.4000 F60.00
G1 X86.6037 Y18.6524 Z17.4000 F60.00
G1 X71.4013 Y3.4500 Z17.4000 F60.00
G1 X73.4519 Y3.4500 Z17.4000 F60.00
G1 X86.6037 Y16.6018 Z17.4000 F60.00
G1 X86.6037 Y14.5512 Z17.4000 F60.00
G1 X82.5025 Y10.4500 Z17.4000 F60.00
G1 X81.0537 Y10.4500 Z17.4000 F60.00
G3 X79.6037 Y9.0000 Z17.4000 I-0.0000 J-1.4500 F60.00
G1 X79.6037 Y7.5512 Z17.4000 F60.00
G1 X75.5025 Y3.4500 Z17.4000 F60.00
G1 X77.5531 Y3.4500 Z17.4000 F60.00
G1 X79.6037 Y5.5006 Z17.4000 F60.00
G1 X79.6037 Y3.4500 Z17.4000 F60.00
G0 X79.6037 Y3.4500 Z26.0000
G0 X86.6037 Y10.4500 Z26.0000
G1 X86.6037 Y10.4500 Z17.4000 F60.00
G1 X86.6037 Y12.5006 Z17.4000 F60.00
G1 X84.5531 Y10.4500 Z17.4000 F60.00
G1 X82.5025 Y10.4500 Z17.4000 F60.00
G1 X86.6037 Y14.5512 Z17.4000 F60.00
G1 X86.6037 Y14.5512 Z16.5000 F60.00
G1 X82.5025 Y10.4500 Z16.5000 F60.00
G1 X84.5531 Y10.4500 Z16.5000 F60.00
G1 X86.6037 Y12.5006 Z16.5000 F60.00
G1 X86.6037 Y10.4500 Z16.5000 F60.00
G1 X86.6037 Y10.4500 Z16.5000 F60.00
G1 X81.0537 Y10.4500 Z16.5000 F60.00
G3 X79.6037 Y9.0000 Z16.5000 I-0.0000 J-1.4500 F60.00
G1 X79.6037 Y3.4500 Z16.5000 F60.00
G1 X11.4500 Y3.4500 Z16.5000 F60.00
G1 X11.4500 Y9.0000 Z16.5000 F60.00
G3 X10.0000 Y10.4500 Z16.5000 I-1.4500 J0.0000 F60.00
G1 X4.4500 Y10.4500 Z16.5000 F60.00
G1 X4.4500 Y48.1500 Z16.5000 F60.00
G1 X10.0000 Y48.1500 Z16.5000 F60.00
G3 X11.4500 Y49.6000 Z16.5000 I0.0000 J1.4500 F60.00
G1 X11.4500 Y55.1500 Z16.5000 F60.00
G1 X79.6037 Y55.1500 Z16.5000 F60.00
G1 X79.6037 Y49.6000 Z16.5000 F60.00
G3 X81.0537 Y48.1500 Z16.5000 I1.4500 J-0.0000 F60.00
G1 X86.6037 Y48.1500 Z16.5000 F60.00
G1 X86.6037 Y10.4500 Z16.5000 F60.00
G0 X86.6037 Y10.4500 Z26.0000
G0 X79.6037 Y3.4500 Z26.0000
G1 X79.6037 Y3.4500 Z16.5000 F60.00
G1 X79.6037 Y5.5006 Z16.5000 F60.00
G1 X77.5531 Y3.4500 Z16.5000 F60.00
G1 X75.5025 Y3.4500 Z16.5000 F60.00
G1 X79.6037 Y7.5512 Z16.5000 F60.00
G1 X79.6037 Y9.0000 Z16.5000 F60.00
G2 X81.0537 Y10.4500 Z16.5000 I1.4500 J0.0000 F60.00
G1 X82.5025 Y10.4500 Z16.5000 F60.00
G1 X86.6037 Y14.5512 Z16.5000 F60.00
G1 X86.6037 Y16.6018 Z16.5000 F60.00
G1 X73.4519 Y3.4500 Z16.5000 F60.00
G1 X71.4013 Y3.4500 Z16.5000 F60.00
G1 X86.6037 Y18.6524 Z16.5000 F60.00
G1 X86.6037 Y20.7030 Z16.5000 F60.00
G1 X69.3507 Y3.4500 Z16.5000 F60.00
G1 X67.3001 Y3.4500 Z16.5000 F60.00
G1 X86.6037 Y22.7537 Z16.5000 F60.00
G1 X86.6037 Y24.8043 Z16.5000 F60.00
G1 X65.2495 Y3.4500 Z16.5000 F60.00
G1 X63.1988 Y3.4500 Z16.5000 F60.00
G1 X86.6037 Y26.8549 Z16.5000 F60.00
G1 X86.6037 Y28.9055 Z16.5000 F60.00
G1 X61.1482 Y3.4500 Z16.5000 F60.00
G1 X59.0976 Y3.4500 Z16.5000 F60.00
G1 X86.6037 Y30.9561 Z16.5000 F60.00
G1 X86.6037 Y33.0067 Z16.5000 F60.00
G1 X57.0470 Y3.4500 Z16.5000 F60.00
G1 X54.9964 Y3.4500 Z16.5000 F60.00
G1 X86.6037 Y35.0573 Z16.5000 F60.00
G1 X86.6037 Y37.1079 Z16.5000 F60.00
G1 X52.9458 Y3.4500 Z16.5000 F60.00
G1 X50.8952 Y3.4500 Z16.5000 F60.00
G1 X86.6037 Y39.1585 Z16.5000 F60.00
G1 X86.6037 Y41.2091 Z16.5000 F60.00
G1 X48.8446 Y3.4500 Z16.5000 F60.00
G1 X46.7940 Y3.4500 Z16.5000 F60.00
G1 X86.6037 Y43.2598 Z16.5000 F60.00
G1 X86.6037 Y45.3104 Z16.5000 F60.00
G1 X44.7434 Y3.4500 Z16.5000 F60.00
G1 X42.6928 Y3.4500 Z16.5000 F60.00
G1 X86.6037 Y47.3610 Z16.5000 F60.00
G1 X86.6037 Y48.1500 Z16.5000 F60.00
G1 X85.3421 Y48.1500 Z16.5000 F60.00
G1 X40.6421 Y3.4500 Z16.5000 F60.00
G1 X38.5915 Y3.4500 Z16.5000 F60.00
G1 X83.2915 Y48.1500 Z16.5000 F60.00
G1 X81.2409 Y48.1500 Z16.5000 F60.00
G1 X36.5409 Y3.4500 Z16.5000 F60.00
G1 X34.4903 Y3.4500 Z16.5000 F60.00
G1 X79.8491 Y48.8088 Z16.5000 F60.00
G2 X79.6037 Y49.6000 Z16.5000 I1.1230 J0.7820 F60.00
G1 X79.6037 Y50.6140 Z16.5000 F60.00
G1 X32.4397 Y3.4500 Z16.5000 F60.00
G1 X30.3891 Y3.4500 Z16.5000 F60.00
G1 X79.6037 Y52.6646 Z16.5000 F60.00
G1 X79.6037 Y54.7152 Z16.5000 F60.00
G1 X28.3385 Y3.4500 Z16.5000 F60.00
G1 X26.2879 Y3.4500 Z16.5000 F60.00
G1 X77.9879 Y55.1500 Z16.5000 F60.00
G1 X75.9373 Y55.1500 Z16.5000 F60.00
G1 X24.2373 Y3.4500 Z16.5000 F60.00
G1 X22.1867 Y3.4500 Z16.5000 F60.00
G1 X73.8867 Y55.1500 Z16.5000 F60.00
G1 X71.8360 Y55.1500 Z16.5000 F60.00
G1 X20.1360 Y3.4500 Z16.5000 F60.00
G1 X18.0854 Y3.4500 Z16.5000 F60.00
G1 X69.7854 Y55.1500 Z16.5000 F60.00
G1 X67.7348 Y55.1500 Z16.5000 F60.00
G1 X16.0348 Y3.4500 Z16.5000 F60.00
G1 X13.9842 Y3.4500 Z16.5000 F60.00
G1 X65.6842 Y55.1500 Z16.5000 F60.00
G1 X63.6336 Y55.1500 Z16.5000 F60.00
G1 X11.9336 Y3.4500 Z16.5000 F60.00
G1 X11.4500 Y3.4500 Z16.5000 F60.00
G1 X11.4500 Y5.0170 Z16.5000 F60.00
G1 X61.5830 Y55.1500 Z16.5000 F60.00
G1 X59.5324 Y55.1500 Z16.5000 F60.00
G1 X11.4500 Y7.0676 Z16.5000 F60.00
G1 X11.4500 Y9.0000 Z16.5000 F60.00
G1 X11.4380 Y9.1063 Z16.5000 F60.00
G1 X57.4818 Y55.1500 Z16.5000 F60.00
G1 X55.4312 Y55.1500 Z16.5000 F60.00
G1 X10.5983 Y10.3172 Z16.5000 F60.00
G3 X10.0000 Y10.4500 Z16.5000 I-0.5901 J-1.2444 F60.00
G1 X8.6806 Y10.4500 Z16.5000 F60.00
G1 X53.3806 Y55.1500 Z16.5000 F60.00
G1 X51.3299 Y55.1500 Z16.5000 F60.00
G1 X6.6299 Y10.4500 Z16.5000 F60.00
G1 X4.5793 Y10.4500 Z16.5000 F60.00
G1 X49.2793 Y55.1500 Z16.5000 F60.00
G1 X47.2287 Y55.1500 Z16.5000 F60.00
G1 X4.4500 Y12.3713 Z16.5000 F60.00
G1 X4.4500 Y14.4219 Z16.5000 F60.00
G1 X45.1781 Y55.1500 Z16.5000 F60.00
G1 X43.1275 Y55.1500 Z16.5000 F60.00
G1 X4.4500 Y16.4725 Z16.5000 F60.00
G1 X4.4500 Y18.5231 Z16.5000 F60.00
G1 X41.0769 Y55.1500 Z16.5000 F60.00
G1 X39.0263 Y55.1500 Z16.5000 F60.00
G1 X4.4500 Y20.5737 Z16.5000 F60.00
G1 X4.4500 Y22.6243 Z16.5000 F60.00
G1 X36.9757 Y55.1500 Z16.5000 F60.00
G1 X34.9251 Y55.1500 Z16.5000 F60.00
G1 X4.4500 Y24.6749 Z16.5000 F60.00
G1 X4.4500 Y26.7255 Z16.5000 F60.00
G1 X32.8745 Y55.1500 Z16.5000 F60.00
G1 X30.8239 Y55.1500 Z16.5000 F60.00
G1 X4.4500 Y28.7761 Z16.5000 F60.00
G1 X4.4500 Y30.8268 Z16.5000 F60.00
G1 X28.7732 Y55.1500 Z16.5000 F60.00
G1 X26.7226 Y55.1500 Z16.5000 F60.00
G1 X4.4500 Y32.8774 Z16.5000 F60.00
G1 X4.4500 Y34.9280 Z16.5000 F60.00
G1 X24.6720 Y55.1500 Z16.5000 F60.00
G1 X22.6214 Y55.1500 Z16.5000 F60.00
G1 X4.4500 Y36.9786 Z16.5000 F60.00
G1 X4.4500 Y39.0292 Z16.5000 F60.00
G1 X20.5708 Y55.1500 Z16.5000 F60.00
G1 X18.5202 Y55.1500 Z16.5000 F60.00
G1 X4.4500 Y41.0798 Z16.5000 F60.00
G1 X4.4500 Y43.1304 Z16.5000 F60.00
G1 X9.4696 Y48.1500 Z16.5000 F60.00
G1 X7.4190 Y48.1500 Z16.5000 F60.00
G1 X4.4500 Y45.1810 Z16.5000 F60.00
G1 X4.4500 Y47.2316 Z16.5000 F60.00
G1 X4.4500 Y48.1500 Z16.5000 F60.00
G1 X5.3684 Y48.1500 Z16.5000 F60.00
G1 X4.4500 Y47.2316 Z16.5000 F60.00
G0 X4.4500 Y47.2316 Z26.0000
G0 X11.4500 Y50.1304 Z26.0000
G1 X11.4500 Y50.1304 Z16.5000 F60.00
G1 X16.4696 Y55.1500 Z16.5000 F60.00
G1 X14.4190 Y55.1500 Z16.5000 F60.00
G1 X11.4500 Y52.1810 Z16.5000 F60.00
G1 X11.4500 Y54.2316 Z16.5000 F60.00
G1 X11.4500 Y55.1500 Z16.5000 F60.00
G1 X12.3684 Y55.1500 Z16.5000 F60.00
G1 X11.4500 Y54.2316 Z16.5000 F60.00
G1 X11.4500 Y54.2316 Z15.6000 F60.00
G1 X12.3684 Y55.1500 Z15.6000 F60.00
G1 X11.4500 Y55.1500 Z15.6000 F60.00
G1 X11.4500 Y54.2316 Z15.6000 F60.00
G1 X11.4500 Y52.1810 Z15.6000 F60.00
G1 X14.4190 Y55.1500 Z15.6000 F60.00
G1 X16.4696 Y55.1500 Z15.6000 F60.00
G1 X11.4500 Y50.1304 Z15.6000 F60.00
G1 X11.4500 Y50.1304 Z15.6000 F60.00
G1 X11.4500 Y55.1500 Z15.6000 F60.00
G1 X79.6037 Y55.1500 Z15.6000 F60.00
G1 X79.6037 Y49.6000 Z15.6000 F60.00
G3 X81.0537 Y48.1500 Z15.6000 I1.4500 J-0.0000 F60.00
G1 X86.6037 Y48.1500 Z15.6000 F60.00
G1 X86.6037 Y10.4500 Z15.6000 F60.00
G1 X81.0537 Y10.4500 Z15.6000 F60.00
G3 X79.6037 Y9.0000 Z15.6000 I-0.0000 J-1.4500 F60.00
G1 X79.6037 Y3.4500 Z15.6000 F60.00
G1 X11.4500 Y3.4500 Z15.6000 F60.00
G1 X11.4500 Y9.0000 Z15.6000 F60.00
G3 X10.0000 Y10.4500 Z15.6000 I-1.4500 J0.0000 F60.00
G1 X4.4500 Y10.4500 Z15.6000 F60.00
G1 X4.4500 Y48.1500 Z15.6000 F60.00
G1 X10.0000 Y48.1500 Z15.6000 F60.00
G3 X11.4500 Y49.6000 Z15.6000 I0.0000 J1.4500 F60.00
G1 X11.4500 Y50.1304 Z15.6000 F60.00
G0 X11.4500 Y50.1304 Z26.0000
G0 X4.4500 Y47.2316 Z26.0000
G1 X4.4500 Y47.2316 Z15.6000 F60.00
G1 X5.3684 Y48.1500 Z15.6000 F60.00
G1 X4.4500 Y48.1500 Z15.6000 F60.00
G1 X4.4500 Y47.2316 Z15.6000 F60.00
G1 X4.4500 Y45.1810 Z15.6000 F60.00
G1 X7.4190 Y48.1500 Z15.6000 F60.00
G1 X9.4696 Y48.1500 Z15.6000 F60.00
G1 X4.4500 Y43.1304 Z15.6000 F60.00
G1 X4.4500 Y41.0798 Z15.6000 F60.00
G1 X18.5202 Y55.1500 Z15.6000 F60.00
G1 X20.5708 Y55.1500 Z15.6000 F60.00
G1 X4.4500 Y39.0292 Z15.6000 F60.00
G1 X4.4500 Y36.9786 Z15.6000 F60.00
G1 X22.6214 Y55.1500 Z15.6000 F60.00
G1 X24.6720 Y55.1500 Z15.6000 F60.00
G1 X4.4500 Y34.9280 Z15.6000 F60.00
G1 X4.4500 Y32.8774 Z15.6000 F60.00
G1 X26.7226 Y55.1500 Z15.6000 F60.00
G1 X28.7732 Y55.1500 Z15.6000 F60.00
G1 X4.4500 Y30.8268 Z15.6000 F60.00
G1 X4.4500 Y28.7761 Z15.6000 F60.00
G1 X30.8239 Y55.1500 Z15.6000 F60.00
G1 X32.8745 Y55.1500 Z15.6000 F60.00
G1 X4.4500 Y26.7255 Z15.6000 F60.00
G1 X4.4500 Y24.6749 Z15.6000 F60.00
G1 X34.9251 Y55.1500 Z15.6000 F60.00
G1 X36.9757 Y55.1500 Z15.6000 F60.00
G1 X4.4500 Y22.6243 Z15.6000 F60.00
G1 X4.4500 Y20.5737 Z15.6000 F60.00
G1 X39.0263 Y55.1500 Z15.6000 F60.00
G1 X41.0769 Y55.1500 Z15.6000 F60.00
G1 X4.4500 Y18.5231 Z15.6000 F60.00
G1 X4.4500 Y16.4725 Z15.6000 F60.00
G1 X43.1275 Y55.1500 Z15.6000 F60.00
G1 X45.1781 Y55.1500 Z15.6000 F60.00
G1 X4.4500 Y14.4219 Z15.6000 F60.00
G1 X4.4500 Y12.3713 Z15.6000 F60.00
G1 X47.2287 Y55.1500 Z15.6000 F60.00
G1 X49.2793 Y55.1500 Z15.6000 F60.00
G1 X4.5793 Y10.4500 Z15.6000 F60.00
G1 X6.6299 Y10.4500 Z15.6000 F60.00
G1 X51.3299 Y55.1500 Z15.6000 F60.00
G1 X53.3806 Y55.1500 Z15.6000 F60.00
G1 X8.6806 Y10.4500 Z15.6000 F60.00
G1 X10.0000 Y10.4500 Z15.6000 F60.00
G2 X10.5983 Y10.3172 Z15.6000 I0.0082 J-1.3772 F60.00
G1 X55.4312 Y55.1500 Z15.6000 F60.00
G1 X57.4818 Y55.1500 Z15.6000 F60.00
G1 X11.4380 Y9.1063 Z15.6000 F60.00
G1 X11.4500 Y9.0000 Z15.6000 F60.00
G1 X11.4500 Y7.0676 Z15.6000 F60.00
G1 X59.5324 Y55.1500 Z15.6000 F60.00
G1 X61.5830 Y55.1500 Z15.6000 F60.00
G1 X11.4500 Y5.0170 Z15.6000 F60.00
G1 X11.4500 Y3.4500 Z15.6000 F60.00
G1 X11.9336 Y3.4500 Z15.6000 F60.00
G1 X63.6336 Y55.1500 Z15.6000 F60.00
G1 X65.6842 Y55.1500 Z15.6000 F60.00
G1 X13.9842 Y3.4500 Z15.6000 F60.00
G1 X16.0348 Y3.4500 Z15.6000 F60.00
G1 X67.7348 Y55.1500 Z15.6000 F60.00
G1 X69.7854 Y55.1500 Z15.6000 F60.00
G1 X18.0854 Y3.4500 Z15.6000 F60.00
G1 X20.1360 Y3.4500 Z15.6000 F60.00
G1 X71.8360 Y55.1500 Z15.6000 F60.00
G1 X73.8867 Y55.1500 Z15.6000 F60.00
G1 X22.1867 Y3.4500 Z15.6000 F60.00
G1 X24.2373 Y3.4500 Z15.6000 F60.00
G1 X75.9373 Y55.1500 Z15.6000 F60.00
G1 X77.9879 Y55.1500 Z15.6000 F60.00
G1 X26.2879 Y3.4500 Z15.6000 F60.00
G1 X28.3385 Y3.4500 Z15.6000 F60.00
G1 X79.6037 Y54.7152 Z15.6000 F60.00
G1 X79.6037 Y52.6646 Z15.6000 F60.00
G1 X30.3891 Y3.4500 Z15.6000 F60.00
G1 X32.4397 Y3.4500 Z15.6000 F60.00
G1 X79.6037 Y50.6140 Z15.6000 F60.00
G1 X79.6037 Y49.6000 Z15.6000 F60.00
G3 X79.8491 Y48.8088 Z15.6000 I1.3684 J-0.0092 F60.00
G1 X34.4903 Y3.4500 Z15.6000 F60.00
G1 X36.5409 Y3.4500 Z15.6000 F60.00
G1 X81.2409 Y48.1500 Z15.6000 F60.00
G1 X83.2915 Y48.1500 Z15.6000 F60.00
G1 X38.5915 Y3.4500 Z15.6000 F60.00
G1 X40.6421 Y3.4500 Z15.6000 F60.00
G1 X85.3421 Y48.1500 Z15.6000 F60.00
G1 X86.6037 Y48.1500 Z15.6000 F60.00
G1 X86.6037 Y47.3610 Z15.6000 F60.00
G1 X42.6928 Y3.4500 Z15.6000 F60.00
G1 X44.7434 Y3.4500 Z15.6000 F60.00
G1 X86.6037 Y45.3104 Z15.6000 F60.00
G1 X86.6037 Y43.2598 Z15.6000 F60.00
G1 X46.7940 Y3.4500 Z15.6000 F60.00
G1 X48.8446 Y3.4500 Z15.6000 F60.00
G1 X86.6037 Y41.2091 Z15.6000 F60.00
G1 X86.6037 Y39.1585 Z15.6000 F60.00
G1 X50.8952 Y3.4500 Z15.6000 F60.00
G1 X52.9458 Y3.4500 Z15.6000 F60.00
G1 X86.6037 Y37.1079 Z15.6000 F60.00
G1 X86.6037 Y35.0573 Z15.6000 F60.00
G1 X54.9964 Y3.4500 Z15.6000 F60.00
G1 X57.0470 Y3.4500 Z15.6000 F60.00
G1 X86.6037 Y33.0067 Z15.6000 F60.00
G1 X86.6037 Y30.9561 Z15.6000 F60.00
G1 X59.0976 Y3.4500 Z15.6000 F60.00
G1 X61.1482 Y3.4500 Z15.6000 F60.00
G1 X86.6037 Y28.9055 Z15.6000 F60.00
G1 X86.6037 Y26.8549 Z15.6000 F60.00
G1 X63.1988 Y3.4500 Z15.6000 F60.00
G1 X65.2495 Y3.4500 Z15.6000 F60.00
G1 X86.6037 Y24.8043 Z15.6000 F60.00
G1 X86.6037 Y22.7537 Z15.6000 F60.00
G1 X67.3001 Y3.4500 Z15.6000 F60.00
G1 X69.3507 Y3.4500 Z15.6000 F60.00
G1 X86.6037 Y20.7030 Z15.6000 F60.00
G1 X86.6037 Y18.6524 Z15.6000 F60.00
G1 X71.4013 Y3.4500 Z15.6000 F60.00
G1 X73.4519 Y3.4500 Z15.6000 F60.00
G1 X86.6037 Y16.6018 Z15.6000 F60.00
G1 X86.6037 Y14.5512 Z15.6000 F60.00
G1 X82.5025 Y10.4500 Z15.6000 F60.00
G1 X81.0537 Y10.4500 Z15.6000 F60.00
G3 X79.6037 Y9.0000 Z15.6000 I-0.0000 J-1.4500 F60.00
G1 X79.6037 Y7.5512 Z15.6000 F60.00
G1 X75.5025 Y3.4500 Z15.6000 F60.00
G1 X77.5531 Y3.4500 Z15.6000 F60.00
G1 X79.6037 Y5.5006 Z15.6000 F60.00
G1 X79.6037 Y3.4500 Z15.6000 F60.00
G0 X79.6037 Y3.4500 Z26.0000
G0 X86.6037 Y10.4500 Z26.0000
G1 X86.6037 Y10.4500 Z15.6000 F60.00
G1 X86.6037 Y12.5006 Z15.6000 F60.00
G1 X84.5531 Y10.4500 Z15.6000 F60.00
G1 X82.5025 Y10.4500 Z15.6000 F60.00
G1 X86.6037 Y14.5512 Z15.6000 F60.00
G1 X86.6037 Y14.5512 Z14.7000 F60.00
G1 X82.5025 Y10.4500 Z14.7000 F60.00
G1 X84.5531 Y10.4500 Z14.7000 F60.00
G1 X86.6037 Y12.5006 Z14.7000 F60.00
G1 X86.6037 Y10.4500 Z14.7000 F60.00
G1 X86.6037 Y10.4500 Z14.7000 F60.00
G1 X81.0537 Y10.4500 Z14.7000 F60.00
G3 X79.6037 Y9.0000 Z14.7000 I-0.0000 J-1.4500 F60.00
G1 X79.6037 Y3.4500 Z14.7000 F60.00
G1 X11.4500 Y3.4500 Z14.7000 F60.00
G1 X11.4500 Y9.0000 Z14.7000 F60.00
G3 X10.0000 Y10.4500 Z14.7000 I-1.4500 J0.0000 F60.00
G1 X4.4500 Y10.4500 Z14.7000 F60.00
G1 X4.4500 Y48.1500 Z14.7000 F60.00
G1 X10.0000 Y48.1500 Z14.7000 F60.00
G3 X11.4500 Y49.6000 Z14.7000 I0.0000 J1.4500 F60.00
G1 X11.4500 Y55.1500 Z14.7000 F60.00
G1 X79.6037 Y55.1500 Z14.7000 F60.00
G1 X79.6037 Y49.6000 Z14.7000 F60.00
G3 X81.0537 Y48.1500 Z14.7000 I1.4500 J-0.0000 F60.00
G1 X86.6037 Y48.1500 Z14.7000 F60.00
G1 X86.6037 Y10.4500 Z14.7000 F60.00
G0 X86.6037 Y10.4500 Z26.0000
G0 X79.6037 Y3.4500 Z26.0000
G1 X79.6037 Y3.4500 Z14.7000 F60.00
G1 X79.6037 Y5.5006 Z14.7000 F60.00
G1 X77.5531 Y3.4500 Z14.7000 F60.00
G1 X75.5025 Y3.4500 Z14.7000 F60.00
G1 X79.6037 Y7.5512 Z14.7000 F60.00
G1 X79.6037 Y9.0000 Z14.7000 F60.00
G2 X81.0537 Y10.4500 Z14.7000 I1.4500 J0.0000 F60.00
G1 X82.5025 Y10.4500 Z14.7000 F60.00
G1 X86.6037 Y14.5512 Z14.7000 F60.00
G1 X86.6037 Y16.6018 Z14.7000 F60.00
G1 X73.4519 Y3.4500 Z14.7000 F60.00
G1 X71.4013 Y3.4500 Z14.7000 F60.00
G1 X86.6037 Y18.6524 Z14.7000 F60.00
G1 X86.6037 Y20.7030 Z14.7000 F60.00
G1 X69.3507 Y3.4500 Z14.7000 F60.00
G1 X67.3001 Y3.4500 Z14.7000 F60.00
G1 X86.6037 Y22.7537 Z14.7000 F60.00
G1 X86.6037 Y24.8043 Z14.7000 F60.00
G1 X65.2495 Y3.4500 Z14.7000 F60.00
G1 X63.1988 Y3.4500 Z14.7000 F60.00
G1 X86.6037 Y26.8549 Z14.7000 F60.00
G1 X86.6037 Y28.9055 Z14.7000 F60.00
G1 X61.1482 Y3.4500 Z14.7000 F60.00
G1 X59.0976 Y3.4500 Z14.7000 F60.00
G1 X86.6037 Y30.9561 Z14.7000 F60.00
G1 X86.6037 Y33.0067 Z14.7000 F60.00
G1 X57.0470 Y3.4500 Z14.7000 F60.00
G1 X54.9964 Y3.4500 Z14.7000 F60.00
G1 X86.6037 Y35.0573 Z14.7000 F60.00
G1 X86.6037 Y37.1079 Z14.7000 F60.00
G1 X52.9458 Y3.4500 Z14.7000 F60.00
G1 X50.8952 Y3.4500 Z14.7000 F60.00
G1 X86.6037 Y39.1585 Z14.7000 F60.00
G1 X86.6037 Y41.2091 Z14.7000 F60.00
G1 X48.8446 Y3.4500 Z14.7000 F60.00
G1 X46.7940 Y3.4500 Z14.7000 F60.00
G1 X86.6037 Y43.2598 Z14.7000 F60.00
G1 X86.6037 Y45.3104 Z14.7000 F60.00
G1 X44.7434 Y3.4500 Z14.7000 F60.00
G1 X42.6928 Y3.4500 Z14.7000 F60.00
G1 X86.6037 Y47.3610 Z14.7000 F60.00
G1 X86.6037 Y48.1500 Z14.7000 F60.00
G1 X85.3421 Y48.1500 Z14.7000 F60.00
G1 X40.6421 Y3.4500 Z14.7000 F60.00
G1 X38.5915 Y3.4500 Z14.7000 F60.00
G1 X83.2915 Y48.1500 Z14.7000 F60.00
G1 X81.2409 Y48.1500 Z14.7000 F60.00
G1 X36.5409 Y3.4500 Z14.7000 F60.00
G1 X34.4903 Y3.4500 Z14.7000 F60.00
G1 X79.8491 Y48.8088 Z14.7000 F60.00
G2 X79.6037 Y49.6000 Z14.7000 I1.1230 J0.7820 F60.00
G1 X79.6037 Y50.6140 Z14.7000 F60.00
G1 X32.4397 Y3.4500 Z14.7000 F60.00
G1 X30.3891 Y3.4500 Z14.7000 F60.00
G1 X79.6037 Y52.6646 Z14.7000 F60.00
G1 X79.6037 Y54.7152 Z14.7000 F60.00
G1 X28.3385 Y3.4500 Z14.7000 F60.00
G1 X26.2879 Y3.4500 Z14.7000 F60.00
G1 X77.9879 Y55.1500 Z14.7000 F60.00
G1 X75.9373 Y55.1500 Z14.7000 F60.00
G1 X24.2373 Y3.4500 Z14.7000 F60.00
G1 X22.1867 Y3.4500 Z14.7000 F60.00
G1 X73.8867 Y55.1500 Z14.7000 F60.00
G1 X71.8360 Y55.1500 Z14.7000 F60.00
G1 X20.1360 Y3.4500 Z14.7000 F60.00
G1 X18.0854 Y3.4500 Z14.7000 F60.00
G1 X69.7854 Y55.1500 Z14.7000 F60.00
G1 X67.7348 Y55.1500 Z14.7000 F60.00
G1 X16.0348 Y3.4500 Z14.7000 F60.00
G1 X13.9842 Y3.4500 Z14.7000 F60.00
G1 X65.6842 Y55.1500 Z14.7000 F60.00
G1 X63.6336 Y55.1500 Z14.7000 F60.00
G1 X11.9336 Y3.4500 Z14.7000 F60.00
G1 X11.4500 Y3.4500 Z14.7000 F60.00
G1 X11.4500 Y5.0170 Z14.7000 F60.00
G1 X61.5830 Y55.1500 Z14.7000 F60.00
G1 X59.5324 Y55.1500 Z14.7000 F60.00
G1 X11.4500 Y7.0676 Z14.7000 F60.00
G1 X11.4500 Y9.0000 Z14.7000 F60.00
G1 X11.4380 Y9.1063 Z14.7000 F60.00
G1 X57.4818 Y55.1500 Z14.7000 F60.00
G1 X55.4312 Y55.1500 Z14.7000 F60.00
G1 X10.5983 Y10.3172 Z14.7000 F60.00
G3 X10.0000 Y10.4500 Z14.7000 I-0.5901 J-1.2444 F60.00
G1 X8.6806 Y10.4500 Z14.7000 F60.00
G1 X53.3806 Y55.1500 Z14.7000 F60.00
G1 X51.3299 Y55.1500 Z14.7000 F60.00
G1 X6.6299 Y10.4500 Z14.7000 F60.00
G1 X4.5793 Y10.4500 Z14.7000 F60.00
G1 X49.2793 Y55.1500 Z14.7000 F60.00
G1 X47.2287 Y55.1500 Z14.7000 F60.00
G1 X4.4500 Y12.3713 Z14.7000 F60.00
G1 X4.4500 Y14.4219 Z14.7000 F60.00
G1 X45.1781 Y55.1500 Z14.7000 F60.00
G1 X43.1275 Y55.1500 Z14.7000 F60.00
G1 X4.4500 Y16.4725 Z14.7000 F60.00
G1 X4.4500 Y18.5231 Z14.7000 F60.00
G1 X41.0769 Y55.1500 Z14.7000 F60.00
G1 X39.0263 Y55.1500 Z14.7000 F60.00
G1 X4.4500 Y20.5737 Z14.7000 F60.00
G1 X4.4500 Y22.6243 Z14.7000 F60.00
G1 X36.9757 Y55.1500 Z14.7000 F60.00
G1 X34.9251 Y55.1500 Z14.7000 F60.00
G1 X4.4500 Y24.6749 Z14.7000 F60.00
G1 X4.4500 Y26.7255 Z14.7000 F60.00
G1 X32.8745 Y55.1500 Z14.7000 F60.00
G1 X30.8239 Y55.1500 Z14.7000 F60.00
G1 X4.4500 Y28.7761 Z14.7000 F60.00
G1 X4.4500 Y30.8268 Z14.7000 F60.00
G1 X28.7732 Y55.1500 Z14.7000 F60.00
G1 X26.7226 Y55.1500 Z14.7000 F60.00
G1 X4.4500 Y32.8774 Z14.7000 F60.00
G1 X4.4500 Y34.9280 Z14.7000 F60.00
G1 X24.6720 Y55.1500 Z14.7000 F60.00
G1 X22.6214 Y55.1500 Z14.7000 F60.00
G1 X4.4500 Y36.9786 Z14.7000 F60.00
G1 X4.4500 Y39.0292 Z14.7000 F60.00
G1 X20.5708 Y55.1500 Z14.7000 F60.00
G1 X18.5202 Y55.1500 Z14.7000 F60.00
G1 X4.4500 Y41.0798 Z14.7000 F60.00
G1 X4.4500 Y43.1304 Z14.7000 F60.00
G1 X9.4696 Y48.1500 Z14.7000 F60.00
G1 X7.4190 Y48.1500 Z14.7000 F60.00
G1 X4.4500 Y45.1810 Z14.7000 F60.00
G1 X4.4500 Y47.2316 Z14.7000 F60.00
G1 X4.4500 Y48.1500 Z14.7000 F60.00
G1 X5.3684 Y48.1500 Z14.7000 F60.00
G1 X4.4500 Y47.2316 Z14.7000 F60.00
G0 X4.4500 Y47.2316 Z26.0000
G0 X11.4500 Y50.1304 Z26.0000
G1 X11.4500 Y50.1304 Z14.7000 F60.00
G1 X16.4696 Y55.1500 Z14.7000 F60.00
G1 X14.4190 Y55.1500 Z14.7000 F60.00
G1 X11.4500 Y52.1810 Z14.7000 F60.00
G1 X11.4500 Y54.2316 Z14.7000 F60.00
G1 X11.4500 Y55.1500 Z14.7000 F60.00
G1 X12.3684 Y55.1500 Z14.7000 F60.00
G1 X11.4500 Y54.2316 Z14.7000 F60.00
G1 X11.4500 Y54.2316 Z13.8000 F60.00
G1 X12.3684 Y55.1500 Z13.8000 F60.00
G1 X11.4500 Y55.1500 Z13.8000 F60.00
G1 X11.4500 Y54.2316 Z13.8000 F60.00
G1 X11.4500 Y52.1810 Z13.8000 F60.00
G1 X14.4190 Y55.1500 Z13.8000 F60.00
G1 X16.4696 Y55.1500 Z13.8000 F60.00
G1 X11.4500 Y50.1304 Z13.8000 F60.00
G1 X11.4500 Y50.1304 Z13.8000 F60.00
G1 X11.4500 Y55.1500 Z13.8000 F60.00
G1 X79.6037 Y55.1500 Z13.8000 F60.00
G1 X79.6037 Y49.6000 Z13.8000 F60.00
G3 X81.0537 Y48.1500 Z13.8000 I1.4500 J-0.0000 F60.00
G1 X86.6037 Y48.1500 Z13.8000 F60.00
G1 X86.6037 Y10.4500 Z13.8000 F60.00
G1 X81.0537 Y10.4500 Z13.8000 F60.00
G3 X79.6037 Y9.0000 Z13.8000 I-0.0000 J-1.4500 F60.00
G1 X79.6037 Y3.4500 Z13.8000 F60.00
G1 X11.4500 Y3.4500 Z13.8000 F60.00
G1 X11.4500 Y9.0000 Z13.8000 F60.00
G3 X10.0000 Y10.4500 Z13.8000 I-1.4500 J0.0000 F60.00
G1 X4.4500 Y10.4500 Z13.8000 F60.00
G1 X4.4500 Y48.1500 Z13.8000 F60.00
G1 X10.0000 Y48.1500 Z13.8000 F60.00
G3 X11.4500 Y49.6000 Z13.8000 I0.0000 J1.4500 F60.00
G1 X11.4500 Y50.1304 Z13.8000 F60.00
G0 X11.4500 Y50.1304 Z26.0000
G0 X4.4500 Y47.2316 Z26.0000
G1 X4.4500 Y47.2316 Z13.8000 F60.00
G1 X5.3684 Y48.1500 Z13.8000 F60.00
G1 X4.4500 Y48.1500 Z13.8000 F60.00
G1 X4.4500 Y47.2316 Z13.8000 F60.00
G1 X4.4500 Y45.1810 Z13.8000 F60.00
G1 X7.4190 Y48.1500 Z13.8000 F60.00
G1 X9.4696 Y48.1500 Z13.8000 F60.00
G1 X4.4500 Y43.1304 Z13.8000 F60.00
G1 X4.4500 Y41.0798 Z13.8000 F60.00
G1 X18.5202 Y55.1500 Z13.8000 F60.00
G1 X20.5708 Y55.1500 Z13.8000 F60.00
G1 X4.4500 Y39.0292 Z13.8000 F60.00
G1 X4.4500 Y36.9786 Z13.8000 F60.00
G1 X22.6214 Y55.1500 Z13.8000 F60.00
G1 X24.6720 Y55.1500 Z13.8000 F60.00
G1 X4.4500 Y34.9280 Z13.8000 F60.00
G1 X4.4500 Y32.8774 Z13.8000 F60.00
G1 X26.7226 Y55.1500 Z13.8000 F60.00
G1 X28.7732 Y55.1500 Z13.8000 F60.00
G1 X4.4500 Y30.8268 Z13.8000 F60.00
G1 X4.4500 Y28.7761 Z13.8000 F60.00
G1 X30.8239 Y55.1500 Z13.8000 F60.00
G1 X32.8745 Y55.1500 Z13.8000 F60.00
G1 X4.4500 Y26.7255 Z13.8000 F60.00
G1 X4.4500 Y24.6749 Z13.8000 F60.00
G1 X34.9251 Y55.1500 Z13.8000 F60.00
G1 X36.9757 Y55.1500 Z13.8000 F60.00
G1 X4.4500 Y22.6243 Z13.8000 F60.00
G1 X4.4500 Y20.5737 Z13.8000 F60.00
G1 X39.0263 Y55.1500 Z13.8000 F60.00
G1 X41.0769 Y55.1500 Z13.8000 F60.00
G1 X4.4500 Y18.5231 Z13.8000 F60.00
G1 X4.4500 Y16.4725 Z13.8000 F60.00
G1 X43.1275 Y55.1500 Z13.8000 F60.00
G1 X45.1781 Y55.1500 Z13.8000 F60.00
G1 X4.4500 Y14.4219 Z13.8000 F60.00
G1 X4.4500 Y12.3713 Z13.8000 F60.00
G1 X47.2287 Y55.1500 Z13.8000 F60.00
G1 X49.2793 Y55.1500 Z13.8000 F60.00
G1 X4.5793 Y10.4500 Z13.8000 F60.00
G1 X6.6299 Y10.4500 Z13.8000 F60.00
G1 X51.3299 Y55.1500 Z13.8000 F60.00
G1 X53.3806 Y55.1500 Z13.8000 F60.00
G1 X8.6806 Y10.4500 Z13.8000 F60.00
G1 X10.0000 Y10.4500 Z13.8000 F60.00
G2 X10.5983 Y10.3172 Z13.8000 I0.0082 J-1.3772 F60.00
G1 X55.4312 Y55.1500 Z13.8000 F60.00
G1 X57.4818 Y55.1500 Z13.8000 F60.00
G1 X11.4380 Y9.1063 Z13.8000 F60.00
G1 X11.4500 Y9.0000 Z13.8000 F60.00
G1 X11.4500 Y7.0676 Z13.8000 F60.00
G1 X59.5324 Y55.1500 Z13.8000 F60.00
G1 X61.5830 Y55.1500 Z13.8000 F60.00
G1 X11.4500 Y5.0170 Z13.8000 F60.00
G1 X11.4500 Y3.4500 Z13.8000 F60.00
G1 X11.9336 Y3.4500 Z13.8000 F60.00
G1 X63.6336 Y55.1500 Z13.8000 F60.00
G1 X65.6842 Y55.1500 Z13.8000 F60.00
G1 X13.9842 Y3.4500 Z13.8000 F60.00
G1 X16.0348 Y3.4500 Z13.8000 F60.00
G1 X67.7348 Y55.1500 Z13.8000 F60.00
G1 X69.7854 Y55.1500 Z13.8000 F60.00
G1 X18.0854 Y3.4500 Z13.8000 F60.00
G1 X20.1360 Y3.4500 Z13.8000 F60.00
G1 X71.8360 Y55.1500 Z13.8000 F60.00
G1 X73.8867 Y55.1500 Z13.8000 F60.00
G1 X22.1867 Y3.4500 Z13.8000 F60.00
G1 X24.2373 Y3.4500 Z13.8000 F60.00
G1 X75.9373 Y55.1500 Z13.8000 F60.00
G1 X77.9879 Y55.1500 Z13.8000 F60.00
G1 X26.2879 Y3.4500 Z13.8000 F60.00
G1 X28.3385 Y3.4500 Z13.8000 F60.00
G1 X79.6037 Y54.7152 Z13.8000 F60.00
G1 X79.6037 Y52.6646 Z13.8000 F60.00
G1 X30.3891 Y3.4500 Z13.8000 F60.00
G1 X32.4397 Y3.4500 Z13.8000 F60.00
G1 X79.6037 Y50.6140 Z13.8000 F60.00
G1 X79.6037 Y49.6000 Z13.8000 F60.00
G3 X79.8491 Y48.8088 Z13.8000 I1.3684 J-0.0092 F60.00
G1 X34.4903 Y3.4500 Z13.8000 F60.00
G1 X36.5409 Y3.4500 Z13.8000 F60.00
G1 X81.2409 Y48.1500 Z13.8000 F60.00
G1 X83.2915 Y48.1500 Z13.8000 F60.00
G1 X38.5915 Y3.4500 Z13.8000 F60.00
G1 X40.6421 Y3.4500 Z13.8000 F60.00
G1 X85.3421 Y48.1500 Z13.8000 F60.00
G1 X86.6037 Y48.1500 Z13.8000 F60.00
G1 X86.6037 Y47.3610 Z13.8000 F60.00
G1 X42.6928 Y3.4500 Z13.8000 F60.00
G1 X44.7434 Y3.4500 Z13.8000 F60.00
G1 X86.6037 Y45.3104 Z13.8000 F60.00
G1 X86.6037 Y43.2598 Z13.8000 F60.00
G1 X46.7940 Y3.4500 Z13.8000 F60.00
G1 X48.8446 Y3.4500 Z13.8000 F60.00
G1 X86.6037 Y41.2091 Z13.8000 F60.00
G1 X86.6037 Y39.1585 Z13.8000 F60.00
G1 X50.8952 Y3.4500 Z13.8000 F60.00
G1 X52.9458 Y3.4500 Z13.8000 F60.00
G1 X86.6037 Y37.1079 Z13.8000 F60.00
G1 X86.6037 Y35.0573 Z13.8000 F60.00
G1 X54.9964 Y3.4500 Z13.8000 F60.00
G1 X57.0470 Y3.4500 Z13.8000 F60.00
G1 X86.6037 Y33.0067 Z13.8000 F60.00
G1 X86.6037 Y30.9561 Z13.8000 F60.00
G1 X59.0976 Y3.4500 Z13.8000 F60.00
G1 X61.1482 Y3.4500 Z13.8000 F60.00
G1 X86.6037 Y28.9055 Z13.8000 F60.00
G1 X86.6037 Y26.8549 Z13.8000 F60.00
G1 X63.1988 Y3.4500 Z13.8000 F60.00
G1 X65.2495 Y3.4500 Z13.8000 F60.00
G1 X86.6037 Y24.8043 Z13.8000 F60.00
G1 X86.6037 Y22.7537 Z13.8000 F60.00
G1 X67.3001 Y3.4500 Z13.8000 F60.00
G1 X69.3507 Y3.4500 Z13.8000 F60.00
G1 X86.6037 Y20.7030 Z13.8000 F60.00
G1 X86.6037 Y18.6524 Z13.8000 F60.00
G1 X71.4013 Y3.4500 Z13.8000 F60.00
G1 X73.4519 Y3.4500 Z13.8000 F60.00
G1 X86.6037 Y16.6018 Z13.8000 F60.00
G1 X86.6037 Y14.5512 Z13.8000 F60.00
G1 X82.5025 Y10.4500 Z13.8000 F60.00
G1 X81.0537 Y10.4500 Z13.8000 F60.00
G3 X79.6037 Y9.0000 Z13.8000 I-0.0000 J-1.4500 F60.00
G1 X79.6037 Y7.5512 Z13.8000 F60.00
G1 X75.5025 Y3.4500 Z13.8000 F60.00
G1 X77.5531 Y3.4500 Z13.8000 F60.00
G1 X79.6037 Y5.5006 Z13.8000 F60.00
G1 X79.6037 Y3.4500 Z13.8000 F60.00
G0 X79.6037 Y3.4500 Z26.0000
G0 X86.6037 Y10.4500 Z26.0000
G1 X86.6037 Y10.4500 Z13.8000 F60.00
G1 X86.6037 Y12.5006 Z13.8000 F60.00
G1 X84.5531 Y10.4500 Z13.8000 F60.00
G1 X82.5025 Y10.4500 Z13.8000 F60.00
G1 X86.6037 Y14.5512 Z13.8000 F60.00
G1 X86.6037 Y14.5512 Z12.9000 F60.00
G1 X82.5025 Y10.4500 Z12.9000 F60.00
G1 X84.5531 Y10.4500 Z12.9000 F60.00
G1 X86.6037 Y12.5006 Z12.9000 F60.00
G1 X86.6037 Y10.4500 Z12.9000 F60.00
G1 X86.6037 Y10.4500 Z12.9000 F60.00
G1 X81.0537 Y10.4500 Z12.9000 F60.00
G3 X79.6037 Y9.0000 Z12.9000 I-0.0000 J-1.4500 F60.00
G1 X79.6037 Y3.4500 Z12.9000 F60.00
G1 X11.4500 Y3.4500 Z12.9000 F60.00
G1 X11.4500 Y9.0000 Z12.9000 F60.00
G3 X10.0000 Y10.4500 Z12.9000 I-1.4500 J0.0000 F60.00
G1 X4.4500 Y10.4500 Z12.9000 F60.00
G1 X4.4500 Y48.1500 Z12.9000 F60.00
G1 X10.0000 Y48.1500 Z12.9000 F60.00
G3 X11.4500 Y49.6000 Z12.9000 I0.0000 J1.4500 F60.00
G1 X11.4500 Y55.1500 Z12.9000 F60.00
G1 X79.6037 Y55.1500 Z12.9000 F60.00
G1 X79.6037 Y49.6000 Z12.9000 F60.00
G3 X81.0537 Y48.1500 Z12.9000 I1.4500 J-0.0000 F60.00
G1 X86.6037 Y48.1500 Z12.9000 F60.00
G1 X86.6037 Y10.4500 Z12.9000 F60.00
G0 X86.6037 Y10.4500 Z26.0000
G0 X79.6037 Y3.4500 Z26.0000
G1 X79.6037 Y3.4500 Z12.9000 F60.00
G1 X79.6037 Y5.5006 Z12.9000 F60.00
G1 X77.5531 Y3.4500 Z12.9000 F60.00
G1 X75.5025 Y3.4500 Z12.9000 F60.00
G1 X79.6037 Y7.5512 Z12.9000 F60.00
G1 X79.6037 Y9.0000 Z12.9000 F60.00
G2 X81.0537 Y10.4500 Z12.9000 I1.4500 J0.0000 F60.00
G1 X82.5025 Y10.4500 Z12.9000 F60.00
G1 X86.6037 Y14.5512 Z12.9000 F60.00
G1 X86.6037 Y16.6018 Z12.9000 F60.00
G1 X73.4519 Y3.4500 Z12.9000 F60.00
G1 X71.4013 Y3.4500 Z12.9000 F60.00
G1 X86.6037 Y18.6524 Z12.9000 F60.00
G1 X86.6037 Y20.7030 Z12.9000 F60.00
G1 X69.3507 Y3.4500 Z12.9000 F60.00
G1 X67.3001 Y3.4500 Z12.9000 F60.00
G1 X86.6037 Y22.7537 Z12.9000 F60.00
G1 X86.6037 Y24.8043 Z12.9000 F60.00
G1 X65.2495 Y3.4500 Z12.9000 F60.00
G1 X63.1988 Y3.4500 Z12.9000 F60.00
G1 X86.6037 Y26.8549 Z12.9000 F60.00
G1 X86.6037 Y28.9055 Z12.9000 F60.00
G1 X61.1482 Y3.4500 Z12.9000 F60.00
G1 X59.0976 Y3.4500 Z12.9000 F60.00
G1 X86.6037 Y30.9561 Z12.9000 F60.00
G1 X86.6037 Y33.0067 Z12.9000 F60.00
G1 X57.0470 Y3.4500 Z12.9000 F60.00
G1 X54.9964 Y3.4500 Z12.9000 F60.00
G1 X86.6037 Y35.0573 Z12.9000 F60.00
G1 X86.6037 Y37.1079 Z12.9000 F60.00
G1 X52.9458 Y3.4500 Z12.9000 F60.00
G1 X50.8952 Y3.4500 Z12.9000 F60.00
G1 X86.6037 Y39.1585 Z12.9000 F60.00
G1 X86.6037 Y41.2091 Z12.9000 F60.00
G1 X48.8446 Y3.4500 Z12.9000 F60.00
G1 X46.7940 Y3.4500 Z12.9000 F60.00
G1 X86.6037 Y43.2598 Z12.9000 F60.00
G1 X86.6037 Y45.3104 Z12.9000 F60.00
G1 X44.7434 Y3.4500 Z12.9000 F60.00
G1 X42.6928 Y3.4500 Z12.9000 F60.00
G1 X86.6037 Y47.3610 Z12.9000 F60.00
G1 X86.6037 Y48.1500 Z12.9000 F60.00
G1 X85.3421 Y48.1500 Z12.9000 F60.00
G1 X40.6421 Y3.4500 Z12.9000 F60.00
G1 X38.5915 Y3.4500 Z12.9000 F60.00
G1 X83.2915 Y48.1500 Z12.9000 F60.00
G1 X81.2409 Y48.1500 Z12.9000 F60.00
G1 X36.5409 Y3.4500 Z12.9000 F60.00
G1 X34.4903 Y3.4500 Z12.9000 F60.00
G1 X79.8491 Y48.8088 Z12.9000 F60.00
G2 X79.6037 Y49.6000 Z12.9000 I1.1230 J0.7820 F60.00
G1 X79.6037 Y50.6140 Z12.9000 F60.00
G1 X32.4397 Y3.4500 Z12.9000 F60.00
G1 X30.3891 Y3.4500 Z12.9000 F60.00
G1 X79.6037 Y52.6646 Z12.9000 F60.00
G1 X79.6037 Y54.7152 Z12.9000 F60.00
G1 X28.3385 Y3.4500 Z12.9000 F60.00
G1 X26.2879 Y3.4500 Z12.9000 F60.00
G1 X77.9879 Y55.1500 Z12.9000 F60.00
G1 X75.9373 Y55.1500 Z12.9000 F60.00
G1 X24.2373 Y3.4500 Z12.9000 F60.00
G1 X22.1867 Y3.4500 Z12.9000 F60.00
G1 X73.8867 Y55.1500 Z12.9000 F60.00
G1 X71.8360 Y55.1500 Z12.9000 F60.00
G1 X20.1360 Y3.4500 Z12.9000 F60.00
G1 X18.0854 Y3.4500 Z12.9000 F60.00
G1 X69.7854 Y55.1500 Z12.9000 F60.00
G1 X67.7348 Y55.1500 Z12.9000 F60.00
G1 X16.0348 Y3.4500 Z12.9000 F60.00
G1 X13.9842 Y3.4500 Z12.9000 F60.00
G1 X65.6842 Y55.1500 Z12.9000 F60.00
G1 X63.6336 Y55.1500 Z12.9000 F60.00
G1 X11.9336 Y3.4500 Z12.9000 F60.00
G1 X11.4500 Y3.4500 Z12.9000 F60.00
G1 X11.4500 Y5.0170 Z12.9000 F60.00
G1 X61.5830 Y55.1500 Z12.9000 F60.00
G1 X59.5324 Y55.1500 Z12.9000 F60.00
G1 X11.4500 Y7.0676 Z12.9000 F60.00
G1 X11.4500 Y9.0000 Z12.9000 F60.00
G1 X11.4380 Y9.1063 Z12.9000 F60.00
G1 X57.4818 Y55.1500 Z12.9000 F60.00
G1 X55.4312 Y55.1500 Z12.9000 F60.00
G1 X10.5983 Y10.3172 Z12.9000 F60.00
G3 X10.0000 Y10.4500 Z12.9000 I-0.5901 J-1.2444 F60.00
G1 X8.6806 Y10.4500 Z12.9000 F60.00
G1 X53.3806 Y55.1500 Z12.9000 F60.00
G1 X51.3299 Y55.1500 Z12.9000 F60.00
G1 X6.6299 Y10.4500 Z12.9000 F60.00
G1 X4.5793 Y10.4500 Z12.9000 F60.00
G1 X49.2793 Y55.1500 Z12.9000 F60.00
G1 X47.2287 Y55.1500 Z12.9000 F60.00
G1 X4.4500 Y12.3713 Z12.9000 F60.00
G1 X4.4500 Y14.4219 Z12.9000 F60.00
G1 X45.1781 Y55.1500 Z12.9000 F60.00
G1 X43.1275 Y55.1500 Z12.9000 F60.00
G1 X4.4500 Y16.4725 Z12.9000 F60.00
G1 X4.4500 Y18.5231 Z12.9000 F60.00
G1 X41.0769 Y55.1500 Z12.9000 F60.00
G1 X39.0263 Y55.1500 Z12.9000 F60.00
G1 X4.4500 Y20.5737 Z12.9000 F60.00
G1 X4.4500 Y22.6243 Z12.9000 F60.00
G1 X36.9757 Y55.1500 Z12.9000 F60.00
G1 X34.9251 Y55.1500 Z12.9000 F60.00
G1 X4.4500 Y24.6749 Z12.9000 F60.00
G1 X4.4500 Y26.7255 Z12.9000 F60.00
G1 X32.8745 Y55.1500 Z12.9000 F60.00
G1 X30.8239 Y55.1500 Z12.9000 F60.00
G1 X4.4500 Y28.7761 Z12.9000 F60.00
G1 X4.4500 Y30.8268 Z12.9000 F60.00
G1 X28.7732 Y55.1500 Z12.9000 F60.00
G1 X26.7226 Y55.1500 Z12.9000 F60.00
G1 X4.4500 Y32.8774 Z12.9000 F60.00
G1 X4.4500 Y34.9280 Z12.9000 F60.00
G1 X24.6720 Y55.1500 Z12.9000 F60.00
G1 X22.6214 Y55.1500 Z12.9000 F60.00
G1 X4.4500 Y36.9786 Z12.9000 F60.00
G1 X4.4500 Y39.0292 Z12.9000 F60.00
G1 X20.5708 Y55.1500 Z12.9000 F60.00
G1 X18.5202 Y55.1500 Z12.9000 F60.00
G1 X4.4500 Y41.0798 Z12.9000 F60.00
G1 X4.4500 Y43.1304 Z12.9000 F60.00
G1 X9.4696 Y48.1500 Z12.9000 F60.00
G1 X7.4190 Y48.1500 Z12.9000 F60.00
G1 X4.4500 Y45.1810 Z12.9000 F60.00
G1 X4.4500 Y47.2316 Z12.9000 F60.00
G1 X4.4500 Y48.1500 Z12.9000 F60.00
G1 X5.3684 Y48.1500 Z12.9000 F60.00
G1 X4.4500 Y47.2316 Z12.9000 F60.00
G0 X4.4500 Y47.2316 Z26.0000
G0 X11.4500 Y50.1304 Z26.0000
G1 X11.4500 Y50.1304 Z12.9000 F60.00
G1 X16.4696 Y55.1500 Z12.9000 F60.00
G1 X14.4190 Y55.1500 Z12.9000 F60.00
G1 X11.4500 Y52.1810 Z12.9000 F60.00
G1 X11.4500 Y54.2316 Z12.9000 F60.00
G1 X11.4500 Y55.1500 Z12.9000 F60.00
G1 X12.3684 Y55.1500 Z12.9000 F60.00
G1 X11.4500 Y54.2316 Z12.9000 F60.00
G1 X11.4500 Y54.2316 Z12.0000 F60.00
G1 X12.3684 Y55.1500 Z12.0000 F60.00
G1 X11.4500 Y55.1500 Z12.0000 F60.00
G1 X11.4500 Y54.2316 Z12.0000 F60.00
G1 X11.4500 Y52.1810 Z12.0000 F60.00
G1 X14.4190 Y55.1500 Z12.0000 F60.00
G1 X16.4696 Y55.1500 Z12.0000 F60.00
G1 X11.4500 Y50.1304 Z12.0000 F60.00
G1 X11.4500 Y50.1304 Z12.0000 F60.00
G1 X11.4500 Y55.1500 Z12.0000 F60.00
G1 X79.6037 Y55.1500 Z12.0000 F60.00
G1 X79.6037 Y49.6000 Z12.0000 F60.00
G3 X81.0537 Y48.1500 Z12.0000 I1.4500 J-0.0000 F60.00
G1 X86.6037 Y48.1500 Z12.0000 F60.00
G1 X86.6037 Y10.4500 Z12.0000 F60.00
G1 X81.0537 Y10.4500 Z12.0000 F60.00
G3 X79.6037 Y9.0000 Z12.0000 I-0.0000 J-1.4500 F60.00
G1 X79.6037 Y3.4500 Z12.0000 F60.00
G1 X11.4500 Y3.4500 Z12.0000 F60.00
G1 X11.4500 Y9.0000 Z12.0000 F60.00
G3 X10.0000 Y10.4500 Z12.0000 I-1.4500 J0.0000 F60.00
G1 X4.4500 Y10.4500 Z12.0000 F60.00
G1 X4.4500 Y48.1500 Z12.0000 F60.00
G1 X10.0000 Y48.1500 Z12.0000 F60.00
G3 X11.4500 Y49.6000 Z12.0000 I0.0000 J1.4500 F60.00
G1 X11.4500 Y50.1304 Z12.0000 F60.00
G0 X11.4500 Y50.1304 Z26.0000
G0 X4.4500 Y47.2316 Z26.0000
G1 X4.4500 Y47.2316 Z12.0000 F60.00
G1 X5.3684 Y48.1500 Z12.0000 F60.00
G1 X4.4500 Y48.1500 Z12.0000 F60.00
G1 X4.4500 Y47.2316 Z12.0000 F60.00
G1 X4.4500 Y45.1810 Z12.0000 F60.00
G1 X7.4190 Y48.1500 Z12.0000 F60.00
G1 X9.4696 Y48.1500 Z12.0000 F60.00
G1 X4.4500 Y43.1304 Z12.0000 F60.00
G1 X4.4500 Y41.0798 Z12.0000 F60.00
G1 X18.5202 Y55.1500 Z12.0000 F60.00
G1 X20.5708 Y55.1500 Z12.0000 F60.00
G1 X4.4500 Y39.0292 Z12.0000 F60.00
G1 X4.4500 Y36.9786 Z12.0000 F60.00
G1 X22.6214 Y55.1500 Z12.0000 F60.00
G1 X24.6720 Y55.1500 Z12.0000 F60.00
G1 X4.4500 Y34.9280 Z12.0000 F60.00
G1 X4.4500 Y32.8774 Z12.0000 F60.00
G1 X26.7226 Y55.1500 Z12.0000 F60.00
G1 X28.7732 Y55.1500 Z12.0000 F60.00
G1 X4.4500 Y30.8268 Z12.0000 F60.00
G1 X4.4500 Y28.7761 Z12.0000 F60.00
G1 X30.8239 Y55.1500 Z12.0000 F60.00
G1 X32.8745 Y55.1500 Z12.0000 F60.00
G1 X4.4500 Y26.7255 Z12.0000 F60.00
G1 X4.4500 Y24.6749 Z12.0000 F60.00
G1 X34.9251 Y55.1500 Z12.0000 F60.00
G1 X36.9757 Y55.1500 Z12.0000 F60.00
G1 X4.4500 Y22.6243 Z12.0000 F60.00
G1 X4.4500 Y20.5737 Z12.0000 F60.00
G1 X39.0263 Y55.1500 Z12.0000 F60.00
G1 X41.0769 Y55.1500 Z12.0000 F60.00
G1 X4.4500 Y18.5231 Z12.0000 F60.00
G1 X4.4500 Y16.4725 Z12.0000 F60.00
G1 X43.1275 Y55.1500 Z12.0000 F60.00
G1 X45.1781 Y55.1500 Z12.0000 F60.00
G1 X4.4500 Y14.4219 Z12.0000 F60.00
G1 X4.4500 Y12.3713 Z12.0000 F60.00
G1 X47.2287 Y55.1500 Z12.0000 F60.00
G1 X49.2793 Y55.1500 Z12.0000 F60.00
G1 X4.5793 Y10.4500 Z12.0000 F60.00
G1 X6.6299 Y10.4500 Z12.0000 F60.00
G1 X51.3299 Y55.1500 Z12.0000 F60.00
G1 X53.3806 Y55.1500 Z12.0000 F60.00
G1 X8.6806 Y10.4500 Z12.0000 F60.00
G1 X10.0000 Y10.4500 Z12.0000 F60.00
G2 X10.5983 Y10.3172 Z12.0000 I0.0082 J-1.3772 F60.00
G1 X55.4312 Y55.1500 Z12.0000 F60.00
G1 X57.4818 Y55.1500 Z12.0000 F60.00
G1 X11.4380 Y9.1063 Z12.0000 F60.00
G1 X11.4500 Y9.0000 Z12.0000 F60.00
G1 X11.4500 Y7.0676 Z12.0000 F60.00
