(Exported by FreeCAD)
(Post Processor: PathScripts.post.grbl_post)
(Output Time:2020-06-29 11:12:55.130248)
(begin preamble)
G17 G90
G21
M3 S370
(begin operation: Pocket_Shape001)
(Path: Pocket_Shape001)
(Pocket_Shape001)
G0 Z9.0000
G0 X55.7679 Y19.3424
G0 Z7.0000
G1 X55.7679 Y19.3424 Z3.1000 F60.00
G1 X55.7679 Y-3.5250 Z3.1000 F60.00
G1 X-18.4298 Y-3.5250 Z3.1000 F60.00
G1 X-18.4298 Y19.3424 Z3.1000 F60.00
G1 X55.7679 Y19.3424 Z3.1000 F60.00
G0 X55.7679 Y19.3424 Z9.0000
G0 X54.1770 Y16.7354 Z9.0000
G1 X54.1770 Y16.7354 Z3.1000 F60.00
G3 X50.9016 Y17.9411 Z3.1000 I-4.6865 J-7.6797 F60.00
G3 X43.0598 Y17.8106 Z3.1000 I-3.6396 J-16.9739 F60.00
G3 X39.3805 Y15.5809 Z3.1000 I1.6125 J-6.8112 F60.00
G3 X37.7535 Y8.8572 Z3.1000 I7.1306 J-5.2842 F60.00
G3 X39.8668 Y4.5355 Z3.1000 I7.5316 J1.0055 F60.00
G3 X39.6878 Y4.2742 Z3.1000 I25.3069 J-17.5321 F60.00
G3 X39.1066 Y-0.0494 Z3.1000 I3.3037 J-2.6450 F60.00
G3 X43.6769 Y-2.7975 Z3.1000 I4.5065 J2.3202 F60.00
G3 X45.4162 Y-2.4760 Z3.1000 I0.0484 J4.6035 F60.00
G3 X47.1004 Y-0.5933 Z3.1000 I-4.7265 J5.9229 F60.00
G3 X49.1944 Y-2.1414 Z3.1000 I3.8566 J3.0265 F60.00
G3 X54.8950 Y-1.2304 Z3.1000 I1.9903 J5.8374 F60.00
G3 X55.5408 Y-0.0304 Z3.1000 I-0.8042 J1.2065 F60.00
G3 X55.4647 Y11.0052 Z3.1000 I-366.6740 J2.9910 F60.00
G3 X55.1561 Y15.1595 Z3.1000 I-35.0232 J-0.5137 F60.00
G3 X54.2374 Y16.6982 Z3.1000 I-1.8839 J-0.0811 F60.00
G3 X54.1770 Y16.7354 Z3.1000 I-4.7469 J-7.6426 F60.00
G0 X54.1770 Y16.7354 Z9.0000
G0 X55.5425 Y0.3508 Z9.0000
G1 X55.5425 Y0.3508 Z3.1000 F60.00
G1 X55.7679 Y0.5762 Z3.1000 F60.00
G1 X55.7679 Y2.6268 Z3.1000 F60.00
G1 X55.5492 Y2.4082 Z3.1000 F60.00
G1 X55.5492 Y4.4588 Z3.1000 F60.00
G1 X55.7679 Y4.6775 Z3.1000 F60.00
G1 X55.7679 Y6.7281 Z3.1000 F60.00
G1 X55.5345 Y6.4946 Z3.1000 F60.00
G3 X55.5111 Y8.5219 Z3.1000 I-94.5314 J-0.0759 F60.00
G1 X55.7679 Y8.7787 Z3.1000 F60.00
G1 X55.7679 Y10.8293 Z3.1000 F60.00
G1 X55.4735 Y10.5349 Z3.1000 F60.00
G3 X55.4019 Y12.5139 Z3.1000 I-33.4198 J-0.2181 F60.00
G1 X55.7679 Y12.8799 Z3.1000 F60.00
G1 X55.7679 Y14.9305 Z3.1000 F60.00
G1 X55.2512 Y14.4138 Z3.1000 F60.00
G3 X54.9921 Y15.8513 Z3.1000 I-6.8998 J-0.5014 F60.00
G3 X54.8722 Y16.0854 Z3.1000 I-0.7384 J-0.2304 F60.00
G1 X55.7679 Y16.9811 Z3.1000 F60.00
G1 X55.7679 Y19.0317 Z3.1000 F60.00
G1 X53.7375 Y17.0013 Z3.1000 F60.00
G3 X52.2779 Y17.5923 Z3.1000 I-3.8667 J-7.4524 F60.00
G1 X54.0280 Y19.3424 Z3.1000 F60.00
G1 X51.9774 Y19.3424 Z3.1000 F60.00
G1 X50.6282 Y17.9933 Z3.1000 F60.00
G3 X48.8190 Y18.2347 Z3.1000 I-2.8784 J-14.6732 F60.00
G1 X49.9268 Y19.3424 Z3.1000 F60.00
G1 X47.8762 Y19.3424 Z3.1000 F60.00
G1 X46.8550 Y18.3212 Z3.1000 F60.00
G3 X44.6194 Y18.1363 Z3.1000 I0.2065 J-16.0995 F60.00
G1 X45.8255 Y19.3424 Z3.1000 F60.00
G1 X43.7749 Y19.3424 Z3.1000 F60.00
G1 X41.8046 Y17.3720 Z3.1000 F60.00
G3 X38.4198 Y13.9873 Z3.1000 I2.3542 J-5.7389 F60.00
G1 X37.3327 Y12.9002 Z3.1000 F60.00
G3 X37.0521 Y14.6702 Z3.1000 I-4.9797 J0.1178 F60.00
G1 X41.7243 Y19.3424 Z3.1000 F60.00
G1 X39.6737 Y19.3424 Z3.1000 F60.00
G1 X36.3093 Y15.9780 Z3.1000 F60.00
G3 X35.2412 Y16.9605 Z3.1000 I-3.9968 J-3.2736 F60.00
G1 X37.6231 Y19.3424 Z3.1000 F60.00
G1 X35.5725 Y19.3424 Z3.1000 F60.00
G1 X33.8621 Y17.6320 Z3.1000 F60.00
G3 X32.1082 Y17.9287 Z3.1000 I-1.8136 J-5.3877 F60.00
G1 X33.5219 Y19.3424 Z3.1000 F60.00
G1 X31.4713 Y19.3424 Z3.1000 F60.00
G1 X29.4676 Y17.3387 Z3.1000 F60.00
G3 X28.4888 Y16.6687 Z3.1000 I1.8631 J-3.7716 F60.00
G3 X28.1540 Y16.0251 Z3.1000 I0.7946 J-0.8223 F60.00
G1 X27.1728 Y15.0440 Z3.1000 F60.00
G3 X26.3660 Y16.2878 Z3.1000 I-3.6600 J-1.4905 F60.00
G1 X29.4207 Y19.3424 Z3.1000 F60.00
G1 X27.3701 Y19.3424 Z3.1000 F60.00
G1 X25.2104 Y17.1828 Z3.1000 F60.00
G3 X23.7073 Y17.7302 Z3.1000 I-2.5570 J-4.6833 F60.00
G1 X25.3194 Y19.3424 Z3.1000 F60.00
G1 X23.2688 Y19.3424 Z3.1000 F60.00
G1 X21.7666 Y17.8401 Z3.1000 F60.00
G3 X18.4762 Y16.3641 Z3.1000 I0.5736 J-5.6840 F60.00
G3 X18.1335 Y15.4944 Z3.1000 I1.1057 J-0.9380 F60.00
G3 X18.0795 Y14.1531 Z3.1000 I28.0710 J-1.8011 F60.00
G1 X15.5808 Y11.6544 Z3.1000 F60.00
G3 X15.0312 Y13.1554 Z3.1000 I-31.3747 J-10.6373 F60.00
G1 X21.2182 Y19.3424 Z3.1000 F60.00
G1 X19.1676 Y19.3424 Z3.1000 F60.00
G1 X14.3472 Y14.5219 Z3.1000 F60.00
G3 X13.4511 Y15.6765 Z3.1000 I-5.7336 J-3.5249 F60.00
G1 X17.1170 Y19.3424 Z3.1000 F60.00
G1 X15.0664 Y19.3424 Z3.1000 F60.00
G1 X12.3311 Y16.6071 Z3.1000 F60.00
G3 X10.9753 Y17.3019 Z3.1000 I-3.5670 J-5.2903 F60.00
G1 X13.0158 Y19.3424 Z3.1000 F60.00
G1 X10.9652 Y19.3424 Z3.1000 F60.00
G1 X9.3308 Y17.7081 Z3.1000 F60.00
G3 X7.3443 Y17.7721 Z3.1000 I-1.3023 J-9.5536 F60.00
G1 X8.9146 Y19.3424 Z3.1000 F60.00
G1 X6.8640 Y19.3424 Z3.1000 F60.00
G1 X4.8953 Y17.3738 Z3.1000 F60.00
G3 X3.4781 Y16.9489 Z3.1000 I2.4591 J-10.7784 F60.00
G3 X2.8555 Y16.2990 Z3.1000 I0.6841 J-1.2785 F60.00
G3 X2.0888 Y14.5672 Z3.1000 I14.0461 J-7.2545 F60.00
G1 X-3.0188 Y9.4597 Z3.1000 F60.00
G3 X-4.0186 Y10.5104 Z3.1000 I-4.7787 J-3.5465 F60.00
G1 X4.8134 Y19.3424 Z3.1000 F60.00
G1 X2.7627 Y19.3424 Z3.1000 F60.00
G1 X-3.0859 Y13.4938 Z3.1000 F60.00
G3 X-3.0287 Y15.6016 Z3.1000 I-5.0951 J1.1929 F60.00
G1 X0.7121 Y19.3424 Z3.1000 F60.00
G1 X-1.3385 Y19.3424 Z3.1000 F60.00
G1 X-3.5593 Y17.1216 Z3.1000 F60.00
G3 X-4.9212 Y17.8103 Z3.1000 I-1.2583 J-0.7974 F60.00
G1 X-3.3891 Y19.3424 Z3.1000 F60.00
G1 X-5.4397 Y19.3424 Z3.1000 F60.00
G1 X-6.8908 Y17.8913 Z3.1000 F60.00
G3 X-8.8904 Y17.9423 Z3.1000 I-2.4491 J-56.7485 F60.00
G1 X-7.4903 Y19.3424 Z3.1000 F60.00
G1 X-9.5409 Y19.3424 Z3.1000 F60.00
G1 X-10.9216 Y17.9618 Z3.1000 F60.00
G3 X-12.9835 Y17.9505 Z3.1000 I-0.7637 J-48.8403 F60.00
G1 X-11.5915 Y19.3424 Z3.1000 F60.00
G1 X-13.6421 Y19.3424 Z3.1000 F60.00
G1 X-15.0940 Y17.8906 Z3.1000 F60.00
G3 X-16.8362 Y17.7336 Z3.1000 I0.3637 J-13.7845 F60.00
G3 X-17.8365 Y16.4982 Z3.1000 I0.4424 J-1.3809 F60.00
G1 X-17.9879 Y14.9967 Z3.1000 F60.00
G1 X-18.4298 Y14.5548 Z3.1000 F60.00
G1 X-18.4298 Y16.6054 Z3.1000 F60.00
G1 X-15.6927 Y19.3424 Z3.1000 F60.00
G1 X-17.7434 Y19.3424 Z3.1000 F60.00
G1 X-18.4298 Y19.3424 Z3.1000 F60.00
G1 X-18.4298 Y18.6560 Z3.1000 F60.00
G1 X-17.7434 Y19.3424 Z3.1000 F60.00
G0 X-17.7434 Y19.3424 Z9.0000
G0 X-16.9904 Y17.6743 Z9.0000
G1 X-16.9904 Y17.6743 Z3.1000 F60.00
G3 X-17.8365 Y16.4982 Z3.1000 I0.5966 J-1.3216 F60.00
G3 X-18.2670 Y6.4418 Z3.1000 I64.4796 J-7.7974 F60.00
G3 X-17.8064 Y2.9122 Z3.1000 I16.9531 J0.4171 F60.00
G3 X-14.0813 Y-1.7867 Z3.1000 I6.9826 J1.7095 F60.00
G3 X-10.0182 Y-2.6138 Z3.1000 I3.8528 J8.5335 F60.00
G3 X-7.9119 Y-2.4300 Z3.1000 I-0.0252 J12.4546 F60.00
G3 X-4.2194 Y-0.8562 Z3.1000 I-1.0038 J7.4735 F60.00
G3 X-1.6548 Y5.1776 Z3.1000 I-5.5665 J5.9279 F60.00
G3 X-4.6420 Y10.9768 Z3.1000 I-6.8092 J0.1614 F60.00
G3 X-3.7253 Y11.9414 Z3.1000 I-2.2888 J3.0933 F60.00
G3 X-3.4149 Y16.8806 Z3.1000 I-4.4853 J2.7612 F60.00
G3 X-4.7204 Y17.8013 Z3.1000 I-1.4121 J-0.6164 F60.00
G1 X-6.4137 Y17.8771 Z3.1000 F60.00
G3 X-16.5068 Y17.7983 Z3.1000 I-4.3225 J-92.8041 F60.00
G3 X-16.9904 Y17.6743 Z3.1000 I0.1130 J-1.4456 F60.00
G0 X-16.9904 Y17.6743 Z9.0000
G0 X-18.4298 Y14.5548 Z9.0000
G1 X-18.4298 Y14.5548 Z3.1000 F60.00
G1 X-17.9879 Y14.9967 Z3.1000 F60.00
G3 X-18.1732 Y12.7608 Z3.1000 I46.7930 J-5.0035 F60.00
G1 X-18.4298 Y12.5042 Z3.1000 F60.00
G1 X-18.4298 Y10.4536 Z3.1000 F60.00
G1 X-18.2766 Y10.6067 Z3.1000 F60.00
G3 X-18.3129 Y8.5198 Z3.1000 I39.4025 J-1.7290 F60.00
G1 X-18.4298 Y8.4030 Z3.1000 F60.00
G1 X-18.4298 Y6.3523 Z3.1000 F60.00
G1 X-18.2690 Y6.5131 Z3.1000 F60.00
G3 X-18.1231 Y4.6083 Z3.1000 I31.1625 J1.4286 F60.00
G1 X-18.4298 Y4.3017 Z3.1000 F60.00
G1 X-18.4298 Y2.2511 Z3.1000 F60.00
G1 X-17.7991 Y2.8818 Z3.1000 F60.00
G3 X-17.2383 Y1.3920 Z3.1000 I7.8540 J2.1056 F60.00
G1 X-18.4298 Y0.2005 Z3.1000 F60.00
G1 X-18.4298 Y-1.8501 Z3.1000 F60.00
G1 X-16.4400 Y0.1397 Z3.1000 F60.00
G3 X-15.4223 Y-0.8932 Z3.1000 I5.2731 J4.1778 F60.00
G1 X-18.0540 Y-3.5250 Z3.1000 F60.00
G1 X-16.0034 Y-3.5250 Z3.1000 F60.00
G1 X-14.1991 Y-1.7206 Z3.1000 F60.00
G3 X-12.7198 Y-2.2920 Z3.1000 I3.0210 J5.6204 F60.00
G1 X-13.9528 Y-3.5250 Z3.1000 F60.00
G1 X-11.9022 Y-3.5250 Z3.1000 F60.00
G1 X-10.9511 Y-2.5738 Z3.1000 F60.00
G3 X-8.8823 Y-2.5557 Z3.1000 I0.9381 J10.9985 F60.00
G1 X-9.8516 Y-3.5250 Z3.1000 F60.00
G1 X-7.8010 Y-3.5250 Z3.1000 F60.00
G1 X-6.2853 Y-2.0093 Z3.1000 F60.00
G0 X-6.2853 Y-2.0093 Z9.0000
G0 X-0.6825 Y0.3202 Z9.0000
G1 X-0.6825 Y0.3202 Z3.1000 F60.00
G3 X0.3440 Y-1.2376 Z3.1000 I4.5943 J1.9102 F60.00
G3 X3.8727 Y-2.5668 Z3.1000 I3.3154 J3.4531 F60.00
G3 X6.3852 Y-2.0524 Z3.1000 I-0.2599 J7.6626 F60.00
G3 X7.3297 Y-1.0851 Z3.1000 I-0.4455 J1.3799 F60.00
G2 X7.7609 Y0.3457 Z3.1000 I18.4963 J-4.7936 F60.00
G1 X9.1559 Y0.3457 Z3.1000 F60.00
G3 X11.9922 Y-2.2666 Z3.1000 I4.4035 J1.9351 F60.00
G3 X16.8062 Y-1.4839 Z3.1000 I1.5822 J5.4633 F60.00
G3 X18.4573 Y0.9313 Z3.1000 I-1.9358 J3.0954 F60.00
G3 X22.5299 Y-2.4103 Z3.1000 I4.4027 J1.2133 F60.00
G3 X26.8115 Y-1.5645 Z3.1000 I0.8682 J6.8652 F60.00
G3 X27.5691 Y-0.2682 Z3.1000 I-0.7894 J1.3308 F60.00
G1 X27.5691 Y3.5806 Z3.1000 F60.00
G1 X27.9211 Y3.5806 Z3.1000 F60.00
G3 X28.0629 Y1.2625 Z3.1000 I27.8344 J0.5399 F60.00
G3 X30.5239 Y-1.9262 Z3.1000 I3.8578 J0.4333 F60.00
G3 X36.0808 Y-1.8112 Z3.1000 I2.6358 J6.9496 F60.00
G3 X37.2154 Y-0.6285 Z3.1000 I-0.8303 J1.9321 F60.00
G3 X37.3068 Y0.5396 Z3.1000 I-7.1143 J1.1443 F60.00
G3 X37.3327 Y13.0167 Z3.1000 I-854.2885 J8.0128 F60.00
G3 X36.0622 Y16.2603 Z3.1000 I-4.5810 J0.0763 F60.00
G3 X29.0286 Y17.0880 Z3.1000 I-4.0418 J-4.0480 F60.00
G3 X28.1131 Y15.8289 Z3.1000 I0.7233 J-1.4883 F60.00
G3 X27.9533 Y11.8721 Z3.1000 I40.7462 J-3.6267 F60.00
G1 X27.5476 Y11.8721 Z3.1000 F60.00
G3 X27.4655 Y13.8432 Z3.1000 I-23.6012 J0.0040 F60.00
G3 X25.9333 Y16.6971 Z3.1000 I-4.0661 J-0.3447 F60.00
G3 X19.0202 Y16.8193 Z3.1000 I-3.5414 J-4.7417 F60.00
G3 X18.1335 Y15.4944 Z3.1000 I0.7731 J-1.4766 F60.00
G3 X18.2577 Y2.3233 Z3.1000 I152.3034 J-5.1501 F60.00
G3 X14.9997 Y13.2408 Z3.1000 I-83.6675 J-19.0232 F60.00
G3 X13.5039 Y15.6190 Z3.1000 I-7.1870 J-2.8607 F60.00
G3 X8.1867 Y17.7951 Z3.1000 I-5.1448 J-4.9870 F60.00
G3 X3.7602 Y17.0635 Z3.1000 I0.0457 J-14.0338 F60.00
G3 X3.0156 Y16.5580 Z3.1000 I0.4020 J-1.3932 F60.00
G3 X2.5461 Y15.6557 Z3.1000 I4.0383 J-2.6747 F60.00
G3 X-0.7220 Y5.6569 Z3.1000 I61.7950 J-25.7307 F60.00
G3 X-1.0180 Y1.5567 Z3.1000 I9.9334 J-2.7779 F60.00
G3 X-0.6825 Y0.3202 Z3.1000 I4.9297 J0.6736 F60.00
G0 X-0.6825 Y0.3202 Z9.0000
G0 X5.7798 Y-2.2479 Z9.0000
G1 X5.7798 Y-2.2479 Z3.1000 F60.00
G1 X4.5027 Y-3.5250 Z3.1000 F60.00
G1 X2.4521 Y-3.5250 Z3.1000 F60.00
G1 X3.4195 Y-2.5575 Z3.1000 F60.00
G2 X1.7515 Y-2.1749 Z3.1000 I0.3031 J5.1495 F60.00
G1 X0.4014 Y-3.5250 Z3.1000 F60.00
G1 X-1.6492 Y-3.5250 Z3.1000 F60.00
G1 X0.4952 Y-1.3806 Z3.1000 F60.00
G2 X-0.4095 Y-0.2347 Z3.1000 I3.0391 J3.3294 F60.00
G1 X-3.6998 Y-3.5250 Z3.1000 F60.00
G1 X-5.7504 Y-3.5250 Z3.1000 F60.00
G1 X-0.9582 Y1.2672 Z3.1000 F60.00
G2 X-1.1095 Y3.1665 Z3.1000 I7.0266 J1.5154 F60.00
G1 X-2.2549 Y2.0211 Z3.1000 F60.00
G3 X-1.6719 Y4.6547 Z3.1000 I-8.2193 J3.2010 F60.00
G1 X-0.7368 Y5.5898 Z3.1000 F60.00
G2 X-0.0083 Y8.3689 Z3.1000 I45.5661 J-10.4602 F60.00
G1 X-1.7900 Y6.5872 Z3.1000 F60.00
G3 X-2.2706 Y8.1573 Z3.1000 I-6.3555 J-1.0865 F60.00
G1 X0.9305 Y11.3583 Z3.1000 F60.00
G2 X2.0888 Y14.5672 Z3.1000 I48.6916 J-15.7626 F60.00
G1 X-3.0188 Y9.4597 Z3.1000 F60.00
G0 X-3.0188 Y9.4597 Z9.0000
G0 X8.3734 Y0.3457 Z9.0000
G1 X8.3734 Y0.3457 Z3.1000 F60.00
G1 X7.7609 Y0.3457 Z3.1000 F60.00
G3 X7.4931 Y-0.5345 Z3.1000 I11.1124 J-3.8616 F60.00
G1 X8.3734 Y0.3457 Z3.1000 F60.00
G1 X9.1559 Y0.3457 Z3.1000 F60.00
G3 X9.6116 Y-0.4666 Z3.1000 I4.2446 J1.8470 F60.00
G1 X6.5533 Y-3.5250 Z3.1000 F60.00
G1 X8.6039 Y-3.5250 Z3.1000 F60.00
G1 X10.6111 Y-1.5178 Z3.1000 F60.00
G3 X11.9346 Y-2.2449 Z3.1000 I2.7237 J3.3895 F60.00
G1 X10.6545 Y-3.5250 Z3.1000 F60.00
G1 X12.7051 Y-3.5250 Z3.1000 F60.00
G1 X13.7249 Y-2.5052 Z3.1000 F60.00
G3 X16.7795 Y-1.5012 Z3.1000 I-0.2575 J5.9321 F60.00
G1 X14.7557 Y-3.5250 Z3.1000 F60.00
G1 X16.8063 Y-3.5250 Z3.1000 F60.00
G1 X19.4444 Y-0.8869 Z3.1000 F60.00
G3 X20.5784 Y-1.8035 Z3.1000 I3.2604 J2.8739 F60.00
G1 X18.8569 Y-3.5250 Z3.1000 F60.00
G1 X20.9075 Y-3.5250 Z3.1000 F60.00
G1 X22.0870 Y-2.3455 Z3.1000 F60.00
G3 X24.0643 Y-2.4189 Z3.1000 I1.2651 J7.4168 F60.00
G1 X22.9582 Y-3.5250 Z3.1000 F60.00
G1 X25.0088 Y-3.5250 Z3.1000 F60.00
G1 X28.4625 Y-0.0712 Z3.1000 F60.00
G3 X29.3691 Y-1.2152 Z3.1000 I3.1596 J1.5727 F60.00
G1 X27.0594 Y-3.5250 Z3.1000 F60.00
G1 X29.1100 Y-3.5250 Z3.1000 F60.00
G1 X30.6549 Y-1.9801 Z3.1000 F60.00
G3 X32.3224 Y-2.3632 Z3.1000 I2.1018 J5.3279 F60.00
G1 X31.1606 Y-3.5250 Z3.1000 F60.00
G1 X33.2112 Y-3.5250 Z3.1000 F60.00
G1 X34.4548 Y-2.2814 Z3.1000 F60.00
G0 X34.4548 Y-2.2814 Z9.0000
G0 X27.5691 Y1.0859 Z9.0000
G1 X27.5691 Y1.0859 Z3.1000 F60.00
G1 X28.0338 Y1.5507 Z3.1000 F60.00
G2 X27.9233 Y3.4908 Z3.1000 I26.9973 J2.5103 F60.00
G1 X27.5691 Y3.1365 Z3.1000 F60.00
G1 X27.5691 Y3.5806 Z3.1000 F60.00
G1 X27.9211 Y3.5806 Z3.1000 F60.00
G1 X27.9233 Y3.4908 Z3.1000 F60.00
G0 X27.9233 Y3.4908 Z9.0000
G0 X18.1859 Y4.0064 Z9.0000
G1 X18.1859 Y4.0064 Z3.1000 F60.00
G3 X18.2577 Y2.3233 Z3.1000 I53.3984 J1.4350 F60.00
G3 X17.9270 Y3.7475 Z3.1000 I-24.0152 J-4.8265 F60.00
G1 X18.1859 Y4.0064 Z3.1000 F60.00
G2 X18.1261 Y5.9972 Z3.1000 I126.0495 J4.7826 F60.00
G1 X17.5079 Y5.3791 Z3.1000 F60.00
G3 X17.0562 Y6.9779 Z3.1000 I-30.1902 J-7.6678 F60.00
G1 X18.0796 Y8.0014 Z3.1000 F60.00
G2 X18.0566 Y10.0289 Z3.1000 I74.6847 J1.8635 F60.00
G1 X16.5881 Y8.5605 Z3.1000 F60.00
G3 X16.1023 Y10.1252 Z3.1000 I-26.1046 J-7.2476 F60.00
G1 X18.0550 Y12.0780 Z3.1000 F60.00
G2 X18.0795 Y14.1531 Z3.1000 I64.5836 J0.2748 F60.00
G1 X15.5808 Y11.6544 Z3.1000 F60.00
G0 X15.5808 Y11.6544 Z9.0000
G0 X18.4573 Y0.9313 Z9.0000
G1 X18.4573 Y0.9313 Z3.1000 F60.00
G3 X18.6493 Y0.3686 Z3.1000 I3.2615 J0.7987 F60.00
G1 X17.9976 Y-0.2831 Z3.1000 F60.00
G3 X18.4573 Y0.9313 Z3.1000 I-2.3852 J1.5971 F60.00
G0 X18.4573 Y0.9313 Z9.0000
G0 X27.9824 Y13.8029 Z9.0000
G1 X27.9824 Y13.8029 Z3.1000 F60.00
G3 X27.9533 Y11.8721 Z3.1000 I47.6380 J-1.6821 F60.00
G1 X27.5476 Y11.8721 Z3.1000 F60.00
G3 X27.4964 Y13.3169 Z3.1000 I-17.3888 J0.1075 F60.00
G1 X27.9824 Y13.8029 Z3.1000 F60.00
G2 X28.1540 Y16.0251 Z3.1000 I13.5724 J0.0697 F60.00
G1 X27.1728 Y15.0440 Z3.1000 F60.00
G0 X27.1728 Y15.0440 Z9.0000
G0 X37.3327 Y12.9002 Z9.0000
G1 X37.3327 Y12.9002 Z3.1000 F60.00
G1 X38.4198 Y13.9873 Z3.1000 F60.00
G3 X37.6948 Y11.2117 Z3.1000 I8.1892 J-3.6214 F60.00
G1 X37.3327 Y10.8495 Z3.1000 F60.00
G1 X37.3327 Y8.7989 Z3.1000 F60.00
G1 X37.7137 Y9.1799 Z3.1000 F60.00
G3 X38.0768 Y7.4925 Z3.1000 I7.7829 J0.7920 F60.00
G1 X37.3327 Y6.7483 Z3.1000 F60.00
G2 X37.3274 Y4.6925 Z3.1000 I-280.0245 J-0.3115 F60.00
G1 X38.6984 Y6.0634 Z3.1000 F60.00
G3 X39.5468 Y4.8612 Z3.1000 I5.1610 J2.7417 F60.00
G1 X37.3198 Y2.6342 Z3.1000 F60.00
G2 X37.3074 Y0.5712 Z3.1000 I-217.8631 J0.2806 F60.00
G1 X38.7817 Y2.0455 Z3.1000 F60.00
G3 X38.9976 Y0.2108 Z3.1000 I3.8959 J-0.4716 F60.00
G1 X35.2618 Y-3.5250 Z3.1000 F60.00
G1 X37.3124 Y-3.5250 Z3.1000 F60.00
G1 X39.7730 Y-1.0644 Z3.1000 F60.00
G3 X40.8870 Y-2.0010 Z3.1000 I3.5487 J3.0903 F60.00
G1 X39.3630 Y-3.5250 Z3.1000 F60.00
G1 X41.4136 Y-3.5250 Z3.1000 F60.00
G1 X42.3219 Y-2.6167 Z3.1000 F60.00
G3 X44.2179 Y-2.7714 Z3.1000 I1.3808 J5.2287 F60.00
G1 X43.4642 Y-3.5250 Z3.1000 F60.00
G1 X45.5149 Y-3.5250 Z3.1000 F60.00
G1 X47.7628 Y-1.2771 Z3.1000 F60.00
G3 X49.0226 Y-2.0679 Z3.1000 I2.9896 J3.3638 F60.00
G1 X47.5655 Y-3.5250 Z3.1000 F60.00
G1 X49.6161 Y-3.5250 Z3.1000 F60.00
G1 X50.6759 Y-2.4652 Z3.1000 F60.00
G3 X53.0209 Y-2.1707 Z3.1000 I0.4580 J5.8382 F60.00
G1 X51.6667 Y-3.5250 Z3.1000 F60.00
G1 X53.7173 Y-3.5250 Z3.1000 F60.00
G1 X55.7679 Y-1.4744 Z3.1000 F60.00
G1 X55.7679 Y-3.5250 Z3.1000 F60.00
G1 X55.7679 Y-3.5250 Z2.2000 F60.00
G1 X55.7679 Y-1.4744 Z2.2000 F60.00
G1 X53.7173 Y-3.5250 Z2.2000 F60.00
G1 X51.6667 Y-3.5250 Z2.2000 F60.00
G1 X53.0209 Y-2.1707 Z2.2000 F60.00
G2 X50.6759 Y-2.4652 Z2.2000 I-1.8871 J5.5438 F60.00
G1 X49.6161 Y-3.5250 Z2.2000 F60.00
G1 X47.5655 Y-3.5250 Z2.2000 F60.00
G1 X49.0226 Y-2.0679 Z2.2000 F60.00
G2 X47.7628 Y-1.2771 Z2.2000 I1.7298 J4.1546 F60.00
G1 X45.5149 Y-3.5250 Z2.2000 F60.00
G1 X43.4642 Y-3.5250 Z2.2000 F60.00
G1 X44.2179 Y-2.7714 Z2.2000 F60.00
G2 X42.3219 Y-2.6167 Z2.2000 I-0.5151 J5.3834 F60.00
G1 X41.4136 Y-3.5250 Z2.2000 F60.00
G1 X39.3630 Y-3.5250 Z2.2000 F60.00
G1 X40.8870 Y-2.0010 Z2.2000 F60.00
G2 X39.7730 Y-1.0644 Z2.2000 I2.4347 J4.0268 F60.00
G1 X37.3124 Y-3.5250 Z2.2000 F60.00
G1 X35.2618 Y-3.5250 Z2.2000 F60.00
G1 X38.9976 Y0.2108 Z2.2000 F60.00
G2 X38.7817 Y2.0455 Z2.2000 I3.6800 J1.3631 F60.00
G1 X37.3074 Y0.5712 Z2.2000 F60.00
G3 X37.3198 Y2.6342 Z2.2000 I-217.8507 J2.3436 F60.00
G1 X39.5468 Y4.8612 Z2.2000 F60.00
G2 X38.6984 Y6.0634 Z2.2000 I4.3126 J3.9439 F60.00
G1 X37.3274 Y4.6925 Z2.2000 F60.00
G3 X37.3327 Y6.7483 Z2.2000 I-280.0193 J1.7443 F60.00
G1 X38.0768 Y7.4925 Z2.2000 F60.00
G2 X37.7137 Y9.1799 Z2.2000 I7.4198 J2.4795 F60.00
G1 X37.3327 Y8.7989 Z2.2000 F60.00
G1 X37.3327 Y10.8495 Z2.2000 F60.00
G1 X37.6948 Y11.2117 Z2.2000 F60.00
G2 X38.4198 Y13.9873 Z2.2000 I8.9141 J-0.8459 F60.00
G1 X37.3327 Y12.9002 Z2.2000 F60.00
G0 X37.3327 Y12.9002 Z9.0000
G0 X37.3333 Y12.9002 Z9.0000
G1 X37.3333 Y12.9002 Z2.2000 F60.00
G3 X37.3327 Y13.0167 Z2.2000 I-854.3150 J-4.3478 F60.00
G3 X36.0622 Y16.2603 Z2.2000 I-4.5810 J0.0763 F60.00
G3 X29.0286 Y17.0880 Z2.2000 I-4.0418 J-4.0480 F60.00
G3 X28.1131 Y15.8289 Z2.2000 I0.7233 J-1.4883 F60.00
G3 X27.9533 Y11.8721 Z2.2000 I40.7462 J-3.6267 F60.00
G1 X27.5476 Y11.8721 Z2.2000 F60.00
G3 X27.4655 Y13.8432 Z2.2000 I-23.6012 J0.0040 F60.00
G3 X25.9333 Y16.6971 Z2.2000 I-4.0661 J-0.3447 F60.00
G3 X19.0202 Y16.8193 Z2.2000 I-3.5414 J-4.7417 F60.00
G3 X18.1335 Y15.4944 Z2.2000 I0.7731 J-1.4766 F60.00
G3 X18.2577 Y2.3233 Z2.2000 I152.3034 J-5.1501 F60.00
G3 X14.9997 Y13.2408 Z2.2000 I-83.6675 J-19.0232 F60.00
G3 X13.5039 Y15.6190 Z2.2000 I-7.1870 J-2.8607 F60.00
G3 X8.1867 Y17.7951 Z2.2000 I-5.1448 J-4.9870 F60.00
G3 X3.7602 Y17.0635 Z2.2000 I0.0457 J-14.0338 F60.00
G3 X3.0156 Y16.5580 Z2.2000 I0.4020 J-1.3932 F60.00
G3 X2.5461 Y15.6557 Z2.2000 I4.0383 J-2.6747 F60.00
G3 X-0.7220 Y5.6569 Z2.2000 I61.7950 J-25.7307 F60.00
G3 X-1.0180 Y1.5567 Z2.2000 I9.9334 J-2.7779 F60.00
G3 X0.3440 Y-1.2376 Z2.2000 I4.9297 J0.6736 F60.00
G3 X3.8727 Y-2.5668 Z2.2000 I3.3154 J3.4531 F60.00
G3 X6.3852 Y-2.0524 Z2.2000 I-0.2599 J7.6626 F60.00
G3 X7.3297 Y-1.0851 Z2.2000 I-0.4455 J1.3799 F60.00
G2 X7.7609 Y0.3457 Z2.2000 I18.4963 J-4.7936 F60.00
G1 X9.1559 Y0.3457 Z2.2000 F60.00
G3 X11.9922 Y-2.2666 Z2.2000 I4.4035 J1.9351 F60.00
G3 X16.8062 Y-1.4839 Z2.2000 I1.5822 J5.4633 F60.00
G3 X18.4573 Y0.9313 Z2.2000 I-1.9358 J3.0954 F60.00
G3 X22.5299 Y-2.4103 Z2.2000 I4.4027 J1.2133 F60.00
G3 X26.8115 Y-1.5645 Z2.2000 I0.8682 J6.8652 F60.00
G3 X27.5691 Y-0.2682 Z2.2000 I-0.7894 J1.3308 F60.00
G1 X27.5691 Y3.5806 Z2.2000 F60.00
G1 X27.9211 Y3.5806 Z2.2000 F60.00
G3 X28.0629 Y1.2625 Z2.2000 I27.8344 J0.5399 F60.00
G3 X30.5239 Y-1.9262 Z2.2000 I3.8578 J0.4333 F60.00
G3 X36.0808 Y-1.8112 Z2.2000 I2.6358 J6.9496 F60.00
G3 X37.2154 Y-0.6285 Z2.2000 I-0.8303 J1.9321 F60.00
G3 X37.3068 Y0.5396 Z2.2000 I-7.1143 J1.1443 F60.00
G3 X37.3333 Y12.9002 Z2.2000 I-854.2885 J8.0128 F60.00
G0 X37.3333 Y12.9002 Z9.0000
G0 X37.9729 Y12.7187 Z9.0000
G1 X37.9729 Y12.7187 Z2.2000 F60.00
G3 X37.7535 Y8.8572 Z2.2000 I8.5383 J-2.4221 F60.00
G3 X39.8668 Y4.5355 Z2.2000 I7.5316 J1.0055 F60.00
G3 X39.6878 Y4.2742 Z2.2000 I25.3069 J-17.5321 F60.00
G3 X39.1066 Y-0.0494 Z2.2000 I3.3037 J-2.6450 F60.00
G3 X43.6769 Y-2.7975 Z2.2000 I4.5065 J2.3202 F60.00
G3 X45.4162 Y-2.4760 Z2.2000 I0.0484 J4.6035 F60.00
G3 X47.1004 Y-0.5933 Z2.2000 I-4.7265 J5.9229 F60.00
G3 X49.1944 Y-2.1414 Z2.2000 I3.8566 J3.0265 F60.00
G3 X54.8950 Y-1.2304 Z2.2000 I1.9903 J5.8374 F60.00
G3 X55.5408 Y-0.0304 Z2.2000 I-0.8042 J1.2065 F60.00
G3 X55.4647 Y11.0052 Z2.2000 I-366.6740 J2.9910 F60.00
G3 X55.1561 Y15.1595 Z2.2000 I-35.0232 J-0.5137 F60.00
G3 X54.2374 Y16.6982 Z2.2000 I-1.8839 J-0.0811 F60.00
G3 X50.9016 Y17.9411 Z2.2000 I-4.7469 J-7.6426 F60.00
G3 X43.0598 Y17.8106 Z2.2000 I-3.6396 J-16.9739 F60.00
G3 X39.3805 Y15.5809 Z2.2000 I1.6125 J-6.8112 F60.00
G3 X37.9729 Y12.7187 Z2.2000 I7.1306 J-5.2842 F60.00
G0 X37.9729 Y12.7187 Z9.0000
G0 X37.9729 Y19.3424 Z9.0000
G1 X37.9729 Y19.3424 Z2.2000 F60.00
G1 X55.7679 Y19.3424 Z2.2000 F60.00
G1 X55.7679 Y-3.5250 Z2.2000 F60.00
G1 X-18.4298 Y-3.5250 Z2.2000 F60.00
G1 X-18.4298 Y19.3424 Z2.2000 F60.00
G1 X37.9729 Y19.3424 Z2.2000 F60.00
G0 X37.9729 Y19.3424 Z9.0000
G0 X27.9824 Y13.8029 Z9.0000
G1 X27.9824 Y13.8029 Z2.2000 F60.00
G3 X27.9533 Y11.8721 Z2.2000 I47.6380 J-1.6821 F60.00
G1 X27.5476 Y11.8721 Z2.2000 F60.00
G3 X27.4964 Y13.3169 Z2.2000 I-17.3888 J0.1075 F60.00
G1 X27.9824 Y13.8029 Z2.2000 F60.00
G2 X28.1540 Y16.0251 Z2.2000 I13.5724 J0.0697 F60.00
G1 X27.1728 Y15.0440 Z2.2000 F60.00
G0 X27.1728 Y15.0440 Z9.0000
G0 X27.9233 Y3.4908 Z9.0000
G1 X27.9233 Y3.4908 Z2.2000 F60.00
G1 X27.9211 Y3.5806 Z2.2000 F60.00
G1 X27.5691 Y3.5806 Z2.2000 F60.00
G1 X27.5691 Y3.1365 Z2.2000 F60.00
G1 X27.9233 Y3.4908 Z2.2000 F60.00
G3 X28.0338 Y1.5507 Z2.2000 I27.1077 J0.5702 F60.00
G1 X27.5691 Y1.0859 Z2.2000 F60.00
G0 X27.5691 Y1.0859 Z9.0000
G0 X34.4548 Y-2.2814 Z9.0000
G1 X34.4548 Y-2.2814 Z2.2000 F60.00
G1 X33.2112 Y-3.5250 Z2.2000 F60.00
G1 X31.1606 Y-3.5250 Z2.2000 F60.00
G1 X32.3224 Y-2.3632 Z2.2000 F60.00
G2 X30.6549 Y-1.9801 Z2.2000 I0.4343 J5.7110 F60.00
G1 X29.1100 Y-3.5250 Z2.2000 F60.00
G1 X27.0594 Y-3.5250 Z2.2000 F60.00
G1 X29.3691 Y-1.2152 Z2.2000 F60.00
G2 X28.4625 Y-0.0712 Z2.2000 I2.2530 J2.7167 F60.00
G1 X25.0088 Y-3.5250 Z2.2000 F60.00
G1 X22.9582 Y-3.5250 Z2.2000 F60.00
G1 X24.0643 Y-2.4189 Z2.2000 F60.00
G2 X22.0870 Y-2.3455 Z2.2000 I-0.7121 J7.4901 F60.00
G1 X20.9075 Y-3.5250 Z2.2000 F60.00
G1 X18.8569 Y-3.5250 Z2.2000 F60.00
G1 X20.5784 Y-1.8035 Z2.2000 F60.00
G2 X19.4444 Y-0.8869 Z2.2000 I2.1264 J3.7905 F60.00
G1 X16.8063 Y-3.5250 Z2.2000 F60.00
G1 X14.7557 Y-3.5250 Z2.2000 F60.00
G1 X16.7795 Y-1.5012 Z2.2000 F60.00
G2 X13.7249 Y-2.5052 Z2.2000 I-3.3121 J4.9281 F60.00
G1 X12.7051 Y-3.5250 Z2.2000 F60.00
G1 X10.6545 Y-3.5250 Z2.2000 F60.00
G1 X11.9346 Y-2.2449 Z2.2000 F60.00
G2 X10.6111 Y-1.5178 Z2.2000 I1.4002 J4.1166 F60.00
G1 X8.6039 Y-3.5250 Z2.2000 F60.00
G1 X6.5533 Y-3.5250 Z2.2000 F60.00
G1 X9.6116 Y-0.4666 Z2.2000 F60.00
G2 X9.1559 Y0.3457 Z2.2000 I3.7889 J2.6593 F60.00
G1 X8.3734 Y0.3457 Z2.2000 F60.00
G1 X7.4931 Y-0.5345 Z2.2000 F60.00
G2 X7.7609 Y0.3457 Z2.2000 I11.3802 J-2.9813 F60.00
G1 X8.3734 Y0.3457 Z2.2000 F60.00
G0 X8.3734 Y0.3457 Z9.0000
G0 X5.7798 Y-2.2479 Z9.0000
G1 X5.7798 Y-2.2479 Z2.2000 F60.00
G1 X4.5027 Y-3.5250 Z2.2000 F60.00
G1 X2.4521 Y-3.5250 Z2.2000 F60.00
G1 X3.4195 Y-2.5575 Z2.2000 F60.00
G2 X1.7515 Y-2.1749 Z2.2000 I0.3031 J5.1495 F60.00
G1 X0.4014 Y-3.5250 Z2.2000 F60.00
G1 X-1.6492 Y-3.5250 Z2.2000 F60.00
G1 X0.4952 Y-1.3806 Z2.2000 F60.00
G2 X-0.4095 Y-0.2347 Z2.2000 I3.0391 J3.3294 F60.00
G1 X-3.6998 Y-3.5250 Z2.2000 F60.00
G1 X-5.7504 Y-3.5250 Z2.2000 F60.00
G1 X-0.9582 Y1.2672 Z2.2000 F60.00
G2 X-1.1095 Y3.1665 Z2.2000 I7.0266 J1.5154 F60.00
G1 X-2.2549 Y2.0211 Z2.2000 F60.00
G3 X-1.6719 Y4.6547 Z2.2000 I-8.2193 J3.2010 F60.00
G1 X-0.7368 Y5.5898 Z2.2000 F60.00
G2 X-0.0083 Y8.3689 Z2.2000 I45.5661 J-10.4602 F60.00
G1 X-1.7900 Y6.5872 Z2.2000 F60.00
G3 X-2.2706 Y8.1573 Z2.2000 I-6.3555 J-1.0865 F60.00
G1 X0.9305 Y11.3583 Z2.2000 F60.00
G2 X2.0888 Y14.5672 Z2.2000 I48.6916 J-15.7626 F60.00
G1 X-3.0188 Y9.4597 Z2.2000 F60.00
G0 X-3.0188 Y9.4597 Z9.0000
G0 X-3.0327 Y9.4491 Z9.0000
G1 X-3.0327 Y9.4491 Z2.2000 F60.00
G3 X-4.6420 Y10.9768 Z2.2000 I-5.4312 J-4.1101 F60.00
G3 X-3.7253 Y11.9414 Z2.2000 I-2.2888 J3.0933 F60.00
G3 X-3.4149 Y16.8806 Z2.2000 I-4.4853 J2.7612 F60.00
G3 X-4.7204 Y17.8013 Z2.2000 I-1.4121 J-0.6164 F60.00
G1 X-6.4137 Y17.8771 Z2.2000 F60.00
G3 X-16.5068 Y17.7983 Z2.2000 I-4.3225 J-92.8041 F60.00
G3 X-17.8365 Y16.4982 Z2.2000 I0.1130 J-1.4456 F60.00
G3 X-18.2670 Y6.4418 Z2.2000 I64.4796 J-7.7974 F60.00
G3 X-17.8064 Y2.9122 Z2.2000 I16.9531 J0.4171 F60.00
G3 X-14.0813 Y-1.7867 Z2.2000 I6.9826 J1.7095 F60.00
G3 X-10.0182 Y-2.6138 Z2.2000 I3.8528 J8.5335 F60.00
G3 X-7.9119 Y-2.4300 Z2.2000 I-0.0252 J12.4546 F60.00
G3 X-4.2194 Y-0.8562 Z2.2000 I-1.0038 J7.4735 F60.00
G3 X-1.6548 Y5.1776 Z2.2000 I-5.5665 J5.9279 F60.00
G3 X-3.0327 Y9.4491 Z2.2000 I-6.8092 J0.1614 F60.00
G0 X-3.0327 Y9.4491 Z9.0000
G0 X-6.2853 Y-2.0093 Z9.0000
G1 X-6.2853 Y-2.0093 Z2.2000 F60.00
G1 X-7.8010 Y-3.5250 Z2.2000 F60.00
G1 X-9.8516 Y-3.5250 Z2.2000 F60.00
G1 X-8.8823 Y-2.5557 Z2.2000 F60.00
G2 X-10.9511 Y-2.5738 Z2.2000 I-1.1306 J10.9804 F60.00
G1 X-11.9022 Y-3.5250 Z2.2000 F60.00
G1 X-13.9528 Y-3.5250 Z2.2000 F60.00
G1 X-12.7198 Y-2.2920 Z2.2000 F60.00
G2 X-14.1991 Y-1.7206 Z2.2000 I1.5418 J6.1918 F60.00
G1 X-16.0034 Y-3.5250 Z2.2000 F60.00
G1 X-18.0540 Y-3.5250 Z2.2000 F60.00
G1 X-15.4223 Y-0.8932 Z2.2000 F60.00
G2 X-16.4400 Y0.1397 Z2.2000 I4.2554 J5.2107 F60.00
G1 X-18.4298 Y-1.8501 Z2.2000 F60.00
G1 X-18.4298 Y0.2005 Z2.2000 F60.00
G1 X-17.2383 Y1.3920 Z2.2000 F60.00
G2 X-17.7991 Y2.8818 Z2.2000 I7.2933 J3.5955 F60.00
G1 X-18.4298 Y2.2511 Z2.2000 F60.00
G1 X-18.4298 Y4.3017 Z2.2000 F60.00
G1 X-18.1231 Y4.6083 Z2.2000 F60.00
G2 X-18.2690 Y6.5131 Z2.2000 I31.0166 J3.3333 F60.00
G1 X-18.4298 Y6.3523 Z2.2000 F60.00
G1 X-18.4298 Y8.4030 Z2.2000 F60.00
G1 X-18.3129 Y8.5198 Z2.2000 F60.00
G2 X-18.2766 Y10.6067 Z2.2000 I39.4388 J0.3579 F60.00
G1 X-18.4298 Y10.4536 Z2.2000 F60.00
G1 X-18.4298 Y12.5042 Z2.2000 F60.00
G1 X-18.1732 Y12.7608 Z2.2000 F60.00
G2 X-17.9879 Y14.9967 Z2.2000 I46.9783 J-2.7676 F60.00
G1 X-18.4298 Y14.5548 Z2.2000 F60.00
G0 X-18.4298 Y14.5548 Z9.0000
G0 X-17.7434 Y19.3424 Z9.0000
G1 X-17.7434 Y19.3424 Z2.2000 F60.00
G1 X-18.4298 Y18.6560 Z2.2000 F60.00
G1 X-18.4298 Y19.3424 Z2.2000 F60.00
G1 X-17.7434 Y19.3424 Z2.2000 F60.00
G1 X-15.6927 Y19.3424 Z2.2000 F60.00
G1 X-18.4298 Y16.6054 Z2.2000 F60.00
G1 X-18.4298 Y14.5548 Z2.2000 F60.00
G1 X-17.9879 Y14.9967 Z2.2000 F60.00
G1 X-17.8365 Y16.4982 Z2.2000 F60.00
G2 X-16.8362 Y17.7336 Z2.2000 I1.4427 J-0.1454 F60.00
G2 X-15.0940 Y17.8906 Z2.2000 I2.1060 J-13.6275 F60.00
G1 X-13.6421 Y19.3424 Z2.2000 F60.00
G1 X-11.5915 Y19.3424 Z2.2000 F60.00
G1 X-12.9835 Y17.9505 Z2.2000 F60.00
G2 X-10.9216 Y17.9618 Z2.2000 I1.2981 J-48.8291 F60.00
G1 X-9.5409 Y19.3424 Z2.2000 F60.00
G1 X-7.4903 Y19.3424 Z2.2000 F60.00
G1 X-8.8904 Y17.9423 Z2.2000 F60.00
G2 X-6.8908 Y17.8913 Z2.2000 I-0.4496 J-56.7996 F60.00
G1 X-5.4397 Y19.3424 Z2.2000 F60.00
G1 X-3.3891 Y19.3424 Z2.2000 F60.00
G1 X-4.9212 Y17.8103 Z2.2000 F60.00
G2 X-3.5593 Y17.1216 Z2.2000 I0.1036 J-1.4861 F60.00
G1 X-1.3385 Y19.3424 Z2.2000 F60.00
G1 X0.7121 Y19.3424 Z2.2000 F60.00
G1 X-3.0287 Y15.6016 Z2.2000 F60.00
G2 X-3.0859 Y13.4938 Z2.2000 I-5.1523 J-0.9149 F60.00
G1 X2.7627 Y19.3424 Z2.2000 F60.00
G1 X4.8134 Y19.3424 Z2.2000 F60.00
G1 X-4.0186 Y10.5104 Z2.2000 F60.00
G2 X-3.0188 Y9.4597 Z2.2000 I-3.7788 J-4.5972 F60.00
G1 X2.0888 Y14.5672 Z2.2000 F60.00
G2 X2.8555 Y16.2990 Z2.2000 I14.8128 J-5.5228 F60.00
G2 X3.4781 Y16.9489 Z2.2000 I1.3067 J-0.6286 F60.00
G2 X4.8953 Y17.3738 Z2.2000 I3.8764 J-10.3535 F60.00
G1 X6.8640 Y19.3424 Z2.2000 F60.00
G1 X8.9146 Y19.3424 Z2.2000 F60.00
G1 X7.3443 Y17.7721 Z2.2000 F60.00
G2 X9.3308 Y17.7081 Z2.2000 I0.6843 J-9.6177 F60.00
G1 X10.9652 Y19.3424 Z2.2000 F60.00
G1 X13.0158 Y19.3424 Z2.2000 F60.00
G1 X10.9753 Y17.3019 Z2.2000 F60.00
G2 X12.3311 Y16.6071 Z2.2000 I-2.2112 J-5.9851 F60.00
G1 X15.0664 Y19.3424 Z2.2000 F60.00
G1 X17.1170 Y19.3424 Z2.2000 F60.00
G1 X13.4511 Y15.6765 Z2.2000 F60.00
G2 X14.3472 Y14.5219 Z2.2000 I-4.8375 J-4.6795 F60.00
G1 X19.1676 Y19.3424 Z2.2000 F60.00
G1 X21.2182 Y19.3424 Z2.2000 F60.00
G1 X15.0312 Y13.1554 Z2.2000 F60.00
G2 X15.5808 Y11.6544 Z2.2000 I-30.8251 J-12.1383 F60.00
G1 X18.0795 Y14.1531 Z2.2000 F60.00
G2 X18.1335 Y15.4944 Z2.2000 I28.1250 J-0.4598 F60.00
G2 X18.4762 Y16.3641 Z2.2000 I1.4484 J-0.0684 F60.00
G2 X21.7666 Y17.8401 Z2.2000 I3.8640 J-4.2080 F60.00
G1 X23.2688 Y19.3424 Z2.2000 F60.00
G1 X25.3194 Y19.3424 Z2.2000 F60.00
G1 X23.7073 Y17.7302 Z2.2000 F60.00
G2 X25.2104 Y17.1828 Z2.2000 I-1.0538 J-5.2308 F60.00
G1 X27.3701 Y19.3424 Z2.2000 F60.00
G1 X29.4207 Y19.3424 Z2.2000 F60.00
G1 X26.3660 Y16.2878 Z2.2000 F60.00
G2 X27.1728 Y15.0440 Z2.2000 I-2.8532 J-2.7343 F60.00
G1 X28.1540 Y16.0251 Z2.2000 F60.00
G2 X28.4888 Y16.6687 Z2.2000 I1.1294 J-0.1787 F60.00
G2 X29.4676 Y17.3387 Z2.2000 I2.8419 J-3.1016 F60.00
G1 X31.4713 Y19.3424 Z2.2000 F60.00
G1 X33.5219 Y19.3424 Z2.2000 F60.00
G1 X32.1082 Y17.9287 Z2.2000 F60.00
G2 X33.8621 Y17.6320 Z2.2000 I-0.0597 J-5.6844 F60.00
G1 X35.5725 Y19.3424 Z2.2000 F60.00
G1 X37.6231 Y19.3424 Z2.2000 F60.00
G1 X35.2412 Y16.9605 Z2.2000 F60.00
G2 X36.3093 Y15.9780 Z2.2000 I-2.9286 J-4.2560 F60.00
G1 X39.6737 Y19.3424 Z2.2000 F60.00
G1 X41.7243 Y19.3424 Z2.2000 F60.00
G1 X37.0521 Y14.6702 Z2.2000 F60.00
G2 X37.3327 Y12.9002 Z2.2000 I-4.6991 J-1.6522 F60.00
G1 X38.4198 Y13.9873 Z2.2000 F60.00
G2 X41.8046 Y17.3720 Z2.2000 I5.7389 J-2.3542 F60.00
G1 X43.7749 Y19.3424 Z2.2000 F60.00
G1 X45.8255 Y19.3424 Z2.2000 F60.00
G1 X44.6194 Y18.1363 Z2.2000 F60.00
G2 X46.8550 Y18.3212 Z2.2000 I2.4421 J-15.9145 F60.00
G1 X47.8762 Y19.3424 Z2.2000 F60.00
G1 X49.9268 Y19.3424 Z2.2000 F60.00
G1 X48.8190 Y18.2347 Z2.2000 F60.00
G2 X50.6282 Y17.9933 Z2.2000 I-1.0692 J-14.9146 F60.00
G1 X51.9774 Y19.3424 Z2.2000 F60.00
G1 X54.0280 Y19.3424 Z2.2000 F60.00
G1 X52.2779 Y17.5923 Z2.2000 F60.00
G2 X53.7375 Y17.0013 Z2.2000 I-2.4071 J-8.0434 F60.00
G1 X55.7679 Y19.0317 Z2.2000 F60.00
G1 X55.7679 Y16.9811 Z2.2000 F60.00
G1 X54.8722 Y16.0854 Z2.2000 F60.00
G2 X54.9921 Y15.8513 Z2.2000 I-0.6184 J-0.4645 F60.00
G2 X55.2512 Y14.4138 Z2.2000 I-6.6407 J-1.9389 F60.00
G1 X55.7679 Y14.9305 Z2.2000 F60.00
G1 X55.7679 Y12.8799 Z2.2000 F60.00
G1 X55.4019 Y12.5139 Z2.2000 F60.00
G2 X55.4735 Y10.5349 Z2.2000 I-33.3482 J-2.1971 F60.00
G1 X55.7679 Y10.8293 Z2.2000 F60.00
G1 X55.7679 Y8.7787 Z2.2000 F60.00
G1 X55.5111 Y8.5219 Z2.2000 F60.00
G2 X55.5345 Y6.4946 Z2.2000 I-94.5080 J-2.1032 F60.00
G1 X55.7679 Y6.7281 Z2.2000 F60.00
G1 X55.7679 Y4.6775 Z2.2000 F60.00
G1 X55.5492 Y4.4588 Z2.2000 F60.00
G1 X55.5492 Y2.4082 Z2.2000 F60.00
G1 X55.7679 Y2.6268 Z2.2000 F60.00
G1 X55.7679 Y0.5762 Z2.2000 F60.00
G1 X55.5425 Y0.3508 Z2.2000 F60.00
G0 X55.5425 Y0.3508 Z9.0000
G0 X18.6493 Y0.3686 Z9.0000
G1 X18.6493 Y0.3686 Z2.2000 F60.00
G1 X17.9976 Y-0.2831 Z2.2000 F60.00
G3 X18.4573 Y0.9313 Z2.2000 I-2.3852 J1.5971 F60.00
G3 X18.6493 Y0.3686 Z2.2000 I3.2615 J0.7987 F60.00
G0 X18.6493 Y0.3686 Z9.0000
G0 X18.1859 Y4.0064 Z9.0000
G1 X18.1859 Y4.0064 Z2.2000 F60.00
G3 X18.2577 Y2.3233 Z2.2000 I53.3984 J1.4350 F60.00
G3 X17.9270 Y3.7475 Z2.2000 I-24.0152 J-4.8265 F60.00
G1 X18.1859 Y4.0064 Z2.2000 F60.00
G2 X18.1261 Y5.9972 Z2.2000 I126.0495 J4.7826 F60.00
G1 X17.5079 Y5.3791 Z2.2000 F60.00
G3 X17.0562 Y6.9779 Z2.2000 I-30.1902 J-7.6678 F60.00
G1 X18.0796 Y8.0014 Z2.2000 F60.00
G2 X18.0566 Y10.0289 Z2.2000 I74.6847 J1.8635 F60.00
G1 X16.5881 Y8.5605 Z2.2000 F60.00
G3 X16.1023 Y10.1252 Z2.2000 I-26.1046 J-7.2476 F60.00
G1 X18.0550 Y12.0780 Z2.2000 F60.00
G2 X18.0795 Y14.1531 Z2.2000 I64.5836 J0.2748 F60.00
G1 X15.5808 Y11.6544 Z2.2000 F60.00
G1 X15.5808 Y11.6544 Z1.3000 F60.00
G1 X18.0795 Y14.1531 Z1.3000 F60.00
G3 X18.0550 Y12.0780 Z1.3000 I64.5591 J-1.8004 F60.00
G1 X16.1023 Y10.1252 Z1.3000 F60.00
G2 X16.5881 Y8.5605 Z1.3000 I-25.6187 J-8.8124 F60.00
G1 X18.0566 Y10.0289 Z1.3000 F60.00
G3 X18.0796 Y8.0014 Z1.3000 I74.7077 J-0.1641 F60.00
G1 X17.0562 Y6.9779 Z1.3000 F60.00
G2 X17.5079 Y5.3791 Z1.3000 I-29.7384 J-9.2666 F60.00
G1 X18.1261 Y5.9972 Z1.3000 F60.00
G3 X18.1859 Y4.0064 Z1.3000 I126.1093 J2.7918 F60.00
G1 X17.9270 Y3.7475 Z1.3000 F60.00
G2 X18.2577 Y2.3233 Z1.3000 I-23.6845 J-6.2507 F60.00
G2 X18.1859 Y4.0064 Z1.3000 I53.3266 J3.1181 F60.00
G0 X18.1859 Y4.0064 Z9.0000
G0 X18.1783 Y4.0061 Z9.0000
G0 X18.1783 Y4.0061 Z8.3000
G1 X18.1783 Y4.0061 Z1.3000 F60.00
G3 X18.2577 Y2.3233 Z1.3000 I152.2585 J6.3382 F60.00
G3 X14.9997 Y13.2408 Z1.3000 I-83.6675 J-19.0232 F60.00
G3 X13.5039 Y15.6190 Z1.3000 I-7.1870 J-2.8607 F60.00
G3 X8.1867 Y17.7951 Z1.3000 I-5.1448 J-4.9870 F60.00
G3 X3.7602 Y17.0635 Z1.3000 I0.0457 J-14.0338 F60.00
G3 X3.0156 Y16.5580 Z1.3000 I0.4020 J-1.3932 F60.00
G3 X2.5461 Y15.6557 Z1.3000 I4.0383 J-2.6747 F60.00
G3 X-0.7220 Y5.6569 Z1.3000 I61.7950 J-25.7307 F60.00
G3 X-1.0180 Y1.5567 Z1.3000 I9.9334 J-2.7779 F60.00
G3 X0.3440 Y-1.2376 Z1.3000 I4.9297 J0.6736 F60.00
G3 X3.8727 Y-2.5668 Z1.3000 I3.3154 J3.4531 F60.00
G3 X6.3852 Y-2.0524 Z1.3000 I-0.2599 J7.6626 F60.00
G3 X7.3297 Y-1.0851 Z1.3000 I-0.4455 J1.3799 F60.00
G2 X7.7609 Y0.3457 Z1.3000 I18.4963 J-4.7936 F60.00
G1 X9.1559 Y0.3457 Z1.3000 F60.00
G3 X11.9922 Y-2.2666 Z1.3000 I4.4035 J1.9351 F60.00
G3 X16.8062 Y-1.4839 Z1.3000 I1.5822 J5.4633 F60.00
G3 X18.4573 Y0.9313 Z1.3000 I-1.9358 J3.0954 F60.00
G3 X22.5299 Y-2.4103 Z1.3000 I4.4027 J1.2133 F60.00
G3 X26.8115 Y-1.5645 Z1.3000 I0.8682 J6.8652 F60.00
G3 X27.5691 Y-0.2682 Z1.3000 I-0.7894 J1.3308 F60.00
G1 X27.5691 Y3.5806 Z1.3000 F60.00
G1 X27.9211 Y3.5806 Z1.3000 F60.00
G3 X28.0629 Y1.2625 Z1.3000 I27.8344 J0.5399 F60.00
G3 X30.5239 Y-1.9262 Z1.3000 I3.8578 J0.4333 F60.00
G3 X36.0808 Y-1.8112 Z1.3000 I2.6358 J6.9496 F60.00
G3 X37.2154 Y-0.6285 Z1.3000 I-0.8303 J1.9321 F60.00
G3 X37.3068 Y0.5396 Z1.3000 I-7.1143 J1.1443 F60.00
G3 X37.3327 Y13.0167 Z1.3000 I-854.2885 J8.0128 F60.00
G3 X36.0622 Y16.2603 Z1.3000 I-4.5810 J0.0763 F60.00
G3 X29.0286 Y17.0880 Z1.3000 I-4.0418 J-4.0480 F60.00
G3 X28.1131 Y15.8289 Z1.3000 I0.7233 J-1.4883 F60.00
G3 X27.9533 Y11.8721 Z1.3000 I40.7462 J-3.6267 F60.00
G1 X27.5476 Y11.8721 Z1.3000 F60.00
G3 X27.4655 Y13.8432 Z1.3000 I-23.6012 J0.0040 F60.00
G3 X25.9333 Y16.6971 Z1.3000 I-4.0661 J-0.3447 F60.00
G3 X19.0202 Y16.8193 Z1.3000 I-3.5414 J-4.7417 F60.00
G3 X18.1335 Y15.4944 Z1.3000 I0.7731 J-1.4766 F60.00
G3 X18.1783 Y4.0061 Z1.3000 I152.3034 J-5.1501 F60.00
G0 X18.1783 Y4.0061 Z9.0000
G0 X18.4573 Y0.9313 Z9.0000
G0 X18.4573 Y0.9313 Z8.3000
G1 X18.4573 Y0.9313 Z1.3000 F60.00
G3 X18.6493 Y0.3686 Z1.3000 I3.2615 J0.7987 F60.00
G1 X17.9976 Y-0.2831 Z1.3000 F60.00
G3 X18.4573 Y0.9313 Z1.3000 I-2.3852 J1.5971 F60.00
G0 X18.4573 Y0.9313 Z9.0000
G0 X18.4573 Y-3.5250 Z9.0000
G0 X18.4573 Y-3.5250 Z8.3000
G1 X18.4573 Y-3.5250 Z1.3000 F60.00
G1 X-18.4298 Y-3.5250 Z1.3000 F60.00
G1 X-18.4298 Y19.3424 Z1.3000 F60.00
G1 X55.7679 Y19.3424 Z1.3000 F60.00
G1 X55.7679 Y-3.5250 Z1.3000 F60.00
G1 X18.4573 Y-3.5250 Z1.3000 F60.00
G0 X18.4573 Y-3.5250 Z9.0000
G0 X27.5691 Y1.0859 Z9.0000
G0 X27.5691 Y1.0859 Z8.3000
G1 X27.5691 Y1.0859 Z1.3000 F60.00
G1 X28.0338 Y1.5507 Z1.3000 F60.00
G2 X27.9233 Y3.4908 Z1.3000 I26.9973 J2.5103 F60.00
G1 X27.5691 Y3.1365 Z1.3000 F60.00
G1 X27.5691 Y3.5806 Z1.3000 F60.00
G1 X27.9211 Y3.5806 Z1.3000 F60.00
G1 X27.9233 Y3.4908 Z1.3000 F60.00
G0 X27.9233 Y3.4908 Z9.0000
G0 X34.4548 Y-2.2814 Z9.0000
G0 X34.4548 Y-2.2814 Z8.3000
G1 X34.4548 Y-2.2814 Z1.3000 F60.00
G1 X33.2112 Y-3.5250 Z1.3000 F60.00
G1 X31.1606 Y-3.5250 Z1.3000 F60.00
G1 X32.3224 Y-2.3632 Z1.3000 F60.00
G2 X30.6549 Y-1.9801 Z1.3000 I0.4343 J5.7110 F60.00
G1 X29.1100 Y-3.5250 Z1.3000 F60.00
G1 X27.0594 Y-3.5250 Z1.3000 F60.00
G1 X29.3691 Y-1.2152 Z1.3000 F60.00
G2 X28.4625 Y-0.0712 Z1.3000 I2.2530 J2.7167 F60.00
G1 X25.0088 Y-3.5250 Z1.3000 F60.00
G1 X22.9582 Y-3.5250 Z1.3000 F60.00
G1 X24.0643 Y-2.4189 Z1.3000 F60.00
G2 X22.0870 Y-2.3455 Z1.3000 I-0.7121 J7.4901 F60.00
G1 X20.9075 Y-3.5250 Z1.3000 F60.00
G1 X18.8569 Y-3.5250 Z1.3000 F60.00
G1 X20.5784 Y-1.8035 Z1.3000 F60.00
G2 X19.4444 Y-0.8869 Z1.3000 I2.1264 J3.7905 F60.00
G1 X16.8063 Y-3.5250 Z1.3000 F60.00
G1 X14.7557 Y-3.5250 Z1.3000 F60.00
G1 X16.7795 Y-1.5012 Z1.3000 F60.00
G2 X13.7249 Y-2.5052 Z1.3000 I-3.3121 J4.9281 F60.00
G1 X12.7051 Y-3.5250 Z1.3000 F60.00
G1 X10.6545 Y-3.5250 Z1.3000 F60.00
G1 X11.9346 Y-2.2449 Z1.3000 F60.00
G2 X10.6111 Y-1.5178 Z1.3000 I1.4002 J4.1166 F60.00
G1 X8.6039 Y-3.5250 Z1.3000 F60.00
G1 X6.5533 Y-3.5250 Z1.3000 F60.00
G1 X9.6116 Y-0.4666 Z1.3000 F60.00
G2 X9.1559 Y0.3457 Z1.3000 I3.7889 J2.6593 F60.00
G1 X8.3734 Y0.3457 Z1.3000 F60.00
G1 X7.4931 Y-0.5345 Z1.3000 F60.00
G2 X7.7609 Y0.3457 Z1.3000 I11.3802 J-2.9813 F60.00
G1 X8.3734 Y0.3457 Z1.3000 F60.00
G0 X8.3734 Y0.3457 Z9.0000
G0 X5.7798 Y-2.2479 Z9.0000
G0 X5.7798 Y-2.2479 Z8.3000
G1 X5.7798 Y-2.2479 Z1.3000 F60.00
G1 X4.5027 Y-3.5250 Z1.3000 F60.00
G1 X2.4521 Y-3.5250 Z1.3000 F60.00
G1 X3.4195 Y-2.5575 Z1.3000 F60.00
G2 X1.7515 Y-2.1749 Z1.3000 I0.3031 J5.1495 F60.00
G1 X0.4014 Y-3.5250 Z1.3000 F60.00
G1 X-1.6492 Y-3.5250 Z1.3000 F60.00
G1 X0.4952 Y-1.3806 Z1.3000 F60.00
G2 X-0.4095 Y-0.2347 Z1.3000 I3.0391 J3.3294 F60.00
G1 X-3.6998 Y-3.5250 Z1.3000 F60.00
G1 X-5.7504 Y-3.5250 Z1.3000 F60.00
G1 X-0.9582 Y1.2672 Z1.3000 F60.00
G2 X-1.1095 Y3.1665 Z1.3000 I7.0266 J1.5154 F60.00
G1 X-2.2549 Y2.0211 Z1.3000 F60.00
G3 X-1.6719 Y4.6547 Z1.3000 I-8.2193 J3.2010 F60.00
G1 X-0.7368 Y5.5898 Z1.3000 F60.00
G2 X-0.0083 Y8.3689 Z1.3000 I45.5661 J-10.4602 F60.00
G1 X-1.7900 Y6.5872 Z1.3000 F60.00
G3 X-2.2706 Y8.1573 Z1.3000 I-6.3555 J-1.0865 F60.00
G1 X0.9305 Y11.3583 Z1.3000 F60.00
G2 X2.0888 Y14.5672 Z1.3000 I48.6916 J-15.7626 F60.00
G1 X-3.0188 Y9.4597 Z1.3000 F60.00
G0 X-3.0188 Y9.4597 Z9.0000
G0 X-3.0327 Y9.4491 Z9.0000
G0 X-3.0327 Y9.4491 Z8.3000
G1 X-3.0327 Y9.4491 Z1.3000 F60.00
G3 X-4.6420 Y10.9768 Z1.3000 I-5.4312 J-4.1101 F60.00
G3 X-3.7253 Y11.9414 Z1.3000 I-2.2888 J3.0933 F60.00
G3 X-3.4149 Y16.8806 Z1.3000 I-4.4853 J2.7612 F60.00
G3 X-4.7204 Y17.8013 Z1.3000 I-1.4121 J-0.6164 F60.00
G1 X-6.4137 Y17.8771 Z1.3000 F60.00
G3 X-16.5068 Y17.7983 Z1.3000 I-4.3225 J-92.8041 F60.00
G3 X-17.8365 Y16.4982 Z1.3000 I0.1130 J-1.4456 F60.00
G3 X-18.2670 Y6.4418 Z1.3000 I64.4796 J-7.7974 F60.00
G3 X-17.8064 Y2.9122 Z1.3000 I16.9531 J0.4171 F60.00
G3 X-14.0813 Y-1.7867 Z1.3000 I6.9826 J1.7095 F60.00
G3 X-10.0182 Y-2.6138 Z1.3000 I3.8528 J8.5335 F60.00
G3 X-7.9119 Y-2.4300 Z1.3000 I-0.0252 J12.4546 F60.00
G3 X-4.2194 Y-0.8562 Z1.3000 I-1.0038 J7.4735 F60.00
G3 X-1.6548 Y5.1776 Z1.3000 I-5.5665 J5.9279 F60.00
G3 X-3.0327 Y9.4491 Z1.3000 I-6.8092 J0.1614 F60.00
G0 X-3.0327 Y9.4491 Z9.0000
G0 X-6.2853 Y-2.0093 Z9.0000
G0 X-6.2853 Y-2.0093 Z8.3000
G1 X-6.2853 Y-2.0093 Z1.3000 F60.00
G1 X-7.8010 Y-3.5250 Z1.3000 F60.00
G1 X-9.8516 Y-3.5250 Z1.3000 F60.00
G1 X-8.8823 Y-2.5557 Z1.3000 F60.00
G2 X-10.9511 Y-2.5738 Z1.3000 I-1.1306 J10.9804 F60.00
G1 X-11.9022 Y-3.5250 Z1.3000 F60.00
G1 X-13.9528 Y-3.5250 Z1.3000 F60.00
G1 X-12.7198 Y-2.2920 Z1.3000 F60.00
G2 X-14.1991 Y-1.7206 Z1.3000 I1.5418 J6.1918 F60.00
G1 X-16.0034 Y-3.5250 Z1.3000 F60.00
G1 X-18.0540 Y-3.5250 Z1.3000 F60.00
G1 X-15.4223 Y-0.8932 Z1.3000 F60.00
G2 X-16.4400 Y0.1397 Z1.3000 I4.2554 J5.2107 F60.00
G1 X-18.4298 Y-1.8501 Z1.3000 F60.00
G1 X-18.4298 Y0.2005 Z1.3000 F60.00
G1 X-17.2383 Y1.3920 Z1.3000 F60.00
G2 X-17.7991 Y2.8818 Z1.3000 I7.2933 J3.5955 F60.00
G1 X-18.4298 Y2.2511 Z1.3000 F60.00
G1 X-18.4298 Y4.3017 Z1.3000 F60.00
G1 X-18.1231 Y4.6083 Z1.3000 F60.00
G2 X-18.2690 Y6.5131 Z1.3000 I31.0166 J3.3333 F60.00
G1 X-18.4298 Y6.3523 Z1.3000 F60.00
G1 X-18.4298 Y8.4030 Z1.3000 F60.00
G1 X-18.3129 Y8.5198 Z1.3000 F60.00
G2 X-18.2766 Y10.6067 Z1.3000 I39.4388 J0.3579 F60.00
G1 X-18.4298 Y10.4536 Z1.3000 F60.00
G1 X-18.4298 Y12.5042 Z1.3000 F60.00
G1 X-18.1732 Y12.7608 Z1.3000 F60.00
G2 X-17.9879 Y14.9967 Z1.3000 I46.9783 J-2.7676 F60.00
G1 X-18.4298 Y14.5548 Z1.3000 F60.00
G0 X-18.4298 Y14.5548 Z9.0000
G0 X-17.7434 Y19.3424 Z9.0000
G0 X-17.7434 Y19.3424 Z8.3000
G1 X-17.7434 Y19.3424 Z1.3000 F60.00
G1 X-18.4298 Y18.6560 Z1.3000 F60.00
G1 X-18.4298 Y19.3424 Z1.3000 F60.00
G1 X-17.7434 Y19.3424 Z1.3000 F60.00
G1 X-15.6927 Y19.3424 Z1.3000 F60.00
G1 X-18.4298 Y16.6054 Z1.3000 F60.00
G1 X-18.4298 Y14.5548 Z1.3000 F60.00
G1 X-17.9879 Y14.9967 Z1.3000 F60.00
G1 X-17.8365 Y16.4982 Z1.3000 F60.00
G2 X-16.8362 Y17.7336 Z1.3000 I1.4427 J-0.1454 F60.00
G2 X-15.0940 Y17.8906 Z1.3000 I2.1060 J-13.6275 F60.00
G1 X-13.6421 Y19.3424 Z1.3000 F60.00
G1 X-11.5915 Y19.3424 Z1.3000 F60.00
G1 X-12.9835 Y17.9505 Z1.3000 F60.00
G2 X-10.9216 Y17.9618 Z1.3000 I1.2981 J-48.8291 F60.00
G1 X-9.5409 Y19.3424 Z1.3000 F60.00
G1 X-7.4903 Y19.3424 Z1.3000 F60.00
G1 X-8.8904 Y17.9423 Z1.3000 F60.00
G2 X-6.8908 Y17.8913 Z1.3000 I-0.4496 J-56.7996 F60.00
G1 X-5.4397 Y19.3424 Z1.3000 F60.00
G1 X-3.3891 Y19.3424 Z1.3000 F60.00
G1 X-4.9212 Y17.8103 Z1.3000 F60.00
G2 X-3.5593 Y17.1216 Z1.3000 I0.1036 J-1.4861 F60.00
G1 X-1.3385 Y19.3424 Z1.3000 F60.00
G1 X0.7121 Y19.3424 Z1.3000 F60.00
G1 X-3.0287 Y15.6016 Z1.3000 F60.00
G2 X-3.0859 Y13.4938 Z1.3000 I-5.1523 J-0.9149 F60.00
G1 X2.7627 Y19.3424 Z1.3000 F60.00
G1 X4.8134 Y19.3424 Z1.3000 F60.00
G1 X-4.0186 Y10.5104 Z1.3000 F60.00
G2 X-3.0188 Y9.4597 Z1.3000 I-3.7788 J-4.5972 F60.00
G1 X2.0888 Y14.5672 Z1.3000 F60.00
G2 X2.8555 Y16.2990 Z1.3000 I14.8128 J-5.5228 F60.00
G2 X3.4781 Y16.9489 Z1.3000 I1.3067 J-0.6286 F60.00
G2 X4.8953 Y17.3738 Z1.3000 I3.8764 J-10.3535 F60.00
G1 X6.8640 Y19.3424 Z1.3000 F60.00
G1 X8.9146 Y19.3424 Z1.3000 F60.00
G1 X7.3443 Y17.7721 Z1.3000 F60.00
G2 X9.3308 Y17.7081 Z1.3000 I0.6843 J-9.6177 F60.00
G1 X10.9652 Y19.3424 Z1.3000 F60.00
G1 X13.0158 Y19.3424 Z1.3000 F60.00
G1 X10.9753 Y17.3019 Z1.3000 F60.00
G2 X12.3311 Y16.6071 Z1.3000 I-2.2112 J-5.9851 F60.00
G1 X15.0664 Y19.3424 Z1.3000 F60.00
G1 X17.1170 Y19.3424 Z1.3000 F60.00
G1 X13.4511 Y15.6765 Z1.3000 F60.00
G2 X14.3472 Y14.5219 Z1.3000 I-4.8375 J-4.6795 F60.00
G1 X19.1676 Y19.3424 Z1.3000 F60.00
G1 X21.2182 Y19.3424 Z1.3000 F60.00
G1 X15.0312 Y13.1554 Z1.3000 F60.00
G2 X15.5808 Y11.6544 Z1.3000 I-30.8251 J-12.1383 F60.00
G1 X18.0795 Y14.1531 Z1.3000 F60.00
G2 X18.1335 Y15.4944 Z1.3000 I28.1250 J-0.4598 F60.00
G2 X18.4762 Y16.3641 Z1.3000 I1.4484 J-0.0684 F60.00
G2 X21.7666 Y17.8401 Z1.3000 I3.8640 J-4.2080 F60.00
G1 X23.2688 Y19.3424 Z1.3000 F60.00
G1 X25.3194 Y19.3424 Z1.3000 F60.00
G1 X23.7073 Y17.7302 Z1.3000 F60.00
G2 X25.2104 Y17.1828 Z1.3000 I-1.0538 J-5.2308 F60.00
G1 X27.3701 Y19.3424 Z1.3000 F60.00
G1 X29.4207 Y19.3424 Z1.3000 F60.00
G1 X26.3660 Y16.2878 Z1.3000 F60.00
G2 X27.1728 Y15.0440 Z1.3000 I-2.8532 J-2.7343 F60.00
G1 X28.1540 Y16.0251 Z1.3000 F60.00
G2 X28.4888 Y16.6687 Z1.3000 I1.1294 J-0.1787 F60.00
G2 X29.4676 Y17.3387 Z1.3000 I2.8419 J-3.1016 F60.00
G1 X31.4713 Y19.3424 Z1.3000 F60.00
G1 X33.5219 Y19.3424 Z1.3000 F60.00
G1 X32.1082 Y17.9287 Z1.3000 F60.00
G2 X33.8621 Y17.6320 Z1.3000 I-0.0597 J-5.6844 F60.00
G1 X35.5725 Y19.3424 Z1.3000 F60.00
G1 X37.6231 Y19.3424 Z1.3000 F60.00
G1 X35.2412 Y16.9605 Z1.3000 F60.00
G2 X36.3093 Y15.9780 Z1.3000 I-2.9286 J-4.2560 F60.00
G1 X39.6737 Y19.3424 Z1.3000 F60.00
G1 X41.7243 Y19.3424 Z1.3000 F60.00
G1 X37.0521 Y14.6702 Z1.3000 F60.00
G2 X37.3327 Y12.9002 Z1.3000 I-4.6991 J-1.6522 F60.00
G1 X38.4198 Y13.9873 Z1.3000 F60.00
G2 X41.8046 Y17.3720 Z1.3000 I5.7389 J-2.3542 F60.00
G1 X43.7749 Y19.3424 Z1.3000 F60.00
G1 X45.8255 Y19.3424 Z1.3000 F60.00
G1 X44.6194 Y18.1363 Z1.3000 F60.00
G2 X46.8550 Y18.3212 Z1.3000 I2.4421 J-15.9145 F60.00
G1 X47.8762 Y19.3424 Z1.3000 F60.00
G1 X49.9268 Y19.3424 Z1.3000 F60.00
G1 X48.8190 Y18.2347 Z1.3000 F60.00
G2 X50.6282 Y17.9933 Z1.3000 I-1.0692 J-14.9146 F60.00
G1 X51.9774 Y19.3424 Z1.3000 F60.00
G1 X54.0280 Y19.3424 Z1.3000 F60.00
G1 X52.2779 Y17.5923 Z1.3000 F60.00
G2 X53.7375 Y17.0013 Z1.3000 I-2.4071 J-8.0434 F60.00
G1 X55.7679 Y19.0317 Z1.3000 F60.00
G1 X55.7679 Y16.9811 Z1.3000 F60.00
G1 X54.8722 Y16.0854 Z1.3000 F60.00
G2 X54.9921 Y15.8513 Z1.3000 I-0.6184 J-0.4645 F60.00
G2 X55.2512 Y14.4138 Z1.3000 I-6.6407 J-1.9389 F60.00
G1 X55.7679 Y14.9305 Z1.3000 F60.00
G1 X55.7679 Y12.8799 Z1.3000 F60.00
G1 X55.4019 Y12.5139 Z1.3000 F60.00
G2 X55.4735 Y10.5349 Z1.3000 I-33.3482 J-2.1971 F60.00
G1 X55.7679 Y10.8293 Z1.3000 F60.00
G1 X55.7679 Y8.7787 Z1.3000 F60.00
G1 X55.5111 Y8.5219 Z1.3000 F60.00
G2 X55.5345 Y6.4946 Z1.3000 I-94.5080 J-2.1032 F60.00
G1 X55.7679 Y6.7281 Z1.3000 F60.00
G1 X55.7679 Y4.6775 Z1.3000 F60.00
G1 X55.5492 Y4.4588 Z1.3000 F60.00
G1 X55.5492 Y2.4082 Z1.3000 F60.00
G1 X55.7679 Y2.6268 Z1.3000 F60.00
G1 X55.7679 Y0.5762 Z1.3000 F60.00
G1 X55.5425 Y0.3508 Z1.3000 F60.00
G0 X55.5425 Y0.3508 Z9.0000
G0 X55.5437 Y0.3508 Z9.0000
G0 X55.5437 Y0.3508 Z8.3000
G1 X55.5437 Y0.3508 Z1.3000 F60.00
G3 X55.4647 Y11.0052 Z1.3000 I-366.6769 J2.6097 F60.00
G3 X55.1561 Y15.1595 Z1.3000 I-35.0232 J-0.5137 F60.00
G3 X54.2374 Y16.6982 Z1.3000 I-1.8839 J-0.0811 F60.00
G3 X50.9016 Y17.9411 Z1.3000 I-4.7469 J-7.6426 F60.00
G3 X43.0598 Y17.8106 Z1.3000 I-3.6396 J-16.9739 F60.00
G3 X39.3805 Y15.5809 Z1.3000 I1.6125 J-6.8112 F60.00
G3 X37.7535 Y8.8572 Z1.3000 I7.1306 J-5.2842 F60.00
G3 X39.8668 Y4.5355 Z1.3000 I7.5316 J1.0055 F60.00
G3 X39.6878 Y4.2742 Z1.3000 I25.3069 J-17.5321 F60.00
G3 X39.1066 Y-0.0494 Z1.3000 I3.3037 J-2.6450 F60.00
G3 X43.6769 Y-2.7975 Z1.3000 I4.5065 J2.3202 F60.00
G3 X45.4162 Y-2.4760 Z1.3000 I0.0484 J4.6035 F60.00
G3 X47.1004 Y-0.5933 Z1.3000 I-4.7265 J5.9229 F60.00
G3 X49.1944 Y-2.1414 Z1.3000 I3.8566 J3.0265 F60.00
G3 X54.8950 Y-1.2304 Z1.3000 I1.9903 J5.8374 F60.00
G3 X55.5408 Y-0.0304 Z1.3000 I-0.8042 J1.2065 F60.00
G3 X55.5437 Y0.3508 Z1.3000 I-366.6740 J2.9910 F60.00
G0 X55.5437 Y0.3508 Z9.0000
G0 X55.7679 Y-3.5250 Z9.0000
G0 X55.7679 Y-3.5250 Z8.3000
G1 X55.7679 Y-3.5250 Z1.3000 F60.00
G1 X55.7679 Y-1.4744 Z1.3000 F60.00
G1 X53.7173 Y-3.5250 Z1.3000 F60.00
G1 X51.6667 Y-3.5250 Z1.3000 F60.00
G1 X53.0209 Y-2.1707 Z1.3000 F60.00
G2 X50.6759 Y-2.4652 Z1.3000 I-1.8871 J5.5438 F60.00
G1 X49.6161 Y-3.5250 Z1.3000 F60.00
G1 X47.5655 Y-3.5250 Z1.3000 F60.00
G1 X49.0226 Y-2.0679 Z1.3000 F60.00
G2 X47.7628 Y-1.2771 Z1.3000 I1.7298 J4.1546 F60.00
G1 X45.5149 Y-3.5250 Z1.3000 F60.00
G1 X43.4642 Y-3.5250 Z1.3000 F60.00
G1 X44.2179 Y-2.7714 Z1.3000 F60.00
G2 X42.3219 Y-2.6167 Z1.3000 I-0.5151 J5.3834 F60.00
G1 X41.4136 Y-3.5250 Z1.3000 F60.00
G1 X39.3630 Y-3.5250 Z1.3000 F60.00
G1 X40.8870 Y-2.0010 Z1.3000 F60.00
G2 X39.7730 Y-1.0644 Z1.3000 I2.4347 J4.0268 F60.00
G1 X37.3124 Y-3.5250 Z1.3000 F60.00
G1 X35.2618 Y-3.5250 Z1.3000 F60.00
G1 X38.9976 Y0.2108 Z1.3000 F60.00
G2 X38.7817 Y2.0455 Z1.3000 I3.6800 J1.3631 F60.00
G1 X37.3074 Y0.5712 Z1.3000 F60.00
G3 X37.3198 Y2.6342 Z1.3000 I-217.8507 J2.3436 F60.00
G1 X39.5468 Y4.8612 Z1.3000 F60.00
G2 X38.6984 Y6.0634 Z1.3000 I4.3126 J3.9439 F60.00
G1 X37.3274 Y4.6925 Z1.3000 F60.00
G3 X37.3327 Y6.7483 Z1.3000 I-280.0193 J1.7443 F60.00
G1 X38.0768 Y7.4925 Z1.3000 F60.00
G2 X37.7137 Y9.1799 Z1.3000 I7.4198 J2.4795 F60.00
G1 X37.3327 Y8.7989 Z1.3000 F60.00
G1 X37.3327 Y10.8495 Z1.3000 F60.00
G1 X37.6948 Y11.2117 Z1.3000 F60.00
G2 X38.4198 Y13.9873 Z1.3000 I8.9141 J-0.8459 F60.00
G1 X37.3327 Y12.9002 Z1.3000 F60.00
G0 X37.3327 Y12.9002 Z9.0000
G0 X27.9824 Y13.8029 Z9.0000
G0 X27.9824 Y13.8029 Z8.3000
G1 X27.9824 Y13.8029 Z1.3000 F60.00
G3 X27.9533 Y11.8721 Z1.3000 I47.6380 J-1.6821 F60.00
G1 X27.5476 Y11.8721 Z1.3000 F60.00
G3 X27.4964 Y13.3169 Z1.3000 I-17.3888 J0.1075 F60.00
G1 X27.9824 Y13.8029 Z1.3000 F60.00
G2 X28.1540 Y16.0251 Z1.3000 I13.5724 J0.0697 F60.00
G1 X27.1728 Y15.0440 Z1.3000 F60.00
G1 X27.1728 Y15.0440 Z0.4000 F60.00
G1 X28.1540 Y16.0251 Z0.4000 F60.00
G3 X27.9824 Y13.8029 Z0.4000 I13.4009 J-2.1525 F60.00
G1 X27.4964 Y13.3169 Z0.4000 F60.00
G2 X27.5476 Y11.8721 Z0.4000 I-17.3376 J-1.3373 F60.00
G1 X27.9533 Y11.8721 Z0.4000 F60.00
G2 X27.9824 Y13.8029 Z0.4000 I47.6670 J0.2487 F60.00
G0 X27.9824 Y13.8029 Z9.0000
G0 X27.9833 Y13.8028 Z9.0000
G0 X27.9833 Y13.8028 Z7.4000
G1 X27.9833 Y13.8028 Z0.4000 F60.00
G3 X27.9533 Y11.8721 Z0.4000 I40.8759 J-1.6006 F60.00
G1 X27.5476 Y11.8721 Z0.4000 F60.00
G3 X27.4655 Y13.8432 Z0.4000 I-23.6012 J0.0040 F60.00
G3 X25.9333 Y16.6971 Z0.4000 I-4.0661 J-0.3447 F60.00
G3 X19.0202 Y16.8193 Z0.4000 I-3.5414 J-4.7417 F60.00
G3 X18.1335 Y15.4944 Z0.4000 I0.7731 J-1.4766 F60.00
G3 X18.2577 Y2.3233 Z0.4000 I152.3034 J-5.1501 F60.00
G3 X14.9997 Y13.2408 Z0.4000 I-83.6675 J-19.0232 F60.00
G3 X13.5039 Y15.6190 Z0.4000 I-7.1870 J-2.8607 F60.00
G3 X8.1867 Y17.7951 Z0.4000 I-5.1448 J-4.9870 F60.00
G3 X3.7602 Y17.0635 Z0.4000 I0.0457 J-14.0338 F60.00
G3 X3.0156 Y16.5580 Z0.4000 I0.4020 J-1.3932 F60.00
G3 X2.5461 Y15.6557 Z0.4000 I4.0383 J-2.6747 F60.00
G3 X-0.7220 Y5.6569 Z0.4000 I61.7950 J-25.7307 F60.00
G3 X-1.0180 Y1.5567 Z0.4000 I9.9334 J-2.7779 F60.00
G3 X0.3440 Y-1.2376 Z0.4000 I4.9297 J0.6736 F60.00
G3 X3.8727 Y-2.5668 Z0.4000 I3.3154 J3.4531 F60.00
G3 X6.3852 Y-2.0524 Z0.4000 I-0.2599 J7.6626 F60.00
G3 X7.3297 Y-1.0851 Z0.4000 I-0.4455 J1.3799 F60.00
G2 X7.7609 Y0.3457 Z0.4000 I18.4963 J-4.7936 F60.00
G1 X9.1559 Y0.3457 Z0.4000 F60.00
G3 X11.9922 Y-2.2666 Z0.4000 I4.4035 J1.9351 F60.00
G3 X16.8062 Y-1.4839 Z0.4000 I1.5822 J5.4633 F60.00
G3 X18.4573 Y0.9313 Z0.4000 I-1.9358 J3.0954 F60.00
G3 X22.5299 Y-2.4103 Z0.4000 I4.4027 J1.2133 F60.00
G3 X26.8115 Y-1.5645 Z0.4000 I0.8682 J6.8652 F60.00
G3 X27.5691 Y-0.2682 Z0.4000 I-0.7894 J1.3308 F60.00
G1 X27.5691 Y3.5806 Z0.4000 F60.00
G1 X27.9211 Y3.5806 Z0.4000 F60.00
G3 X28.0629 Y1.2625 Z0.4000 I27.8344 J0.5399 F60.00
G3 X30.5239 Y-1.9262 Z0.4000 I3.8578 J0.4333 F60.00
G3 X36.0808 Y-1.8112 Z0.4000 I2.6358 J6.9496 F60.00
G3 X37.2154 Y-0.6285 Z0.4000 I-0.8303 J1.9321 F60.00
G3 X37.3068 Y0.5396 Z0.4000 I-7.1143 J1.1443 F60.00
G3 X37.3327 Y13.0167 Z0.4000 I-854.2885 J8.0128 F60.00
G3 X36.0622 Y16.2603 Z0.4000 I-4.5810 J0.0763 F60.00
G3 X29.0286 Y17.0880 Z0.4000 I-4.0418 J-4.0480 F60.00
G3 X28.1131 Y15.8289 Z0.4000 I0.7233 J-1.4883 F60.00
G3 X27.9833 Y13.8028 Z0.4000 I40.7462 J-3.6267 F60.00
G0 X27.9833 Y13.8028 Z9.0000
G0 X27.9833 Y19.3424 Z9.0000
G0 X27.9833 Y19.3424 Z7.4000
G1 X27.9833 Y19.3424 Z0.4000 F60.00
G1 X55.7679 Y19.3424 Z0.4000 F60.00
G1 X55.7679 Y-3.5250 Z0.4000 F60.00
G1 X-18.4298 Y-3.5250 Z0.4000 F60.00
G1 X-18.4298 Y19.3424 Z0.4000 F60.00
G1 X27.9833 Y19.3424 Z0.4000 F60.00
G0 X27.9833 Y19.3424 Z9.0000
G0 X37.3327 Y12.9002 Z9.0000
G0 X37.3327 Y12.9002 Z7.4000
G1 X37.3327 Y12.9002 Z0.4000 F60.00
G1 X38.4198 Y13.9873 Z0.4000 F60.00
G3 X37.6948 Y11.2117 Z0.4000 I8.1892 J-3.6214 F60.00
G1 X37.3327 Y10.8495 Z0.4000 F60.00
G1 X37.3327 Y8.7989 Z0.4000 F60.00
G1 X37.7137 Y9.1799 Z0.4000 F60.00
G3 X38.0768 Y7.4925 Z0.4000 I7.7829 J0.7920 F60.00
G1 X37.3327 Y6.7483 Z0.4000 F60.00
G2 X37.3274 Y4.6925 Z0.4000 I-280.0245 J-0.3115 F60.00
G1 X38.6984 Y6.0634 Z0.4000 F60.00
G3 X39.5468 Y4.8612 Z0.4000 I5.1610 J2.7417 F60.00
G1 X37.3198 Y2.6342 Z0.4000 F60.00
G2 X37.3074 Y0.5712 Z0.4000 I-217.8631 J0.2806 F60.00
G1 X38.7817 Y2.0455 Z0.4000 F60.00
G3 X38.9976 Y0.2108 Z0.4000 I3.8959 J-0.4716 F60.00
G1 X35.2618 Y-3.5250 Z0.4000 F60.00
G1 X37.3124 Y-3.5250 Z0.4000 F60.00
G1 X39.7730 Y-1.0644 Z0.4000 F60.00
G3 X40.8870 Y-2.0010 Z0.4000 I3.5487 J3.0903 F60.00
G1 X39.3630 Y-3.5250 Z0.4000 F60.00
G1 X41.4136 Y-3.5250 Z0.4000 F60.00
G1 X42.3219 Y-2.6167 Z0.4000 F60.00
G3 X44.2179 Y-2.7714 Z0.4000 I1.3808 J5.2287 F60.00
G1 X43.4642 Y-3.5250 Z0.4000 F60.00
G1 X45.5149 Y-3.5250 Z0.4000 F60.00
G1 X47.7628 Y-1.2771 Z0.4000 F60.00
G3 X49.0226 Y-2.0679 Z0.4000 I2.9896 J3.3638 F60.00
G1 X47.5655 Y-3.5250 Z0.4000 F60.00
G1 X49.6161 Y-3.5250 Z0.4000 F60.00
G1 X50.6759 Y-2.4652 Z0.4000 F60.00
G3 X53.0209 Y-2.1707 Z0.4000 I0.4580 J5.8382 F60.00
G1 X51.6667 Y-3.5250 Z0.4000 F60.00
G1 X53.7173 Y-3.5250 Z0.4000 F60.00
G1 X55.7679 Y-1.4744 Z0.4000 F60.00
G1 X55.7679 Y-3.5250 Z0.4000 F60.00
G0 X55.7679 Y-3.5250 Z9.0000
G0 X54.4896 Y-1.5111 Z9.0000
G0 X54.4896 Y-1.5111 Z7.4000
G1 X54.4896 Y-1.5111 Z0.4000 F60.00
G3 X54.8950 Y-1.2304 Z0.4000 I-3.3050 J5.2070 F60.00
G3 X55.5408 Y-0.0304 Z0.4000 I-0.8042 J1.2065 F60.00
G3 X55.4647 Y11.0052 Z0.4000 I-366.6740 J2.9910 F60.00
G3 X55.1561 Y15.1595 Z0.4000 I-35.0232 J-0.5137 F60.00
G3 X54.2374 Y16.6982 Z0.4000 I-1.8839 J-0.0811 F60.00
G3 X50.9016 Y17.9411 Z0.4000 I-4.7469 J-7.6426 F60.00
G3 X43.0598 Y17.8106 Z0.4000 I-3.6396 J-16.9739 F60.00
G3 X39.3805 Y15.5809 Z0.4000 I1.6125 J-6.8112 F60.00
G3 X37.7535 Y8.8572 Z0.4000 I7.1306 J-5.2842 F60.00
G3 X39.8668 Y4.5355 Z0.4000 I7.5316 J1.0055 F60.00
G3 X39.6878 Y4.2742 Z0.4000 I25.3069 J-17.5321 F60.00
G3 X39.1066 Y-0.0494 Z0.4000 I3.3037 J-2.6450 F60.00
G3 X43.6769 Y-2.7975 Z0.4000 I4.5065 J2.3202 F60.00
G3 X45.4162 Y-2.4760 Z0.4000 I0.0484 J4.6035 F60.00
G3 X47.1004 Y-0.5933 Z0.4000 I-4.7265 J5.9229 F60.00
G3 X49.1944 Y-2.1414 Z0.4000 I3.8566 J3.0265 F60.00
G3 X54.4896 Y-1.5111 Z0.4000 I1.9903 J5.8374 F60.00
G0 X54.4896 Y-1.5111 Z9.0000
G0 X55.5425 Y0.3508 Z9.0000
G0 X55.5425 Y0.3508 Z7.4000
G1 X55.5425 Y0.3508 Z0.4000 F60.00
G1 X55.7679 Y0.5762 Z0.4000 F60.00
G1 X55.7679 Y2.6268 Z0.4000 F60.00
G1 X55.5492 Y2.4082 Z0.4000 F60.00
G1 X55.5492 Y4.4588 Z0.4000 F60.00
G1 X55.7679 Y4.6775 Z0.4000 F60.00
G1 X55.7679 Y6.7281 Z0.4000 F60.00
G1 X55.5345 Y6.4946 Z0.4000 F60.00
G3 X55.5111 Y8.5219 Z0.4000 I-94.5314 J-0.0759 F60.00
G1 X55.7679 Y8.7787 Z0.4000 F60.00
G1 X55.7679 Y10.8293 Z0.4000 F60.00
G1 X55.4735 Y10.5349 Z0.4000 F60.00
G3 X55.4019 Y12.5139 Z0.4000 I-33.4198 J-0.2181 F60.00
G1 X55.7679 Y12.8799 Z0.4000 F60.00
G1 X55.7679 Y14.9305 Z0.4000 F60.00
G1 X55.2512 Y14.4138 Z0.4000 F60.00
G3 X54.9921 Y15.8513 Z0.4000 I-6.8998 J-0.5014 F60.00
G3 X54.8722 Y16.0854 Z0.4000 I-0.7384 J-0.2304 F60.00
G1 X55.7679 Y16.9811 Z0.4000 F60.00
G1 X55.7679 Y19.0317 Z0.4000 F60.00
G1 X53.7375 Y17.0013 Z0.4000 F60.00
G3 X52.2779 Y17.5923 Z0.4000 I-3.8667 J-7.4524 F60.00
G1 X54.0280 Y19.3424 Z0.4000 F60.00
G1 X51.9774 Y19.3424 Z0.4000 F60.00
G1 X50.6282 Y17.9933 Z0.4000 F60.00
G3 X48.8190 Y18.2347 Z0.4000 I-2.8784 J-14.6732 F60.00
G1 X49.9268 Y19.3424 Z0.4000 F60.00
G1 X47.8762 Y19.3424 Z0.4000 F60.00
G1 X46.8550 Y18.3212 Z0.4000 F60.00
G3 X44.6194 Y18.1363 Z0.4000 I0.2065 J-16.0995 F60.00
G1 X45.8255 Y19.3424 Z0.4000 F60.00
G1 X43.7749 Y19.3424 Z0.4000 F60.00
G1 X41.8046 Y17.3720 Z0.4000 F60.00
G3 X38.4198 Y13.9873 Z0.4000 I2.3542 J-5.7389 F60.00
G1 X37.3327 Y12.9002 Z0.4000 F60.00
G3 X37.0521 Y14.6702 Z0.4000 I-4.9797 J0.1178 F60.00
G1 X41.7243 Y19.3424 Z0.4000 F60.00
G1 X39.6737 Y19.3424 Z0.4000 F60.00
G1 X36.3093 Y15.9780 Z0.4000 F60.00
G3 X35.2412 Y16.9605 Z0.4000 I-3.9968 J-3.2736 F60.00
G1 X37.6231 Y19.3424 Z0.4000 F60.00
G1 X35.5725 Y19.3424 Z0.4000 F60.00
G1 X33.8621 Y17.6320 Z0.4000 F60.00
G3 X32.1082 Y17.9287 Z0.4000 I-1.8136 J-5.3877 F60.00
G1 X33.5219 Y19.3424 Z0.4000 F60.00
G1 X31.4713 Y19.3424 Z0.4000 F60.00
G1 X29.4676 Y17.3387 Z0.4000 F60.00
G3 X28.4888 Y16.6687 Z0.4000 I1.8631 J-3.7716 F60.00
G3 X28.1540 Y16.0251 Z0.4000 I0.7946 J-0.8223 F60.00
G1 X27.1728 Y15.0440 Z0.4000 F60.00
G3 X26.3660 Y16.2878 Z0.4000 I-3.6600 J-1.4905 F60.00
G1 X29.4207 Y19.3424 Z0.4000 F60.00
G1 X27.3701 Y19.3424 Z0.4000 F60.00
G1 X25.2104 Y17.1828 Z0.4000 F60.00
G3 X23.7073 Y17.7302 Z0.4000 I-2.5570 J-4.6833 F60.00
G1 X25.3194 Y19.3424 Z0.4000 F60.00
G1 X23.2688 Y19.3424 Z0.4000 F60.00
G1 X21.7666 Y17.8401 Z0.4000 F60.00
G3 X18.4762 Y16.3641 Z0.4000 I0.5736 J-5.6840 F60.00
G3 X18.1335 Y15.4944 Z0.4000 I1.1057 J-0.9380 F60.00
G3 X18.0795 Y14.1531 Z0.4000 I28.0710 J-1.8011 F60.00
G1 X15.5808 Y11.6544 Z0.4000 F60.00
G3 X15.0312 Y13.1554 Z0.4000 I-31.3747 J-10.6373 F60.00
G1 X21.2182 Y19.3424 Z0.4000 F60.00
G1 X19.1676 Y19.3424 Z0.4000 F60.00
G1 X14.3472 Y14.5219 Z0.4000 F60.00
G3 X13.4511 Y15.6765 Z0.4000 I-5.7336 J-3.5249 F60.00
G1 X17.1170 Y19.3424 Z0.4000 F60.00
G1 X15.0664 Y19.3424 Z0.4000 F60.00
G1 X12.3311 Y16.6071 Z0.4000 F60.00
G3 X10.9753 Y17.3019 Z0.4000 I-3.5670 J-5.2903 F60.00
G1 X13.0158 Y19.3424 Z0.4000 F60.00
G1 X10.9652 Y19.3424 Z0.4000 F60.00
G1 X9.3308 Y17.7081 Z0.4000 F60.00
G3 X7.3443 Y17.7721 Z0.4000 I-1.3023 J-9.5536 F60.00
G1 X8.9146 Y19.3424 Z0.4000 F60.00
G1 X6.8640 Y19.3424 Z0.4000 F60.00
G1 X4.8953 Y17.3738 Z0.4000 F60.00
G3 X3.4781 Y16.9489 Z0.4000 I2.4591 J-10.7784 F60.00
G3 X2.8555 Y16.2990 Z0.4000 I0.6841 J-1.2785 F60.00
G3 X2.0888 Y14.5672 Z0.4000 I14.0461 J-7.2545 F60.00
G1 X-3.0188 Y9.4597 Z0.4000 F60.00
G3 X-4.0186 Y10.5104 Z0.4000 I-4.7787 J-3.5465 F60.00
G1 X4.8134 Y19.3424 Z0.4000 F60.00
G1 X2.7627 Y19.3424 Z0.4000 F60.00
G1 X-3.0859 Y13.4938 Z0.4000 F60.00
G3 X-3.0287 Y15.6016 Z0.4000 I-5.0951 J1.1929 F60.00
G1 X0.7121 Y19.3424 Z0.4000 F60.00
G1 X-1.3385 Y19.3424 Z0.4000 F60.00
G1 X-3.5593 Y17.1216 Z0.4000 F60.00
G3 X-4.9212 Y17.8103 Z0.4000 I-1.2583 J-0.7974 F60.00
G1 X-3.3891 Y19.3424 Z0.4000 F60.00
G1 X-5.4397 Y19.3424 Z0.4000 F60.00
G1 X-6.8908 Y17.8913 Z0.4000 F60.00
G3 X-8.8904 Y17.9423 Z0.4000 I-2.4491 J-56.7485 F60.00
G1 X-7.4903 Y19.3424 Z0.4000 F60.00
G1 X-9.5409 Y19.3424 Z0.4000 F60.00
G1 X-10.9216 Y17.9618 Z0.4000 F60.00
G3 X-12.9835 Y17.9505 Z0.4000 I-0.7637 J-48.8403 F60.00
G1 X-11.5915 Y19.3424 Z0.4000 F60.00
G1 X-13.6421 Y19.3424 Z0.4000 F60.00
G1 X-15.0940 Y17.8906 Z0.4000 F60.00
G3 X-16.8362 Y17.7336 Z0.4000 I0.3637 J-13.7845 F60.00
G3 X-17.8365 Y16.4982 Z0.4000 I0.4424 J-1.3809 F60.00
G1 X-17.9879 Y14.9967 Z0.4000 F60.00
G1 X-18.4298 Y14.5548 Z0.4000 F60.00
G1 X-18.4298 Y16.6054 Z0.4000 F60.00
G1 X-15.6927 Y19.3424 Z0.4000 F60.00
G1 X-17.7434 Y19.3424 Z0.4000 F60.00
G1 X-18.4298 Y19.3424 Z0.4000 F60.00
G1 X-18.4298 Y18.6560 Z0.4000 F60.00
G1 X-17.7434 Y19.3424 Z0.4000 F60.00
G0 X-17.7434 Y19.3424 Z9.0000
G0 X-16.9904 Y17.6743 Z9.0000
G0 X-16.9904 Y17.6743 Z7.4000
G1 X-16.9904 Y17.6743 Z0.4000 F60.00
G3 X-17.8365 Y16.4982 Z0.4000 I0.5966 J-1.3216 F60.00
G3 X-18.2670 Y6.4418 Z0.4000 I64.4796 J-7.7974 F60.00
G3 X-17.8064 Y2.9122 Z0.4000 I16.9531 J0.4171 F60.00
G3 X-14.0813 Y-1.7867 Z0.4000 I6.9826 J1.7095 F60.00
G3 X-10.0182 Y-2.6138 Z0.4000 I3.8528 J8.5335 F60.00
G3 X-7.9119 Y-2.4300 Z0.4000 I-0.0252 J12.4546 F60.00
G3 X-4.2194 Y-0.8562 Z0.4000 I-1.0038 J7.4735 F60.00
G3 X-1.6548 Y5.1776 Z0.4000 I-5.5665 J5.9279 F60.00
G3 X-4.6420 Y10.9768 Z0.4000 I-6.8092 J0.1614 F60.00
G3 X-3.7253 Y11.9414 Z0.4000 I-2.2888 J3.0933 F60.00
G3 X-3.4149 Y16.8806 Z0.4000 I-4.4853 J2.7612 F60.00
G3 X-4.7204 Y17.8013 Z0.4000 I-1.4121 J-0.6164 F60.00
G1 X-6.4137 Y17.8771 Z0.4000 F60.00
G3 X-16.5068 Y17.7983 Z0.4000 I-4.3225 J-92.8041 F60.00
G3 X-16.9904 Y17.6743 Z0.4000 I0.1130 J-1.4456 F60.00
G0 X-16.9904 Y17.6743 Z9.0000
G0 X-18.4298 Y14.5548 Z9.0000
G0 X-18.4298 Y14.5548 Z7.4000
G1 X-18.4298 Y14.5548 Z0.4000 F60.00
G1 X-17.9879 Y14.9967 Z0.4000 F60.00
G3 X-18.1732 Y12.7608 Z0.4000 I46.7930 J-5.0035 F60.00
G1 X-18.4298 Y12.5042 Z0.4000 F60.00
G1 X-18.4298 Y10.4536 Z0.4000 F60.00
G1 X-18.2766 Y10.6067 Z0.4000 F60.00
G3 X-18.3129 Y8.5198 Z0.4000 I39.4025 J-1.7290 F60.00
G1 X-18.4298 Y8.4030 Z0.4000 F60.00
G1 X-18.4298 Y6.3523 Z0.4000 F60.00
G1 X-18.2690 Y6.5131 Z0.4000 F60.00
G3 X-18.1231 Y4.6083 Z0.4000 I31.1625 J1.4286 F60.00
G1 X-18.4298 Y4.3017 Z0.4000 F60.00
G1 X-18.4298 Y2.2511 Z0.4000 F60.00
G1 X-17.7991 Y2.8818 Z0.4000 F60.00
G3 X-17.2383 Y1.3920 Z0.4000 I7.8540 J2.1056 F60.00
G1 X-18.4298 Y0.2005 Z0.4000 F60.00
G1 X-18.4298 Y-1.8501 Z0.4000 F60.00
G1 X-16.4400 Y0.1397 Z0.4000 F60.00
G3 X-15.4223 Y-0.8932 Z0.4000 I5.2731 J4.1778 F60.00
G1 X-18.0540 Y-3.5250 Z0.4000 F60.00
G1 X-16.0034 Y-3.5250 Z0.4000 F60.00
G1 X-14.1991 Y-1.7206 Z0.4000 F60.00
G3 X-12.7198 Y-2.2920 Z0.4000 I3.0210 J5.6204 F60.00
G1 X-13.9528 Y-3.5250 Z0.4000 F60.00
G1 X-11.9022 Y-3.5250 Z0.4000 F60.00
G1 X-10.9511 Y-2.5738 Z0.4000 F60.00
G3 X-8.8823 Y-2.5557 Z0.4000 I0.9381 J10.9985 F60.00
G1 X-9.8516 Y-3.5250 Z0.4000 F60.00
G1 X-7.8010 Y-3.5250 Z0.4000 F60.00
G1 X-6.2853 Y-2.0093 Z0.4000 F60.00
G0 X-6.2853 Y-2.0093 Z9.0000
G0 X-3.0188 Y9.4597 Z9.0000
G0 X-3.0188 Y9.4597 Z7.4000
G1 X-3.0188 Y9.4597 Z0.4000 F60.00
G1 X2.0888 Y14.5672 Z0.4000 F60.00
G3 X0.9305 Y11.3583 Z0.4000 I47.5333 J-18.9715 F60.00
G1 X-2.2706 Y8.1573 Z0.4000 F60.00
G2 X-1.7900 Y6.5872 Z0.4000 I-5.8749 J-2.6566 F60.00
G1 X-0.0083 Y8.3689 Z0.4000 F60.00
G3 X-0.7368 Y5.5898 Z0.4000 I44.8375 J-13.2393 F60.00
G1 X-1.6719 Y4.6547 Z0.4000 F60.00
G2 X-2.2549 Y2.0211 Z0.4000 I-8.8023 J0.5673 F60.00
G1 X-1.1095 Y3.1665 Z0.4000 F60.00
G3 X-0.9582 Y1.2672 Z0.4000 I7.1779 J-0.3840 F60.00
G1 X-5.7504 Y-3.5250 Z0.4000 F60.00
G1 X-3.6998 Y-3.5250 Z0.4000 F60.00
G1 X-0.4095 Y-0.2347 Z0.4000 F60.00
G3 X0.4952 Y-1.3806 Z0.4000 I3.9438 J2.1835 F60.00
G1 X-1.6492 Y-3.5250 Z0.4000 F60.00
G1 X0.4014 Y-3.5250 Z0.4000 F60.00
G1 X1.7515 Y-2.1749 Z0.4000 F60.00
G3 X3.4195 Y-2.5575 Z0.4000 I1.9712 J4.7670 F60.00
G1 X2.4521 Y-3.5250 Z0.4000 F60.00
G1 X4.5027 Y-3.5250 Z0.4000 F60.00
G1 X5.7798 Y-2.2479 Z0.4000 F60.00
G0 X5.7798 Y-2.2479 Z9.0000
G0 X8.3734 Y0.3457 Z9.0000
G0 X8.3734 Y0.3457 Z7.4000
G1 X8.3734 Y0.3457 Z0.4000 F60.00
G1 X7.7609 Y0.3457 Z0.4000 F60.00
G3 X7.4931 Y-0.5345 Z0.4000 I11.1124 J-3.8616 F60.00
G1 X8.3734 Y0.3457 Z0.4000 F60.00
G1 X9.1559 Y0.3457 Z0.4000 F60.00
G3 X9.6116 Y-0.4666 Z0.4000 I4.2446 J1.8470 F60.00
G1 X6.5533 Y-3.5250 Z0.4000 F60.00
G1 X8.6039 Y-3.5250 Z0.4000 F60.00
G1 X10.6111 Y-1.5178 Z0.4000 F60.00
G3 X11.9346 Y-2.2449 Z0.4000 I2.7237 J3.3895 F60.00
G1 X10.6545 Y-3.5250 Z0.4000 F60.00
G1 X12.7051 Y-3.5250 Z0.4000 F60.00
G1 X13.7249 Y-2.5052 Z0.4000 F60.00
G3 X16.7795 Y-1.5012 Z0.4000 I-0.2575 J5.9321 F60.00
G1 X14.7557 Y-3.5250 Z0.4000 F60.00
G1 X16.8063 Y-3.5250 Z0.4000 F60.00
G1 X19.4444 Y-0.8869 Z0.4000 F60.00
G3 X20.5784 Y-1.8035 Z0.4000 I3.2604 J2.8739 F60.00
G1 X18.8569 Y-3.5250 Z0.4000 F60.00
G1 X20.9075 Y-3.5250 Z0.4000 F60.00
G1 X22.0870 Y-2.3455 Z0.4000 F60.00
G3 X24.0643 Y-2.4189 Z0.4000 I1.2651 J7.4168 F60.00
G1 X22.9582 Y-3.5250 Z0.4000 F60.00
G1 X25.0088 Y-3.5250 Z0.4000 F60.00
G1 X28.4625 Y-0.0712 Z0.4000 F60.00
G3 X29.3691 Y-1.2152 Z0.4000 I3.1596 J1.5727 F60.00
G1 X27.0594 Y-3.5250 Z0.4000 F60.00
G1 X29.1100 Y-3.5250 Z0.4000 F60.00
G1 X30.6549 Y-1.9801 Z0.4000 F60.00
G3 X32.3224 Y-2.3632 Z0.4000 I2.1018 J5.3279 F60.00
G1 X31.1606 Y-3.5250 Z0.4000 F60.00
G1 X33.2112 Y-3.5250 Z0.4000 F60.00
G1 X34.4548 Y-2.2814 Z0.4000 F60.00
G0 X34.4548 Y-2.2814 Z9.0000
G0 X27.5691 Y1.0859 Z9.0000
G0 X27.5691 Y1.0859 Z7.4000
G1 X27.5691 Y1.0859 Z0.4000 F60.00
G1 X28.0338 Y1.5507 Z0.4000 F60.00
G2 X27.9233 Y3.4908 Z0.4000 I26.9973 J2.5103 F60.00
G1 X27.5691 Y3.1365 Z0.4000 F60.00
G1 X27.5691 Y3.5806 Z0.4000 F60.00
G1 X27.9211 Y3.5806 Z0.4000 F60.00
G1 X27.9233 Y3.4908 Z0.4000 F60.00
G0 X27.9233 Y3.4908 Z9.0000
G0 X18.1859 Y4.0064 Z9.0000
G0 X18.1859 Y4.0064 Z7.4000
G1 X18.1859 Y4.0064 Z0.4000 F60.00
G3 X18.2577 Y2.3233 Z0.4000 I53.3984 J1.4350 F60.00
G3 X17.9270 Y3.7475 Z0.4000 I-24.0152 J-4.8265 F60.00
G1 X18.1859 Y4.0064 Z0.4000 F60.00
G2 X18.1261 Y5.9972 Z0.4000 I126.0495 J4.7826 F60.00
G1 X17.5079 Y5.3791 Z0.4000 F60.00
G3 X17.0562 Y6.9779 Z0.4000 I-30.1902 J-7.6678 F60.00
G1 X18.0796 Y8.0014 Z0.4000 F60.00
G2 X18.0566 Y10.0289 Z0.4000 I74.6847 J1.8635 F60.00
G1 X16.5881 Y8.5605 Z0.4000 F60.00
G3 X16.1023 Y10.1252 Z0.4000 I-26.1046 J-7.2476 F60.00
G1 X18.0550 Y12.0780 Z0.4000 F60.00
G2 X18.0795 Y14.1531 Z0.4000 I64.5836 J0.2748 F60.00
G1 X15.5808 Y11.6544 Z0.4000 F60.00
G0 X15.5808 Y11.6544 Z9.0000
G0 X18.4573 Y0.9313 Z9.0000
G0 X18.4573 Y0.9313 Z7.4000
G1 X18.4573 Y0.9313 Z0.4000 F60.00
G3 X18.6493 Y0.3686 Z0.4000 I3.2615 J0.7987 F60.00
G1 X17.9976 Y-0.2831 Z0.4000 F60.00
G3 X18.4573 Y0.9313 Z0.4000 I-2.3852 J1.5971 F60.00
G0 X18.4573 Y0.9313 Z9.0000
G0 X18.4580 Y0.9383 Z9.0000
G0 X18.4580 Y0.9383 Z7.0000
G1 X18.4580 Y0.9383 Z0.0000 F60.00
G3 X18.6505 Y0.3698 Z0.0000 I2.8624 J0.6522 F60.00
G1 X17.9966 Y-0.2841 Z0.0000 F60.00
G3 X18.4580 Y0.9383 Z0.0000 I-2.3690 J1.5926 F60.00
G1 X18.4580 Y0.9383 Z0.0000 F60.00
G3 X22.5661 Y-2.4134 Z0.0000 I4.4015 J1.2013 F60.00
G3 X26.8015 Y-1.5721 Z0.0000 I0.8366 J6.8702 F60.00
G3 X27.5691 Y-0.2682 Z0.0000 I-0.9195 J1.4192 F60.00
G1 X27.5691 Y3.5806 Z0.0000 F60.00
G1 X27.9211 Y3.5806 Z0.0000 F60.00
G3 X28.0629 Y1.2625 Z0.0000 I27.8344 J0.5399 F60.00
G3 X28.3410 Y0.1788 Z0.0000 I4.2957 J0.5247 F60.00
G3 X31.4819 Y-2.2360 Z0.0000 I3.9080 J1.8329 F60.00
G3 X36.1803 Y-1.7636 Z0.0000 I1.6070 J7.6179 F60.00
G3 X37.2159 Y-0.6265 Z0.0000 I-0.8987 J1.8587 F60.00
G3 X37.3067 Y0.5380 Z0.0000 I-6.9738 J1.1295 F60.00
G3 X37.3327 Y13.0167 Z0.0000 I-850.4695 J8.0088 F60.00
G3 X36.0612 Y16.2613 Z0.0000 I-4.5812 J0.0762 F60.00
G3 X29.0261 Y17.0864 Z0.0000 I-4.0408 J-4.0490 F60.00
G3 X28.1131 Y15.8289 Z0.0000 I0.7241 J-1.4860 F60.00
G3 X27.9533 Y11.8721 Z0.0000 I40.7462 J-3.6267 F60.00
G1 X27.5476 Y11.8721 Z0.0000 F60.00
G3 X27.4655 Y13.8432 Z0.0000 I-23.6012 J0.0040 F60.00
G3 X25.9364 Y16.6946 Z0.0000 I-4.0660 J-0.3447 F60.00
G3 X19.0238 Y16.8218 Z0.0000 I-3.5447 J-4.7386 F60.00
G3 X18.1336 Y15.4959 Z0.0000 I0.7725 J-1.4804 F60.00
G3 X18.2577 Y2.3240 Z0.0000 I152.2861 J-5.1519 F60.00
G3 X14.9997 Y13.2408 Z0.0000 I-83.6691 J-19.0254 F60.00
G3 X13.5009 Y15.6224 Z0.0000 I-7.1706 J-2.8500 F60.00
G3 X8.1800 Y17.7952 Z0.0000 I-5.1431 J-4.9933 F60.00
G3 X3.7590 Y17.0632 Z0.0000 I0.0557 J-14.0518 F60.00
G3 X3.0162 Y16.5588 Z0.0000 I0.4032 J-1.3928 F60.00
G3 X2.5636 Y15.6941 Z0.0000 I3.8794 J-2.5817 F60.00
G3 X-0.7283 Y5.6293 Z0.0000 I61.5033 J-25.6863 F60.00
G3 X-1.0174 Y1.5523 Z0.0000 I9.8571 J-2.7478 F60.00
G3 X0.3202 Y-1.2146 Z0.0000 I4.9452 J0.6839 F60.00
G3 X3.8143 Y-2.5679 Z0.0000 I3.3323 J3.4163 F60.00
G3 X6.3788 Y-2.0545 Z0.0000 I-0.1795 J7.5575 F60.00
G3 X7.3297 Y-1.0851 Z0.0000 I-0.4391 J1.3819 F60.00
G2 X7.7610 Y0.3457 Z0.0000 I18.3215 J-4.7419 F60.00
G1 X9.1573 Y0.3457 Z0.0000 F60.00
G3 X11.9945 Y-2.2674 Z0.0000 I4.3990 J1.9294 F60.00
G3 X16.8215 Y-1.4731 Z0.0000 I1.5795 J5.4656 F60.00
G3 X18.4580 Y0.9383 Z0.0000 I-1.9353 J3.0744 F60.00
G0 X18.4580 Y0.9383 Z9.0000
G0 X18.1859 Y4.0064 Z9.0000
G0 X18.1859 Y4.0064 Z7.0000
G1 X18.1859 Y4.0064 Z0.0000 F60.00
G3 X18.2577 Y2.3240 Z0.0000 I53.3762 J1.4343 F60.00
G3 X17.9270 Y3.7475 Z0.0000 I-23.2662 J-4.6550 F60.00
G1 X18.1859 Y4.0064 Z0.0000 F60.00
G2 X18.1261 Y5.9972 Z0.0000 I126.0495 J4.7826 F60.00
G1 X17.5079 Y5.3791 Z0.0000 F60.00
G3 X17.0562 Y6.9779 Z0.0000 I-30.1902 J-7.6678 F60.00
G1 X18.0796 Y8.0014 Z0.0000 F60.00
G2 X18.0566 Y10.0289 Z0.0000 I74.6847 J1.8635 F60.00
G1 X16.5881 Y8.5605 Z0.0000 F60.00
G3 X16.1023 Y10.1252 Z0.0000 I-26.1046 J-7.2476 F60.00
G1 X18.0550 Y12.0780 Z0.0000 F60.00
G2 X18.0800 Y14.1535 Z0.0000 I62.0662 J0.2919 F60.00
G1 X15.5808 Y11.6544 Z0.0000 F60.00
G0 X15.5808 Y11.6544 Z9.0000
G0 X15.5808 Y19.3424 Z9.0000
G0 X15.5808 Y19.3424 Z7.0000
G1 X15.5808 Y19.3424 Z0.0000 F60.00
G1 X55.7679 Y19.3424 Z0.0000 F60.00
G1 X55.7679 Y-3.5250 Z0.0000 F60.00
G1 X-18.4298 Y-3.5250 Z0.0000 F60.00
G1 X-18.4298 Y19.3424 Z0.0000 F60.00
G1 X15.5808 Y19.3424 Z0.0000 F60.00
G0 X15.5808 Y19.3424 Z9.0000
G0 X27.1730 Y15.0441 Z9.0000
G0 X27.1730 Y15.0441 Z7.0000
G1 X27.1730 Y15.0441 Z0.0000 F60.00
G1 X28.1539 Y16.0251 Z0.0000 F60.00
G3 X27.9824 Y13.8029 Z0.0000 I13.4021 J-2.1526 F60.00
G1 X27.4964 Y13.3169 Z0.0000 F60.00
G2 X27.5476 Y11.8721 Z0.0000 I-17.3376 J-1.3373 F60.00
G1 X27.9533 Y11.8721 Z0.0000 F60.00
G2 X27.9824 Y13.8029 Z0.0000 I47.6670 J0.2487 F60.00
G0 X27.9824 Y13.8029 Z9.0000
G0 X37.3327 Y12.9002 Z9.0000
G0 X37.3327 Y12.9002 Z7.0000
G1 X37.3327 Y12.9002 Z0.0000 F60.00
G1 X38.4205 Y13.9880 Z0.0000 F60.00
G3 X37.6951 Y11.2119 Z0.0000 I8.1664 J-3.6168 F60.00
G1 X37.3327 Y10.8495 Z0.0000 F60.00
G1 X37.3327 Y8.7989 Z0.0000 F60.00
G1 X37.7137 Y9.1799 Z0.0000 F60.00
G3 X38.0768 Y7.4924 Z0.0000 I7.7866 J0.7929 F60.00
G1 X37.3327 Y6.7483 Z0.0000 F60.00
G2 X37.3274 Y4.6925 Z0.0000 I-280.0245 J-0.3115 F60.00
G1 X38.6984 Y6.0634 Z0.0000 F60.00
G3 X39.5466 Y4.8610 Z0.0000 I5.4747 J2.9616 F60.00
G1 X37.3198 Y2.6342 Z0.0000 F60.00
G2 X37.3074 Y0.5712 Z0.0000 I-217.8631 J0.2806 F60.00
G1 X38.7820 Y2.0458 Z0.0000 F60.00
G3 X38.9976 Y0.2108 Z0.0000 I3.8876 J-0.4735 F60.00
G1 X35.2618 Y-3.5250 Z0.0000 F60.00
G1 X37.3124 Y-3.5250 Z0.0000 F60.00
G1 X39.7731 Y-1.0643 Z0.0000 F60.00
G3 X40.8870 Y-2.0010 Z0.0000 I3.5453 J3.0852 F60.00
G1 X39.3630 Y-3.5250 Z0.0000 F60.00
G1 X41.4136 Y-3.5250 Z0.0000 F60.00
G1 X42.3219 Y-2.6167 Z0.0000 F60.00
G3 X44.2179 Y-2.7714 Z0.0000 I1.3807 J5.2268 F60.00
G1 X43.4642 Y-3.5250 Z0.0000 F60.00
G1 X45.5149 Y-3.5250 Z0.0000 F60.00
G1 X47.7631 Y-1.2768 Z0.0000 F60.00
G3 X49.0226 Y-2.0679 Z0.0000 I2.9773 J3.3421 F60.00
G1 X47.5655 Y-3.5250 Z0.0000 F60.00
G1 X49.6161 Y-3.5250 Z0.0000 F60.00
G1 X50.6761 Y-2.4649 Z0.0000 F60.00
G3 X53.0215 Y-2.1702 Z0.0000 I0.4598 J5.8195 F60.00
G1 X51.6667 Y-3.5250 Z0.0000 F60.00
G1 X53.7173 Y-3.5250 Z0.0000 F60.00
G1 X55.7679 Y-1.4744 Z0.0000 F60.00
G1 X55.7679 Y-3.5250 Z0.0000 F60.00
G0 X55.7679 Y-3.5250 Z9.0000
G0 X54.4896 Y-1.5112 Z9.0000
G0 X54.4896 Y-1.5112 Z7.0000
G1 X54.4896 Y-1.5112 Z0.0000 F60.00
G3 X54.8958 Y-1.2299 Z0.0000 I-3.3046 J5.2057 F60.00
G3 X55.5408 Y-0.0304 Z0.0000 I-0.8050 J1.2060 F60.00
G3 X55.4647 Y11.0052 Z0.0000 I-366.6740 J2.9910 F60.00
G3 X55.0613 Y15.6245 Z0.0000 I-28.3475 J-0.1488 F60.00
G3 X54.2070 Y16.7177 Z0.0000 I-1.8910 J-0.5974 F60.00
G3 X50.2491 Y18.0631 Z0.0000 I-5.2213 J-8.8655 F60.00
G3 X43.0594 Y17.8105 Z0.0000 I-3.0097 J-16.7813 F60.00
G3 X39.3900 Y15.5925 Z0.0000 I1.6101 J-6.8079 F60.00
G3 X37.7536 Y8.8566 Z0.0000 I7.1154 J-5.2954 F60.00
G3 X39.8668 Y4.5355 Z0.0000 I7.5324 J1.0064 F60.00
G3 X39.6860 Y4.2716 Z0.0000 I19.9762 J-13.8789 F60.00
G3 X39.1048 Y-0.0456 Z0.0000 I3.3054 J-2.6428 F60.00
G3 X43.6772 Y-2.7975 Z0.0000 I4.5081 J2.3158 F60.00
G3 X45.4156 Y-2.4763 Z0.0000 I0.0480 J4.6054 F60.00
G3 X47.1007 Y-0.5929 Z0.0000 I-4.7129 J5.9120 F60.00
G3 X49.1949 Y-2.1416 Z0.0000 I3.8623 J3.0324 F60.00
G3 X54.4896 Y-1.5112 Z0.0000 I1.9900 J5.8361 F60.00
G0 X54.4896 Y-1.5112 Z9.0000
G0 X55.5425 Y0.3508 Z9.0000
G0 X55.5425 Y0.3508 Z7.0000
G1 X55.5425 Y0.3508 Z0.0000 F60.00
G1 X55.7679 Y0.5762 Z0.0000 F60.00
G1 X55.7679 Y2.6268 Z0.0000 F60.00
G1 X55.5492 Y2.4082 Z0.0000 F60.00
G1 X55.5492 Y4.4588 Z0.0000 F60.00
G1 X55.7679 Y4.6775 Z0.0000 F60.00
G1 X55.7679 Y6.7281 Z0.0000 F60.00
G1 X55.5345 Y6.4946 Z0.0000 F60.00
G3 X55.5111 Y8.5219 Z0.0000 I-94.5314 J-0.0759 F60.00
G1 X55.7679 Y8.7787 Z0.0000 F60.00
G1 X55.7679 Y10.8293 Z0.0000 F60.00
G1 X55.4735 Y10.5349 Z0.0000 F60.00
G3 X55.4028 Y12.5147 Z0.0000 I-38.5615 J-0.3871 F60.00
G1 X55.7679 Y12.8799 Z0.0000 F60.00
G1 X55.7679 Y14.9305 Z0.0000 F60.00
G1 X55.2494 Y14.4120 Z0.0000 F60.00
G3 X54.8819 Y16.0721 Z0.0000 I-4.8182 J-0.1958 F60.00
G1 X54.8722 Y16.0854 Z0.0000 F60.00
G1 X55.7679 Y16.9811 Z0.0000 F60.00
G1 X55.7679 Y19.0317 Z0.0000 F60.00
G1 X53.7364 Y17.0002 Z0.0000 F60.00
G3 X52.2778 Y17.5922 Z0.0000 I-3.8046 J-7.2808 F60.00
G1 X54.0280 Y19.3424 Z0.0000 F60.00
G1 X51.9774 Y19.3424 Z0.0000 F60.00
G1 X50.6284 Y17.9934 Z0.0000 F60.00
G3 X48.8187 Y18.2344 Z0.0000 I-2.8740 J-14.6671 F60.00
G1 X49.9268 Y19.3424 Z0.0000 F60.00
G1 X47.8762 Y19.3424 Z0.0000 F60.00
G1 X46.8550 Y18.3212 Z0.0000 F60.00
G3 X44.6193 Y18.1362 Z0.0000 I0.2059 J-16.0882 F60.00
G1 X45.8255 Y19.3424 Z0.0000 F60.00
G1 X43.7749 Y19.3424 Z0.0000 F60.00
G1 X41.8032 Y17.3707 Z0.0000 F60.00
G3 X38.4205 Y13.9880 Z0.0000 I2.3442 J-5.7269 F60.00
G1 X37.3327 Y12.9002 Z0.0000 F60.00
G3 X37.0525 Y14.6706 Z0.0000 I-4.9868 J0.1183 F60.00
G1 X41.7243 Y19.3424 Z0.0000 F60.00
G1 X39.6737 Y19.3424 Z0.0000 F60.00
G1 X36.3094 Y15.9781 Z0.0000 F60.00
G3 X35.2411 Y16.9604 Z0.0000 I-3.9959 J-3.2736 F60.00
G1 X37.6231 Y19.3424 Z0.0000 F60.00
G1 X35.5725 Y19.3424 Z0.0000 F60.00
G1 X33.8621 Y17.6320 Z0.0000 F60.00
G3 X32.1082 Y17.9287 Z0.0000 I-1.8134 J-5.3865 F60.00
G1 X33.5219 Y19.3424 Z0.0000 F60.00
G1 X31.4713 Y19.3424 Z0.0000 F60.00
G1 X29.4678 Y17.3389 Z0.0000 F60.00
G3 X28.4886 Y16.6684 Z0.0000 I1.8636 J-3.7720 F60.00
G3 X28.1539 Y16.0251 Z0.0000 I0.7947 J-0.8220 F60.00
G1 X27.1730 Y15.0441 Z0.0000 F60.00
G3 X26.3661 Y16.2878 Z0.0000 I-3.6653 J-1.4942 F60.00
G1 X29.4207 Y19.3424 Z0.0000 F60.00
G1 X27.3701 Y19.3424 Z0.0000 F60.00
G1 X25.2105 Y17.1829 Z0.0000 F60.00
G3 X23.7073 Y17.7302 Z0.0000 I-2.5590 J-4.6898 F60.00
G1 X25.3194 Y19.3424 Z0.0000 F60.00
G1 X23.2688 Y19.3424 Z0.0000 F60.00
G1 X21.7667 Y17.8402 Z0.0000 F60.00
G3 X18.4767 Y16.3647 Z0.0000 I0.5742 J-5.6858 F60.00
G3 X18.1336 Y15.4959 Z0.0000 I1.1052 J-0.9386 F60.00
G3 X18.0800 Y14.1535 Z0.0000 I27.6806 J-1.7775 F60.00
G1 X15.5808 Y11.6544 Z0.0000 F60.00
G3 X15.0312 Y13.1554 Z0.0000 I-31.3747 J-10.6373 F60.00
G1 X21.2182 Y19.3424 Z0.0000 F60.00
G1 X19.1676 Y19.3424 Z0.0000 F60.00
G1 X14.3460 Y14.5207 Z0.0000 F60.00
G3 X13.4511 Y15.6765 Z0.0000 I-5.6769 J-3.4710 F60.00
G1 X17.1170 Y19.3424 Z0.0000 F60.00
G1 X15.0664 Y19.3424 Z0.0000 F60.00
G1 X12.3314 Y16.6074 Z0.0000 F60.00
G3 X10.9753 Y17.3019 Z0.0000 I-3.5719 J-5.3034 F60.00
G1 X13.0158 Y19.3424 Z0.0000 F60.00
G1 X10.9652 Y19.3424 Z0.0000 F60.00
G1 X9.3308 Y17.7080 Z0.0000 F60.00
G3 X7.3443 Y17.7722 Z0.0000 I-1.3027 J-9.5564 F60.00
G1 X8.9146 Y19.3424 Z0.0000 F60.00
G1 X6.8640 Y19.3424 Z0.0000 F60.00
G1 X4.8950 Y17.3735 Z0.0000 F60.00
G3 X3.4777 Y16.9486 Z0.0000 I2.4101 J-10.6173 F60.00
G3 X2.8563 Y16.3006 Z0.0000 I0.6845 J-1.2783 F60.00
G3 X2.0888 Y14.5672 Z0.0000 I14.0860 J-7.2737 F60.00
G1 X-3.0187 Y9.4598 Z0.0000 F60.00
G3 X-4.0189 Y10.5101 Z0.0000 I-4.7674 J-3.5387 F60.00
G1 X4.8134 Y19.3424 Z0.0000 F60.00
G1 X2.7627 Y19.3424 Z0.0000 F60.00
G1 X-3.0746 Y13.5051 Z0.0000 F60.00
G3 X-3.0283 Y15.6020 Z0.0000 I-5.2038 J1.1639 F60.00
G1 X0.7121 Y19.3424 Z0.0000 F60.00
G1 X-1.3385 Y19.3424 Z0.0000 F60.00
G1 X-3.5626 Y17.1183 Z0.0000 F60.00
G3 X-4.9212 Y17.8103 Z0.0000 I-1.2505 J-0.7756 F60.00
G1 X-3.3891 Y19.3424 Z0.0000 F60.00
G1 X-5.4397 Y19.3424 Z0.0000 F60.00
G1 X-6.8908 Y17.8913 Z0.0000 F60.00
G3 X-8.8904 Y17.9423 Z0.0000 I-2.4491 J-56.7485 F60.00
G1 X-7.4903 Y19.3424 Z0.0000 F60.00
G1 X-9.5409 Y19.3424 Z0.0000 F60.00
G1 X-10.9216 Y17.9618 Z0.0000 F60.00
G3 X-12.9835 Y17.9505 Z0.0000 I-0.7637 J-48.8403 F60.00
G1 X-11.5915 Y19.3424 Z0.0000 F60.00
G1 X-13.6421 Y19.3424 Z0.0000 F60.00
G1 X-15.0941 Y17.8904 Z0.0000 F60.00
G3 X-16.8371 Y17.7333 Z0.0000 I0.3403 J-13.5225 F60.00
G3 X-17.8365 Y16.4982 Z0.0000 I0.4432 J-1.3806 F60.00
G1 X-17.9879 Y14.9967 Z0.0000 F60.00
G1 X-18.4298 Y14.5548 Z0.0000 F60.00
G1 X-18.4298 Y16.6054 Z0.0000 F60.00
G1 X-15.6927 Y19.3424 Z0.0000 F60.00
G1 X-17.7434 Y19.3424 Z0.0000 F60.00
G1 X-18.4298 Y19.3424 Z0.0000 F60.00
G1 X-18.4298 Y18.6560 Z0.0000 F60.00
G1 X-17.7434 Y19.3424 Z0.0000 F60.00
G0 X-17.7434 Y19.3424 Z9.0000
G0 X-16.9904 Y17.6743 Z9.0000
G0 X-16.9904 Y17.6743 Z7.0000
G1 X-16.9904 Y17.6743 Z0.0000 F60.00
G3 X-17.8365 Y16.4982 Z0.0000 I0.5966 J-1.3216 F60.00
G3 X-18.2659 Y6.4161 Z0.0000 I64.4709 J-7.7961 F60.00
G3 X-17.7835 Y2.8293 Z0.0000 I16.6823 J0.4181 F60.00
G3 X-14.1105 Y-1.7721 Z0.0000 I6.9522 J1.7828 F60.00
G3 X-10.0239 Y-2.6138 Z0.0000 I3.8789 J8.4920 F60.00
G3 X-7.3109 Y-2.3074 Z0.0000 I0.0020 J12.1476 F60.00
G3 X-4.2190 Y-0.8559 Z0.0000 I-1.4100 J7.0222 F60.00
G3 X-1.6548 Y5.1801 Z0.0000 I-5.5661 J5.9273 F60.00
G3 X-4.6422 Y10.9763 Z0.0000 I-6.8073 J0.1594 F60.00
G3 X-3.9226 Y11.6691 Z0.0000 I-2.2995 J3.1083 F60.00
G3 X-3.3239 Y16.6837 Z0.0000 I-4.2185 J3.0467 F60.00
G3 X-4.7204 Y17.8013 Z0.0000 I-1.5459 J-0.5004 F60.00
G1 X-6.4137 Y17.8771 Z0.0000 F60.00
G3 X-16.5078 Y17.7982 Z0.0000 I-4.3225 J-92.7961 F60.00
G3 X-16.9904 Y17.6743 Z0.0000 I0.1140 J-1.4455 F60.00
G0 X-16.9904 Y17.6743 Z9.0000
G0 X-18.4298 Y14.5548 Z9.0000
G0 X-18.4298 Y14.5548 Z7.0000
G1 X-18.4298 Y14.5548 Z0.0000 F60.00
G1 X-17.9879 Y14.9967 Z0.0000 F60.00
G3 X-18.1727 Y12.7612 Z0.0000 I46.2547 J-4.9502 F60.00
G1 X-18.4298 Y12.5042 Z0.0000 F60.00
G1 X-18.4298 Y10.4536 Z0.0000 F60.00
G1 X-18.2769 Y10.6065 Z0.0000 F60.00
G3 X-18.3129 Y8.5199 Z0.0000 I39.3753 J-1.7232 F60.00
G1 X-18.4298 Y8.4030 Z0.0000 F60.00
G1 X-18.4298 Y6.3523 Z0.0000 F60.00
G1 X-18.2699 Y6.5122 Z0.0000 F60.00
G3 X-18.1231 Y4.6084 Z0.0000 I32.1607 J1.5208 F60.00
G1 X-18.4298 Y4.3017 Z0.0000 F60.00
G1 X-18.4298 Y2.2511 Z0.0000 F60.00
G1 X-17.7965 Y2.8843 Z0.0000 F60.00
G3 X-17.2389 Y1.3914 Z0.0000 I7.7214 J2.0336 F60.00
G1 X-18.4298 Y0.2005 Z0.0000 F60.00
G1 X-18.4298 Y-1.8501 Z0.0000 F60.00
G1 X-16.4401 Y0.1396 Z0.0000 F60.00
G3 X-15.4226 Y-0.8935 Z0.0000 I5.2969 J4.1995 F60.00
G1 X-18.0540 Y-3.5250 Z0.0000 F60.00
G1 X-16.0034 Y-3.5250 Z0.0000 F60.00
G1 X-14.2000 Y-1.7215 Z0.0000 F60.00
G3 X-12.7192 Y-2.2913 Z0.0000 I3.0061 J5.6033 F60.00
G1 X-13.9528 Y-3.5250 Z0.0000 F60.00
G1 X-11.9022 Y-3.5250 Z0.0000 F60.00
G1 X-10.9511 Y-2.5739 Z0.0000 F60.00
G3 X-8.8821 Y-2.5555 Z0.0000 I0.9369 J10.9891 F60.00
G1 X-9.8516 Y-3.5250 Z0.0000 F60.00
G1 X-7.8010 Y-3.5250 Z0.0000 F60.00
G1 X-6.2841 Y-2.0081 Z0.0000 F60.00
G0 X-6.2841 Y-2.0081 Z9.0000
G0 X-3.0187 Y9.4598 Z9.0000
G0 X-3.0187 Y9.4598 Z7.0000
G1 X-3.0187 Y9.4598 Z0.0000 F60.00
G1 X2.0888 Y14.5672 Z0.0000 F60.00
G3 X0.9305 Y11.3583 Z0.0000 I47.5333 J-18.9715 F60.00
G1 X-2.2706 Y8.1573 Z0.0000 F60.00
G2 X-1.7900 Y6.5872 Z0.0000 I-5.8747 J-2.6567 F60.00
G1 X-0.0082 Y8.3690 Z0.0000 F60.00
G3 X-0.7374 Y5.5892 Z0.0000 I45.4235 J-13.4006 F60.00
G1 X-1.6719 Y4.6547 Z0.0000 F60.00
G2 X-2.2547 Y2.0213 Z0.0000 I-8.8074 J0.5681 F60.00
G1 X-1.1074 Y3.1686 Z0.0000 F60.00
G3 X-0.9579 Y1.2675 Z0.0000 I7.0149 J-0.4049 F60.00
G1 X-5.7504 Y-3.5250 Z0.0000 F60.00
G1 X-3.6998 Y-3.5250 Z0.0000 F60.00
G1 X-0.4088 Y-0.2340 Z0.0000 F60.00
G3 X0.4950 Y-1.3808 Z0.0000 I3.9410 J2.1763 F60.00
G1 X-1.6492 Y-3.5250 Z0.0000 F60.00
G1 X0.4014 Y-3.5250 Z0.0000 F60.00
G1 X1.7512 Y-2.1752 Z0.0000 F60.00
G3 X3.4195 Y-2.5575 Z0.0000 I1.9737 J4.7813 F60.00
G1 X2.4521 Y-3.5250 Z0.0000 F60.00
G1 X4.5027 Y-3.5250 Z0.0000 F60.00
G1 X5.7843 Y-2.2434 Z0.0000 F60.00
G0 X5.7843 Y-2.2434 Z9.0000
G0 X8.3734 Y0.3457 Z9.0000
G0 X8.3734 Y0.3457 Z7.0000
G1 X8.3734 Y0.3457 Z0.0000 F60.00
G1 X7.7610 Y0.3457 Z0.0000 F60.00
G3 X7.4931 Y-0.5345 Z0.0000 I11.0049 J-3.8298 F60.00
G1 X8.3734 Y0.3457 Z0.0000 F60.00
G1 X9.1573 Y0.3457 Z0.0000 F60.00
G3 X9.6119 Y-0.4664 Z0.0000 I4.2107 J1.8235 F60.00
G1 X6.5533 Y-3.5250 Z0.0000 F60.00
G1 X8.6039 Y-3.5250 Z0.0000 F60.00
G1 X10.6106 Y-1.5183 Z0.0000 F60.00
G3 X11.9345 Y-2.2450 Z0.0000 I2.7360 J3.4155 F60.00
G1 X10.6545 Y-3.5250 Z0.0000 F60.00
G1 X12.7051 Y-3.5250 Z0.0000 F60.00
G1 X13.7250 Y-2.5051 Z0.0000 F60.00
G3 X16.7812 Y-1.4995 Z0.0000 I-0.2546 J5.9210 F60.00
G1 X14.7557 Y-3.5250 Z0.0000 F60.00
G1 X16.8063 Y-3.5250 Z0.0000 F60.00
G1 X19.4442 Y-0.8871 Z0.0000 F60.00
G3 X20.5784 Y-1.8035 Z0.0000 I3.2657 J2.8821 F60.00
G1 X18.8569 Y-3.5250 Z0.0000 F60.00
G1 X20.9075 Y-3.5250 Z0.0000 F60.00
G1 X22.0872 Y-2.3454 Z0.0000 F60.00
G3 X24.0642 Y-2.4189 Z0.0000 I1.2658 J7.4172 F60.00
G1 X22.9582 Y-3.5250 Z0.0000 F60.00
G1 X25.0088 Y-3.5250 Z0.0000 F60.00
G1 X28.4621 Y-0.0717 Z0.0000 F60.00
G3 X29.3692 Y-1.2152 Z0.0000 I3.1638 J1.5781 F60.00
G1 X27.0594 Y-3.5250 Z0.0000 F60.00
G1 X29.1100 Y-3.5250 Z0.0000 F60.00
G1 X30.6549 Y-1.9801 Z0.0000 F60.00
G3 X32.3224 Y-2.3632 Z0.0000 I2.1014 J5.3263 F60.00
G1 X31.1606 Y-3.5250 Z0.0000 F60.00
G1 X33.2112 Y-3.5250 Z0.0000 F60.00
G1 X34.4553 Y-2.2809 Z0.0000 F60.00
G0 X34.4553 Y-2.2809 Z9.0000
G0 X27.5691 Y1.0859 Z9.0000
G0 X27.5691 Y1.0859 Z7.0000
G1 X27.5691 Y1.0859 Z0.0000 F60.00
G1 X28.0338 Y1.5507 Z0.0000 F60.00
G2 X27.9233 Y3.4908 Z0.0000 I26.9973 J2.5103 F60.00
G1 X27.5691 Y3.1365 Z0.0000 F60.00
G1 X27.5691 Y3.5806 Z0.0000 F60.00
G1 X27.9211 Y3.5806 Z0.0000 F60.00
G1 X27.9233 Y3.4908 Z0.0000 F60.00
G0 Z9.0000
(finish operation: Pocket_Shape001)
(begin postamble)
M5
G17 G90
; M2
