(Exported by FreeCAD)
(Post Processor: PathScripts.post.grbl_post)
(Output Time:2020-06-29 11:12:55.130248)
(begin preamble)
G17 G90
G21
M3 S360
(begin operation: Pocket_Shape)
(Path: Pocket_Shape)
(Pocket_Shape)
G0 Z9.0000
G0 X55.7679 Y19.3424
G0 Z7.0000
G1 X55.7679 Y19.3424 Z4.0000 F60.00
G1 X55.7679 Y-3.5250 Z4.0000 F60.00
G1 X-18.4298 Y-3.5250 Z4.0000 F60.00
G1 X-18.4298 Y19.3424 Z4.0000 F60.00
G1 X55.7679 Y19.3424 Z4.0000 F60.00
G0 X55.7679 Y19.3424 Z9.0000
G0 X48.3831 Y12.0246 Z9.0000
G1 X48.3831 Y12.0246 Z4.0000 F60.00
G3 X45.5385 Y12.7016 Z4.0000 I-1.9667 J-1.9488 F60.00
G3 X43.6579 Y10.4412 Z4.0000 I0.7381 J-2.5265 F60.00
G3 X45.0462 Y7.9098 Z4.0000 I2.4835 J-0.2844 F60.00
G3 X47.0819 Y7.6579 Z4.0000 I1.5953 J4.5405 F60.00
G3 X48.6659 Y8.9601 Z4.0000 I-0.0939 J1.7287 F60.00
G3 X48.7087 Y11.1341 Z4.0000 I-21.0962 J1.5028 F60.00
G3 X48.4304 Y11.9756 Z4.0000 I-1.4499 J-0.0128 F60.00
G3 X48.3831 Y12.0246 Z4.0000 I-2.0140 J-1.8999 F60.00
G0 X48.3831 Y12.0246 Z9.0000
G0 X48.7149 Y9.9281 Z9.0000
G1 X48.7149 Y9.9281 Z4.0000 F60.00
G1 X55.7679 Y16.9811 Z4.0000 F60.00
G1 X55.7679 Y19.0317 Z4.0000 F60.00
G1 X48.5338 Y11.7977 Z4.0000 F60.00
G3 X47.7098 Y12.5330 Z4.0000 I-1.6207 J-0.9867 F60.00
G3 X47.3655 Y12.6799 Z4.0000 I-2.1822 J-4.6374 F60.00
G1 X54.0280 Y19.3424 Z4.0000 F60.00
G1 X51.9774 Y19.3424 Z4.0000 F60.00
G1 X45.2021 Y12.5671 Z4.0000 F60.00
G3 X43.8466 Y11.2117 Z4.0000 I1.1774 J-2.5329 F60.00
G1 X29.1100 Y-3.5250 Z4.0000 F60.00
G1 X27.0594 Y-3.5250 Z4.0000 F60.00
G1 X49.9268 Y19.3424 Z4.0000 F60.00
G1 X47.8762 Y19.3424 Z4.0000 F60.00
G1 X25.0088 Y-3.5250 Z4.0000 F60.00
G1 X22.9582 Y-3.5250 Z4.0000 F60.00
G1 X45.8255 Y19.3424 Z4.0000 F60.00
G1 X43.7749 Y19.3424 Z4.0000 F60.00
G1 X20.9075 Y-3.5250 Z4.0000 F60.00
G1 X18.8569 Y-3.5250 Z4.0000 F60.00
G1 X41.7243 Y19.3424 Z4.0000 F60.00
G1 X39.6737 Y19.3424 Z4.0000 F60.00
G1 X16.8063 Y-3.5250 Z4.0000 F60.00
G1 X14.7557 Y-3.5250 Z4.0000 F60.00
G1 X37.6231 Y19.3424 Z4.0000 F60.00
G1 X35.5725 Y19.3424 Z4.0000 F60.00
G1 X12.7051 Y-3.5250 Z4.0000 F60.00
G1 X10.6545 Y-3.5250 Z4.0000 F60.00
G1 X33.5219 Y19.3424 Z4.0000 F60.00
G1 X31.4713 Y19.3424 Z4.0000 F60.00
G1 X8.6039 Y-3.5250 Z4.0000 F60.00
G1 X6.5533 Y-3.5250 Z4.0000 F60.00
G1 X29.4207 Y19.3424 Z4.0000 F60.00
G1 X27.3701 Y19.3424 Z4.0000 F60.00
G1 X4.5027 Y-3.5250 Z4.0000 F60.00
G1 X2.4521 Y-3.5250 Z4.0000 F60.00
G1 X25.3194 Y19.3424 Z4.0000 F60.00
G1 X23.2688 Y19.3424 Z4.0000 F60.00
G1 X10.9470 Y7.0206 Z4.0000 F60.00
G1 X10.5517 Y8.6758 Z4.0000 F60.00
G1 X21.2182 Y19.3424 Z4.0000 F60.00
G1 X19.1676 Y19.3424 Z4.0000 F60.00
G1 X10.1502 Y10.3249 Z4.0000 F60.00
G3 X9.8460 Y11.4285 Z4.0000 I-5.2969 J-0.8665 F60.00
G3 X9.5744 Y11.7998 Z4.0000 I-0.9914 J-0.4399 F60.00
G1 X17.1170 Y19.3424 Z4.0000 F60.00
G1 X15.0664 Y19.3424 Z4.0000 F60.00
G1 X7.8274 Y12.1034 Z4.0000 F60.00
G3 X7.0692 Y11.3452 Z4.0000 I0.5249 J-1.2832 F60.00
G1 X-7.8010 Y-3.5250 Z4.0000 F60.00
G1 X-9.8516 Y-3.5250 Z4.0000 F60.00
G1 X13.0158 Y19.3424 Z4.0000 F60.00
G1 X10.9652 Y19.3424 Z4.0000 F60.00
G1 X-11.9022 Y-3.5250 Z4.0000 F60.00
G1 X-13.9528 Y-3.5250 Z4.0000 F60.00
G1 X8.9146 Y19.3424 Z4.0000 F60.00
G1 X6.8640 Y19.3424 Z4.0000 F60.00
G1 X-6.9527 Y5.5257 Z4.0000 F60.00
G3 X-7.5522 Y6.9768 Z4.0000 I-2.7035 J-0.2676 F60.00
G1 X4.8134 Y19.3424 Z4.0000 F60.00
G1 X2.7627 Y19.3424 Z4.0000 F60.00
G1 X-8.7879 Y7.7918 Z4.0000 F60.00
G3 X-11.7608 Y6.7129 Z4.0000 I-0.7231 J-2.6431 F60.00
G3 X-11.9249 Y6.1548 Z4.0000 I1.2808 J-0.6798 F60.00
G3 X-11.9879 Y4.5918 Z4.0000 I6.4180 J-1.0412 F60.00
G1 X-18.4298 Y-1.8501 Z4.0000 F60.00
G1 X-18.4298 Y0.2005 Z4.0000 F60.00
G1 X0.7121 Y19.3424 Z4.0000 F60.00
G1 X-1.3385 Y19.3424 Z4.0000 F60.00
G1 X-18.4298 Y2.2511 Z4.0000 F60.00
G1 X-18.4298 Y4.3017 Z4.0000 F60.00
G1 X-3.3891 Y19.3424 Z4.0000 F60.00
G1 X-5.4397 Y19.3424 Z4.0000 F60.00
G1 X-18.4298 Y6.3523 Z4.0000 F60.00
G1 X-18.4298 Y8.4030 Z4.0000 F60.00
G1 X-7.4903 Y19.3424 Z4.0000 F60.00
G1 X-9.5409 Y19.3424 Z4.0000 F60.00
G1 X-18.4298 Y10.4536 Z4.0000 F60.00
G1 X-18.4298 Y12.5042 Z4.0000 F60.00
G1 X-11.5915 Y19.3424 Z4.0000 F60.00
G1 X-13.6421 Y19.3424 Z4.0000 F60.00
G1 X-18.4298 Y14.5548 Z4.0000 F60.00
G1 X-18.4298 Y16.6054 Z4.0000 F60.00
G1 X-15.6927 Y19.3424 Z4.0000 F60.00
G1 X-17.7434 Y19.3424 Z4.0000 F60.00
G1 X-18.4298 Y18.6560 Z4.0000 F60.00
G1 X-18.4298 Y19.3424 Z4.0000 F60.00
G1 X-17.7434 Y19.3424 Z4.0000 F60.00
G0 X-17.7434 Y19.3424 Z9.0000
G0 X-10.8578 Y7.5507 Z9.0000
G1 X-10.8578 Y7.5507 Z4.0000 F60.00
G3 X-11.1328 Y7.3657 Z4.0000 I1.3113 J-2.2456 F60.00
G3 X-11.8712 Y6.4421 Z4.0000 I1.0614 J-1.6055 F60.00
G3 X-11.9993 Y4.7107 Z4.0000 I8.3193 J-1.4863 F60.00
G3 X-11.6181 Y3.4288 Z4.0000 I2.3547 J0.0026 F60.00
G3 X-9.7299 Y2.6203 Z4.0000 I2.0079 J2.0801 F60.00
G3 X-7.0845 Y6.1423 Z4.0000 I0.1974 J2.6061 F60.00
G3 X-10.8578 Y7.5507 Z4.0000 I-2.4620 J-0.8371 F60.00
G0 X-10.8578 Y7.5507 Z9.0000
G0 X-9.8536 Y2.6249 Z9.0000
G1 X-9.8536 Y2.6249 Z4.0000 F60.00
G1 X-16.0034 Y-3.5250 Z4.0000 F60.00
G1 X-18.0540 Y-3.5250 Z4.0000 F60.00
G1 X-11.3477 Y3.1813 Z4.0000 F60.00
G2 X-11.9360 Y4.1709 Z4.0000 I0.8196 J1.1569 F60.00
G1 X-11.9879 Y4.5918 Z4.0000 F60.00
G1 X-18.4298 Y-1.8501 Z4.0000 F60.00
G0 X-18.4298 Y-1.8501 Z9.0000
G0 X-7.8010 Y-3.5250 Z9.0000
G1 X-7.8010 Y-3.5250 Z4.0000 F60.00
G1 X7.0692 Y11.3452 Z4.0000 F60.00
G3 X6.3877 Y8.6131 Z4.0000 I64.5632 J-17.5555 F60.00
G1 X-5.7504 Y-3.5250 Z4.0000 F60.00
G1 X-3.6998 Y-3.5250 Z4.0000 F60.00
G1 X6.0456 Y6.2203 Z4.0000 F60.00
G3 X7.1092 Y5.2334 Z4.0000 I1.3609 J0.4001 F60.00
G1 X-1.6492 Y-3.5250 Z4.0000 F60.00
G1 X0.4014 Y-3.5250 Z4.0000 F60.00
G1 X9.1245 Y5.1981 Z4.0000 F60.00
G1 X9.1245 Y5.1981 Z4.0000 F60.00
G1 X9.5452 Y5.1981 Z4.0000 F60.00
G3 X10.9555 Y6.9849 Z4.0000 I0.0000 J1.4500 F60.00
G3 X9.9511 Y11.1377 Z4.0000 I-365.2383 J-86.1423 F60.00
G3 X8.9186 Y12.1932 Z4.0000 I-1.4084 J-0.3449 F60.00
G3 X6.9810 Y11.1054 Z4.0000 I-0.4248 J-1.5128 F60.00
G3 X6.0095 Y6.9741 Z4.0000 I244.7948 J-59.7493 F60.00
G3 X7.4223 Y5.1981 Z4.0000 I1.4129 J-0.3260 F60.00
G1 X9.1245 Y5.1981 Z4.0000 F60.00
G0 X9.1245 Y5.1981 Z9.0000
G0 X29.1100 Y-3.5250 Z9.0000
G1 X29.1100 Y-3.5250 Z4.0000 F60.00
G1 X43.8466 Y11.2117 Z4.0000 F60.00
G3 X43.8497 Y9.1641 Z4.0000 I2.5542 J-1.0200 F60.00
G1 X31.1606 Y-3.5250 Z4.0000 F60.00
G1 X33.2112 Y-3.5250 Z4.0000 F60.00
G1 X44.7800 Y8.0438 Z4.0000 F60.00
G3 X46.4448 Y7.6580 Z4.0000 I1.5950 J3.0977 F60.00
G1 X35.2618 Y-3.5250 Z4.0000 F60.00
G1 X37.3124 Y-3.5250 Z4.0000 F60.00
G1 X55.7679 Y14.9305 Z4.0000 F60.00
G1 X55.7679 Y12.8799 Z4.0000 F60.00
G1 X39.3630 Y-3.5250 Z4.0000 F60.00
G1 X41.4136 Y-3.5250 Z4.0000 F60.00
G1 X55.7679 Y10.8293 Z4.0000 F60.00
G1 X55.7679 Y8.7787 Z4.0000 F60.00
G1 X43.4642 Y-3.5250 Z4.0000 F60.00
G1 X45.5149 Y-3.5250 Z4.0000 F60.00
G1 X55.7679 Y6.7281 Z4.0000 F60.00
G1 X55.7679 Y4.6775 Z4.0000 F60.00
G1 X47.5655 Y-3.5250 Z4.0000 F60.00
G1 X49.6161 Y-3.5250 Z4.0000 F60.00
G1 X55.7679 Y2.6268 Z4.0000 F60.00
G1 X55.7679 Y0.5762 Z4.0000 F60.00
G1 X51.6667 Y-3.5250 Z4.0000 F60.00
G1 X53.7173 Y-3.5250 Z4.0000 F60.00
G1 X55.7679 Y-1.4744 Z4.0000 F60.00
G1 X55.7679 Y-3.5250 Z4.0000 F60.00
G0 Z9.0000
(finish operation: Pocket_Shape)
(begin postamble)
M5
G17 G90
; M2
