(Exported by FreeCAD)
(Post Processor: PathScripts.post.grbl_post)
(Output Time:2020-06-29 11:12:55.130248)
(begin preamble)
G17 G90
G21
m3 s390
(begin operation: Profile_Faces)
(Path: Profile_Faces)
(Profile_Faces)
(Compensated Tool Path. Diameter: 2.9)
G0 Z9.0000
G0 X47.5928 Y11.5928
G0 Z7.0000
G1 X47.5928 Y11.5928 Z3.1000 F60.00
G2 X46.9776 Y9.0301 Z3.1000 I-1.0928 J-1.0928 F60.00
G2 X45.0301 Y10.0224 Z3.1000 I-0.4776 J1.4699 F60.00
G2 X46.0224 Y11.9699 Z3.1000 I1.4699 J0.4776 F60.00
G2 X47.5928 Y11.5928 Z3.1000 I0.4776 J-1.4699 F60.00
G0 X47.5928 Y11.5928 Z9.0000
G0 X10.0390 Y8.1414 Z9.0000
G1 X10.0390 Y8.1414 Z3.1000 F60.00
G2 X8.9776 Y6.5301 Z3.1000 I-1.5390 J-0.1414 F60.00
G2 X7.0301 Y7.5224 Z3.1000 I-0.4776 J1.4699 F60.00
G2 X8.0224 Y9.4699 Z3.1000 I1.4699 J0.4776 F60.00
G2 X10.0390 Y8.1414 Z3.1000 I0.4776 J-1.4699 F60.00
G0 X10.0390 Y8.1414 Z9.0000
G0 X-7.9684 Y5.7071 Z9.0000
G1 X-7.9684 Y5.7071 Z3.1000 F60.00
G2 X-9.0224 Y4.0301 Z3.1000 I-1.5316 J-0.2071 F60.00
G2 X-9.9776 Y6.9699 Z3.1000 I-0.4776 J1.4699 F60.00
G2 X-7.9684 Y5.7071 Z3.1000 I0.4776 J-1.4699 F60.00
G1 X-7.9684 Y5.7071 Z2.2000 F60.00
G2 X-9.0224 Y4.0301 Z2.2000 I-1.5316 J-0.2071 F60.00
G2 X-9.9776 Y6.9699 Z2.2000 I-0.4776 J1.4699 F60.00
G2 X-7.9684 Y5.7071 Z2.2000 I0.4776 J-1.4699 F60.00
G0 X-7.9684 Y5.7071 Z9.0000
G0 X6.9693 Y7.7869 Z9.0000
G1 X6.9693 Y7.7869 Z2.2000 F60.00
G2 X8.0224 Y9.4699 Z2.2000 I1.5308 J0.2131 F60.00
G2 X9.9699 Y8.4776 Z2.2000 I0.4776 J-1.4699 F60.00
G2 X8.9776 Y6.5301 Z2.2000 I-1.4699 J-0.4776 F60.00
G2 X6.9693 Y7.7869 Z2.2000 I-0.4776 J1.4699 F60.00
G0 X6.9693 Y7.7869 Z9.0000
G0 X44.9581 Y10.3942 Z9.0000
G1 X44.9581 Y10.3942 Z2.2000 F60.00
G2 X46.0224 Y11.9699 Z2.2000 I1.5419 J0.1058 F60.00
G2 X47.9699 Y10.9776 Z2.2000 I0.4776 J-1.4699 F60.00
G2 X46.9776 Y9.0301 Z2.2000 I-1.4699 J-0.4776 F60.00
G2 X44.9581 Y10.3942 Z2.2000 I-0.4776 J1.4699 F60.00
G1 X44.9581 Y10.3942 Z1.3000 F60.00
G2 X46.0224 Y11.9699 Z1.3000 I1.5419 J0.1058 F60.00
G2 X47.9699 Y10.9776 Z1.3000 I0.4776 J-1.4699 F60.00
G2 X46.9776 Y9.0301 Z1.3000 I-1.4699 J-0.4776 F60.00
G2 X44.9581 Y10.3942 Z1.3000 I-0.4776 J1.4699 F60.00
G0 X44.9581 Y10.3942 Z9.0000
G0 X10.0422 Y8.1013 Z9.0000
G0 X10.0422 Y8.1013 Z8.3000
G1 X10.0422 Y8.1013 Z1.3000 F60.00
G2 X8.9776 Y6.5301 Z1.3000 I-1.5422 J-0.1013 F60.00
G2 X7.0301 Y7.5224 Z1.3000 I-0.4776 J1.4699 F60.00
G2 X8.0224 Y9.4699 Z1.3000 I1.4699 J0.4776 F60.00
G2 X10.0422 Y8.1013 Z1.3000 I0.4776 J-1.4699 F60.00
G0 X10.0422 Y8.1013 Z9.0000
G0 X-7.9680 Y5.7039 Z9.0000
G0 X-7.9680 Y5.7039 Z8.3000
G1 X-7.9680 Y5.7039 Z1.3000 F60.00
G2 X-9.0224 Y4.0301 Z1.3000 I-1.5320 J-0.2039 F60.00
G2 X-9.9776 Y6.9699 Z1.3000 I-0.4776 J1.4699 F60.00
G2 X-7.9680 Y5.7039 Z1.3000 I0.4776 J-1.4699 F60.00
G1 X-7.9680 Y5.7039 Z1.1515 F60.00
G2 X-9.0224 Y4.0301 Z1.1515 I-1.5320 J-0.2039 F60.00
G2 X-9.9776 Y6.9699 Z1.1515 I-0.4776 J1.4699 F60.00
G2 X-7.9680 Y5.7039 Z1.1515 I0.4776 J-1.4699 F60.00
G0 X-7.9680 Y5.7039 Z9.0000
G0 X6.9693 Y7.7866 Z9.0000
G0 X6.9693 Y7.7866 Z8.1515
G1 X6.9693 Y7.7866 Z1.1515 F60.00
G2 X8.0224 Y9.4699 Z1.1515 I1.5307 J0.2134 F60.00
G2 X9.9699 Y8.4776 Z1.1515 I0.4776 J-1.4699 F60.00
G2 X8.9776 Y6.5301 Z1.1515 I-1.4699 J-0.4776 F60.00
G2 X6.9693 Y7.7866 Z1.1515 I-0.4776 J1.4699 F60.00
G0 X6.9693 Y7.7866 Z9.0000
G0 X44.9581 Y10.3942 Z9.0000
G0 X44.9581 Y10.3942 Z8.1515
G1 X44.9581 Y10.3942 Z1.1515 F60.00
G2 X46.0224 Y11.9699 Z1.1515 I1.5419 J0.1058 F60.00
G2 X47.9699 Y10.9776 Z1.1515 I0.4776 J-1.4699 F60.00
G2 X46.9776 Y9.0301 Z1.1515 I-1.4699 J-0.4776 F60.00
G2 X44.9581 Y10.3942 Z1.1515 I-0.4776 J1.4699 F60.00
G0 Z9.0000
(finish operation: Profile_Faces)
(begin postamble)
M5
G17 G90
; M2
