(Exported by FreeCAD)
(Post Processor: PathScripts.post.grbl_post)
(Output Time:2020-06-29 11:12:55.130248)
(begin preamble)
G17 G90
G21
(begin operation: MillFace)
(Path: MillFace)
(MillFace)
G0 Z12.5000
G0 X82.4912 Y29.3765
G0 Z10.5000
G1 X82.4912 Y29.3765 Z6.0000 F120.00
G1 X82.4912 Y-10.0282 Z6.0000 F120.00
G1 X-52.0508 Y-10.0282 Z6.0000 F120.00
G1 X-52.0508 Y29.3765 Z6.0000 F120.00
G1 X82.4912 Y29.3765 Z6.0000 F120.00
G0 X82.4912 Y29.3765 Z12.5000
G0 X82.4912 Y-10.0282 Z12.5000
G1 X82.4912 Y-10.0282 Z6.0000 F120.00
G1 X82.4912 Y-7.9776 Z6.0000 F120.00
G1 X80.4406 Y-10.0282 Z6.0000 F120.00
G1 X78.3900 Y-10.0282 Z6.0000 F120.00
G1 X82.4912 Y-5.9270 Z6.0000 F120.00
G1 X82.4912 Y-3.8764 Z6.0000 F120.00
G1 X76.3393 Y-10.0282 Z6.0000 F120.00
G1 X74.2887 Y-10.0282 Z6.0000 F120.00
G1 X82.4912 Y-1.8258 Z6.0000 F120.00
G1 X82.4912 Y0.2248 Z6.0000 F120.00
G1 X72.2381 Y-10.0282 Z6.0000 F120.00
G1 X70.1875 Y-10.0282 Z6.0000 F120.00
G1 X82.4912 Y2.2754 Z6.0000 F120.00
G1 X82.4912 Y4.3260 Z6.0000 F120.00
G1 X68.1369 Y-10.0282 Z6.0000 F120.00
G1 X66.0863 Y-10.0282 Z6.0000 F120.00
G1 X82.4912 Y6.3766 Z6.0000 F120.00
G1 X82.4912 Y8.4272 Z6.0000 F120.00
G1 X64.0357 Y-10.0282 Z6.0000 F120.00
G1 X61.9851 Y-10.0282 Z6.0000 F120.00
G1 X82.4912 Y10.4779 Z6.0000 F120.00
G1 X82.4912 Y12.5285 Z6.0000 F120.00
G1 X59.9345 Y-10.0282 Z6.0000 F120.00
G1 X57.8839 Y-10.0282 Z6.0000 F120.00
G1 X82.4912 Y14.5791 Z6.0000 F120.00
G1 X82.4912 Y16.6297 Z6.0000 F120.00
G1 X55.8333 Y-10.0282 Z6.0000 F120.00
G1 X53.7826 Y-10.0282 Z6.0000 F120.00
G1 X82.4912 Y18.6803 Z6.0000 F120.00
G1 X82.4912 Y20.7309 Z6.0000 F120.00
G1 X51.7320 Y-10.0282 Z6.0000 F120.00
G1 X49.6814 Y-10.0282 Z6.0000 F120.00
G1 X82.4912 Y22.7815 Z6.0000 F120.00
G1 X82.4912 Y24.8321 Z6.0000 F120.00
G1 X47.6308 Y-10.0282 Z6.0000 F120.00
G1 X45.5802 Y-10.0282 Z6.0000 F120.00
G1 X82.4912 Y26.8827 Z6.0000 F120.00
G1 X82.4912 Y28.9333 Z6.0000 F120.00
G1 X43.5296 Y-10.0282 Z6.0000 F120.00
G1 X41.4790 Y-10.0282 Z6.0000 F120.00
G1 X80.8838 Y29.3765 Z6.0000 F120.00
G1 X78.8332 Y29.3765 Z6.0000 F120.00
G1 X39.4284 Y-10.0282 Z6.0000 F120.00
G1 X37.3778 Y-10.0282 Z6.0000 F120.00
G1 X76.7826 Y29.3765 Z6.0000 F120.00
G1 X74.7319 Y29.3765 Z6.0000 F120.00
G1 X35.3272 Y-10.0282 Z6.0000 F120.00
G1 X33.2765 Y-10.0282 Z6.0000 F120.00
G1 X72.6813 Y29.3765 Z6.0000 F120.00
G1 X70.6307 Y29.3765 Z6.0000 F120.00
G1 X31.2259 Y-10.0282 Z6.0000 F120.00
G1 X29.1753 Y-10.0282 Z6.0000 F120.00
G1 X68.5801 Y29.3765 Z6.0000 F120.00
G1 X66.5295 Y29.3765 Z6.0000 F120.00
G1 X27.1247 Y-10.0282 Z6.0000 F120.00
G1 X25.0741 Y-10.0282 Z6.0000 F120.00
G1 X64.4789 Y29.3765 Z6.0000 F120.00
G1 X62.4283 Y29.3765 Z6.0000 F120.00
G1 X23.0235 Y-10.0282 Z6.0000 F120.00
G1 X20.9729 Y-10.0282 Z6.0000 F120.00
G1 X60.3777 Y29.3765 Z6.0000 F120.00
G1 X58.3271 Y29.3765 Z6.0000 F120.00
G1 X18.9223 Y-10.0282 Z6.0000 F120.00
G1 X16.8717 Y-10.0282 Z6.0000 F120.00
G1 X56.2765 Y29.3765 Z6.0000 F120.00
G1 X54.2258 Y29.3765 Z6.0000 F120.00
G1 X14.8211 Y-10.0282 Z6.0000 F120.00
G1 X12.7704 Y-10.0282 Z6.0000 F120.00
G1 X52.1752 Y29.3765 Z6.0000 F120.00
G1 X50.1246 Y29.3765 Z6.0000 F120.00
G1 X10.7198 Y-10.0282 Z6.0000 F120.00
G1 X8.6692 Y-10.0282 Z6.0000 F120.00
G1 X48.0740 Y29.3765 Z6.0000 F120.00
G1 X46.0234 Y29.3765 Z6.0000 F120.00
G1 X6.6186 Y-10.0282 Z6.0000 F120.00
G1 X4.5680 Y-10.0282 Z6.0000 F120.00
G1 X43.9728 Y29.3765 Z6.0000 F120.00
G1 X41.9222 Y29.3765 Z6.0000 F120.00
G1 X2.5174 Y-10.0282 Z6.0000 F120.00
G1 X0.4668 Y-10.0282 Z6.0000 F120.00
G1 X39.8716 Y29.3765 Z6.0000 F120.00
G1 X37.8210 Y29.3765 Z6.0000 F120.00
G1 X-1.5838 Y-10.0282 Z6.0000 F120.00
G1 X-3.6344 Y-10.0282 Z6.0000 F120.00
G1 X35.7704 Y29.3765 Z6.0000 F120.00
G1 X33.7197 Y29.3765 Z6.0000 F120.00
G1 X-5.6850 Y-10.0282 Z6.0000 F120.00
G1 X-7.7356 Y-10.0282 Z6.0000 F120.00
G1 X31.6691 Y29.3765 Z6.0000 F120.00
G1 X29.6185 Y29.3765 Z6.0000 F120.00
G1 X-9.7863 Y-10.0282 Z6.0000 F120.00
G1 X-11.8369 Y-10.0282 Z6.0000 F120.00
G1 X27.5679 Y29.3765 Z6.0000 F120.00
G1 X25.5173 Y29.3765 Z6.0000 F120.00
G1 X-13.8875 Y-10.0282 Z6.0000 F120.00
G1 X-15.9381 Y-10.0282 Z6.0000 F120.00
G1 X23.4667 Y29.3765 Z6.0000 F120.00
G1 X21.4161 Y29.3765 Z6.0000 F120.00
G1 X-17.9887 Y-10.0282 Z6.0000 F120.00
G1 X-20.0393 Y-10.0282 Z6.0000 F120.00
G1 X19.3655 Y29.3765 Z6.0000 F120.00
G1 X17.3149 Y29.3765 Z6.0000 F120.00
G1 X-22.0899 Y-10.0282 Z6.0000 F120.00
G1 X-24.1405 Y-10.0282 Z6.0000 F120.00
G1 X15.2643 Y29.3765 Z6.0000 F120.00
G1 X13.2137 Y29.3765 Z6.0000 F120.00
G1 X-26.1911 Y-10.0282 Z6.0000 F120.00
G1 X-28.2417 Y-10.0282 Z6.0000 F120.00
G1 X11.1630 Y29.3765 Z6.0000 F120.00
G1 X9.1124 Y29.3765 Z6.0000 F120.00
G1 X-30.2924 Y-10.0282 Z6.0000 F120.00
G1 X-32.3430 Y-10.0282 Z6.0000 F120.00
G1 X7.0618 Y29.3765 Z6.0000 F120.00
G1 X5.0112 Y29.3765 Z6.0000 F120.00
G1 X-34.3936 Y-10.0282 Z6.0000 F120.00
G1 X-36.4442 Y-10.0282 Z6.0000 F120.00
G1 X2.9606 Y29.3765 Z6.0000 F120.00
G1 X0.9100 Y29.3765 Z6.0000 F120.00
G1 X-38.4948 Y-10.0282 Z6.0000 F120.00
G1 X-40.5454 Y-10.0282 Z6.0000 F120.00
G1 X-1.1406 Y29.3765 Z6.0000 F120.00
G1 X-3.1912 Y29.3765 Z6.0000 F120.00
G1 X-42.5960 Y-10.0282 Z6.0000 F120.00
G1 X-44.6466 Y-10.0282 Z6.0000 F120.00
G1 X-5.2418 Y29.3765 Z6.0000 F120.00
G1 X-7.2924 Y29.3765 Z6.0000 F120.00
G1 X-46.6972 Y-10.0282 Z6.0000 F120.00
G1 X-48.7478 Y-10.0282 Z6.0000 F120.00
G1 X-9.3431 Y29.3765 Z6.0000 F120.00
G1 X-11.3937 Y29.3765 Z6.0000 F120.00
G1 X-50.7985 Y-10.0282 Z6.0000 F120.00
G1 X-52.0508 Y-10.0282 Z6.0000 F120.00
G1 X-52.0508 Y-9.2300 Z6.0000 F120.00
G1 X-13.4443 Y29.3765 Z6.0000 F120.00
G1 X-15.4949 Y29.3765 Z6.0000 F120.00
G1 X-52.0508 Y-7.1794 Z6.0000 F120.00
G1 X-52.0508 Y-5.1288 Z6.0000 F120.00
G1 X-17.5455 Y29.3765 Z6.0000 F120.00
G1 X-19.5961 Y29.3765 Z6.0000 F120.00
G1 X-52.0508 Y-3.0782 Z6.0000 F120.00
G1 X-52.0508 Y-1.0276 Z6.0000 F120.00
G1 X-21.6467 Y29.3765 Z6.0000 F120.00
G1 X-23.6973 Y29.3765 Z6.0000 F120.00
G1 X-52.0508 Y1.0230 Z6.0000 F120.00
G1 X-52.0508 Y3.0736 Z6.0000 F120.00
G1 X-25.7479 Y29.3765 Z6.0000 F120.00
G1 X-27.7985 Y29.3765 Z6.0000 F120.00
G1 X-52.0508 Y5.1242 Z6.0000 F120.00
G1 X-52.0508 Y7.1748 Z6.0000 F120.00
G1 X-29.8492 Y29.3765 Z6.0000 F120.00
G1 X-31.8998 Y29.3765 Z6.0000 F120.00
G1 X-52.0508 Y9.2255 Z6.0000 F120.00
G1 X-52.0508 Y11.2761 Z6.0000 F120.00
G1 X-33.9504 Y29.3765 Z6.0000 F120.00
G1 X-36.0010 Y29.3765 Z6.0000 F120.00
G1 X-52.0508 Y13.3267 Z6.0000 F120.00
G1 X-52.0508 Y15.3773 Z6.0000 F120.00
G1 X-38.0516 Y29.3765 Z6.0000 F120.00
G1 X-40.1022 Y29.3765 Z6.0000 F120.00
G1 X-52.0508 Y17.4279 Z6.0000 F120.00
G1 X-52.0508 Y19.4785 Z6.0000 F120.00
G1 X-42.1528 Y29.3765 Z6.0000 F120.00
G1 X-44.2034 Y29.3765 Z6.0000 F120.00
G1 X-52.0508 Y21.5291 Z6.0000 F120.00
G1 X-52.0508 Y23.5797 Z6.0000 F120.00
G1 X-46.2540 Y29.3765 Z6.0000 F120.00
G1 X-48.3046 Y29.3765 Z6.0000 F120.00
G1 X-52.0508 Y25.6303 Z6.0000 F120.00
G1 X-52.0508 Y27.6809 Z6.0000 F120.00
G1 X-50.3552 Y29.3765 Z6.0000 F120.00
G1 X-52.0508 Y29.3765 Z6.0000 F120.00
G1 X-52.0508 Y27.6809 Z6.0000 F120.00
G0 Z12.5000
(finish operation: MillFace)
(begin postamble)
M5
G17 G90
; M2
