(Exported by FreeCAD)
(Post Processor: PathScripts.post.grbl_post)
(Output Time:2020-06-29 11:12:55.130248)
(begin preamble)
G17 G90
G21
(begin operation: Pocket_Shape)
(Path: Pocket_Shape)
M3 S320
(Pocket_Shape)
G0 Z33.0000
G0 X11.1580 Y11.6392
G0 Z31.0000
G1 X11.1580 Y11.6392 Z27.1000 F60.00
G2 X11.6131 Y10.5421 Z27.1000 I-1.0949 J-1.0971 F60.00
G1 X11.6131 Y-9.4579 Z27.1000 F60.00
G2 X10.0631 Y-11.0079 Z27.1000 I-1.5500 J0.0000 F60.00
G1 X-9.9369 Y-11.0079 Z27.1000 F60.00
G2 X-11.4869 Y-9.4579 Z27.1000 I0.0000 J1.5500 F60.00
G1 X-11.4869 Y10.5421 Z27.1000 F60.00
G2 X-9.9369 Y12.0921 Z27.1000 I1.5500 J-0.0000 F60.00
G1 X10.0631 Y12.0921 Z27.1000 F60.00
G2 X11.1580 Y11.6392 Z27.1000 I-0.0000 J-1.5500 F60.00
G0 X11.1580 Y11.6392 Z33.0000
G0 X11.2749 Y11.5085 Z33.0000
G1 X11.2749 Y11.5085 Z27.1000 F60.00
G3 X10.0631 Y12.0921 Z27.1000 I-1.2118 J-0.9664 F60.00
G1 X8.6407 Y12.0921 Z27.1000 F60.00
G1 X11.6131 Y9.1197 Z27.1000 F60.00
G1 X11.6131 Y7.0691 Z27.1000 F60.00
G1 X6.5901 Y12.0921 Z27.1000 F60.00
G1 X4.5395 Y12.0921 Z27.1000 F60.00
G1 X11.6131 Y5.0185 Z27.1000 F60.00
G1 X11.6131 Y2.9679 Z27.1000 F60.00
G1 X2.4889 Y12.0921 Z27.1000 F60.00
G1 X0.4383 Y12.0921 Z27.1000 F60.00
G1 X11.6131 Y0.9173 Z27.1000 F60.00
G1 X11.6131 Y-1.1333 Z27.1000 F60.00
G1 X-1.6123 Y12.0921 Z27.1000 F60.00
G1 X-3.6629 Y12.0921 Z27.1000 F60.00
G1 X11.6131 Y-3.1839 Z27.1000 F60.00
G1 X11.6131 Y-5.2345 Z27.1000 F60.00
G1 X-5.7135 Y12.0921 Z27.1000 F60.00
G1 X-7.7641 Y12.0921 Z27.1000 F60.00
G1 X11.6131 Y-7.2851 Z27.1000 F60.00
G1 X11.6131 Y-9.3358 Z27.1000 F60.00
G1 X-9.8147 Y12.0921 Z27.1000 F60.00
G3 X-11.2001 Y11.4268 Z27.1000 I-0.1159 J-1.5335 F60.00
G1 X10.9478 Y-10.7211 Z27.1000 F60.00
G2 X10.0631 Y-11.0079 Z27.1000 I-0.8774 J1.1986 F60.00
G1 X9.1840 Y-11.0079 Z27.1000 F60.00
G1 X-11.4869 Y9.6630 Z27.1000 F60.00
G1 X-11.4869 Y7.6124 Z27.1000 F60.00
G1 X7.1334 Y-11.0079 Z27.1000 F60.00
G1 X5.0828 Y-11.0079 Z27.1000 F60.00
G1 X-11.4869 Y5.5618 Z27.1000 F60.00
G1 X-11.4869 Y3.5112 Z27.1000 F60.00
G1 X3.0322 Y-11.0079 Z27.1000 F60.00
G1 X0.9816 Y-11.0079 Z27.1000 F60.00
G1 X-11.4869 Y1.4606 Z27.1000 F60.00
G1 X-11.4869 Y-0.5900 Z27.1000 F60.00
G1 X-1.0690 Y-11.0079 Z27.1000 F60.00
G1 X-3.1196 Y-11.0079 Z27.1000 F60.00
G1 X-11.4869 Y-2.6406 Z27.1000 F60.00
G1 X-11.4869 Y-4.6912 Z27.1000 F60.00
G1 X-5.1702 Y-11.0079 Z27.1000 F60.00
G1 X-7.2208 Y-11.0079 Z27.1000 F60.00
G1 X-11.4869 Y-6.7419 Z27.1000 F60.00
G1 X-11.4869 Y-8.7925 Z27.1000 F60.00
G1 X-9.2714 Y-11.0079 Z27.1000 F60.00
G2 X-10.2818 Y-10.9690 Z27.1000 I-0.3327 J4.5030 F60.00
G2 X-11.4869 Y-9.4579 Z27.1000 I0.3449 J1.5111 F60.00
G1 X-11.4869 Y-8.7925 Z27.1000 F60.00
G1 X-11.4869 Y-8.7925 Z27.0000 F60.00
G1 X-11.4869 Y-9.4579 Z27.0000 F60.00
G3 X-10.2818 Y-10.9690 Z27.0000 I1.5500 J0.0000 F60.00
G3 X-9.2714 Y-11.0079 Z27.0000 I0.6776 J4.4641 F60.00
G1 X-11.4869 Y-8.7925 Z27.0000 F60.00
G1 X-11.4869 Y-6.7419 Z27.0000 F60.00
G1 X-7.2208 Y-11.0079 Z27.0000 F60.00
G1 X-5.1702 Y-11.0079 Z27.0000 F60.00
G1 X-11.4869 Y-4.6912 Z27.0000 F60.00
G1 X-11.4869 Y-2.6406 Z27.0000 F60.00
G1 X-3.1196 Y-11.0079 Z27.0000 F60.00
G1 X-1.0690 Y-11.0079 Z27.0000 F60.00
G1 X-11.4869 Y-0.5900 Z27.0000 F60.00
G1 X-11.4869 Y1.4606 Z27.0000 F60.00
G1 X0.9816 Y-11.0079 Z27.0000 F60.00
G1 X3.0322 Y-11.0079 Z27.0000 F60.00
G1 X-11.4869 Y3.5112 Z27.0000 F60.00
G1 X-11.4869 Y5.5618 Z27.0000 F60.00
G1 X5.0828 Y-11.0079 Z27.0000 F60.00
G1 X7.1334 Y-11.0079 Z27.0000 F60.00
G1 X-11.4869 Y7.6124 Z27.0000 F60.00
G1 X-11.4869 Y9.6630 Z27.0000 F60.00
G1 X9.1840 Y-11.0079 Z27.0000 F60.00
G1 X10.0631 Y-11.0079 Z27.0000 F60.00
G3 X10.9478 Y-10.7211 Z27.0000 I0.0073 J1.4854 F60.00
G1 X-11.2001 Y11.4268 Z27.0000 F60.00
G2 X-9.8147 Y12.0921 Z27.0000 I1.2694 J-0.8683 F60.00
G1 X11.6131 Y-9.3358 Z27.0000 F60.00
G1 X11.6131 Y-7.2851 Z27.0000 F60.00
G1 X-7.7641 Y12.0921 Z27.0000 F60.00
G1 X-5.7135 Y12.0921 Z27.0000 F60.00
G1 X11.6131 Y-5.2345 Z27.0000 F60.00
G1 X11.6131 Y-3.1839 Z27.0000 F60.00
G1 X-3.6629 Y12.0921 Z27.0000 F60.00
G1 X-1.6123 Y12.0921 Z27.0000 F60.00
G1 X11.6131 Y-1.1333 Z27.0000 F60.00
G1 X11.6131 Y0.9173 Z27.0000 F60.00
G1 X0.4383 Y12.0921 Z27.0000 F60.00
G1 X2.4889 Y12.0921 Z27.0000 F60.00
G1 X11.6131 Y2.9679 Z27.0000 F60.00
G1 X11.6131 Y5.0185 Z27.0000 F60.00
G1 X4.5395 Y12.0921 Z27.0000 F60.00
G1 X6.5901 Y12.0921 Z27.0000 F60.00
G1 X11.6131 Y7.0691 Z27.0000 F60.00
G1 X11.6131 Y9.1197 Z27.0000 F60.00
G1 X8.6407 Y12.0921 Z27.0000 F60.00
G1 X10.0631 Y12.0921 Z27.0000 F60.00
G2 X11.2749 Y11.5085 Z27.0000 I-0.0000 J-1.5500 F60.00
G1 X11.2749 Y11.5085 Z27.0000 F60.00
G2 X11.6131 Y10.5421 Z27.0000 I-1.2118 J-0.9664 F60.00
G1 X11.6131 Y-9.4579 Z27.0000 F60.00
G2 X10.0631 Y-11.0079 Z27.0000 I-1.5500 J0.0000 F60.00
G1 X-9.9369 Y-11.0079 Z27.0000 F60.00
G2 X-11.4869 Y-9.4579 Z27.0000 I0.0000 J1.5500 F60.00
G1 X-11.4869 Y10.5421 Z27.0000 F60.00
G2 X-9.9369 Y12.0921 Z27.0000 I1.5500 J-0.0000 F60.00
G1 X10.0631 Y12.0921 Z27.0000 F60.00
G2 X11.2749 Y11.5085 Z27.0000 I-0.0000 J-1.5500 F60.00
G0 Z33.0000
(finish operation: Pocket_Shape)
(begin postamble)
M5
G17 G90
; M2
