(Exported by FreeCAD)
(Post Processor: PathScripts.post.grbl_post)
(Output Time:2020-06-29 11:12:55.130248)
(begin preamble)
G17 G90
G21
M3 S330
(begin operation: Pocket_Shape)
(Path: Pocket_Shape)
(Pocket_Shape)
G0 Z31.5000
G0 X11.1602 Y11.6370
G0 Z29.5000
G1 X11.1602 Y11.6370 Z25.6000 F60.00
G2 X11.6131 Y10.5421 Z25.6000 I-1.0971 J-1.0949 F60.00
G1 X11.6131 Y-9.4579 Z25.6000 F60.00
G2 X10.0631 Y-11.0079 Z25.6000 I-1.5500 J0.0000 F60.00
G1 X-9.9369 Y-11.0079 Z25.6000 F60.00
G2 X-11.4869 Y-9.4579 Z25.6000 I0.0000 J1.5500 F60.00
G1 X-11.4869 Y10.5421 Z25.6000 F60.00
G2 X-9.9369 Y12.0921 Z25.6000 I1.5500 J-0.0000 F60.00
G1 X10.0631 Y12.0921 Z25.6000 F60.00
G2 X11.1602 Y11.6370 Z25.6000 I-0.0000 J-1.5500 F60.00
G0 X11.1602 Y11.6370 Z31.5000
G0 X-9.2714 Y12.0921 Z31.5000
G1 X-9.2714 Y12.0921 Z25.6000 F60.00
G1 X-9.9369 Y12.0921 Z25.6000 F60.00
G3 X-11.4480 Y10.8870 Z25.6000 I0.0000 J-1.5500 F60.00
G3 X-11.4869 Y9.8766 Z25.6000 I4.4641 J-0.6776 F60.00
G1 X-9.2714 Y12.0921 Z25.6000 F60.00
G1 X-7.2208 Y12.0921 Z25.6000 F60.00
G1 X-11.4869 Y7.8260 Z25.6000 F60.00
G1 X-11.4869 Y5.7754 Z25.6000 F60.00
G1 X-5.1702 Y12.0921 Z25.6000 F60.00
G1 X-3.1196 Y12.0921 Z25.6000 F60.00
G1 X-11.4869 Y3.7248 Z25.6000 F60.00
G1 X-11.4869 Y1.6742 Z25.6000 F60.00
G1 X-1.0690 Y12.0921 Z25.6000 F60.00
G1 X0.9816 Y12.0921 Z25.6000 F60.00
G1 X-11.4869 Y-0.3764 Z25.6000 F60.00
G1 X-11.4869 Y-2.4270 Z25.6000 F60.00
G1 X3.0322 Y12.0921 Z25.6000 F60.00
G1 X5.0828 Y12.0921 Z25.6000 F60.00
G1 X-11.4869 Y-4.4776 Z25.6000 F60.00
G1 X-11.4869 Y-6.5282 Z25.6000 F60.00
G1 X7.1334 Y12.0921 Z25.6000 F60.00
G1 X9.1840 Y12.0921 Z25.6000 F60.00
G1 X-11.4869 Y-8.5788 Z25.6000 F60.00
G1 X-11.4869 Y-9.4579 Z25.6000 F60.00
G3 X-11.2001 Y-10.3426 Z25.6000 I1.4854 J-0.0073 F60.00
G1 X10.9478 Y11.8053 Z25.6000 F60.00
G2 X11.6131 Y10.4199 Z25.6000 I-0.8683 J-1.2694 F60.00
G1 X-9.8147 Y-11.0079 Z25.6000 F60.00
G1 X-7.7641 Y-11.0079 Z25.6000 F60.00
G1 X11.6131 Y8.3693 Z25.6000 F60.00
G1 X11.6131 Y6.3187 Z25.6000 F60.00
G1 X-5.7135 Y-11.0079 Z25.6000 F60.00
G1 X-3.6629 Y-11.0079 Z25.6000 F60.00
G1 X11.6131 Y4.2681 Z25.6000 F60.00
G1 X11.6131 Y2.2175 Z25.6000 F60.00
G1 X-1.6123 Y-11.0079 Z25.6000 F60.00
G1 X0.4383 Y-11.0079 Z25.6000 F60.00
G1 X11.6131 Y0.1669 Z25.6000 F60.00
G1 X11.6131 Y-1.8837 Z25.6000 F60.00
G1 X2.4889 Y-11.0079 Z25.6000 F60.00
G1 X4.5395 Y-11.0079 Z25.6000 F60.00
G1 X11.6131 Y-3.9343 Z25.6000 F60.00
G1 X11.6131 Y-5.9849 Z25.6000 F60.00
G1 X6.5901 Y-11.0079 Z25.6000 F60.00
G1 X8.6407 Y-11.0079 Z25.6000 F60.00
G1 X11.6131 Y-8.0355 Z25.6000 F60.00
G1 X11.6131 Y-9.4579 Z25.6000 F60.00
G2 X11.0295 Y-10.6697 Z25.6000 I-1.5500 J0.0000 F60.00
G1 X11.0295 Y-10.6697 Z25.5000 F60.00
G3 X11.6131 Y-9.4579 Z25.5000 I-0.9664 J1.2118 F60.00
G1 X11.6131 Y-8.0355 Z25.5000 F60.00
G1 X8.6407 Y-11.0079 Z25.5000 F60.00
G1 X6.5901 Y-11.0079 Z25.5000 F60.00
G1 X11.6131 Y-5.9849 Z25.5000 F60.00
G1 X11.6131 Y-3.9343 Z25.5000 F60.00
G1 X4.5395 Y-11.0079 Z25.5000 F60.00
G1 X2.4889 Y-11.0079 Z25.5000 F60.00
G1 X11.6131 Y-1.8837 Z25.5000 F60.00
G1 X11.6131 Y0.1669 Z25.5000 F60.00
G1 X0.4383 Y-11.0079 Z25.5000 F60.00
G1 X-1.6123 Y-11.0079 Z25.5000 F60.00
G1 X11.6131 Y2.2175 Z25.5000 F60.00
G1 X11.6131 Y4.2681 Z25.5000 F60.00
G1 X-3.6629 Y-11.0079 Z25.5000 F60.00
G1 X-5.7135 Y-11.0079 Z25.5000 F60.00
G1 X11.6131 Y6.3187 Z25.5000 F60.00
G1 X11.6131 Y8.3693 Z25.5000 F60.00
G1 X-7.7641 Y-11.0079 Z25.5000 F60.00
G1 X-9.8147 Y-11.0079 Z25.5000 F60.00
G1 X11.6131 Y10.4199 Z25.5000 F60.00
G3 X10.9478 Y11.8053 Z25.5000 I-1.5335 J0.1159 F60.00
G1 X-11.2001 Y-10.3426 Z25.5000 F60.00
G2 X-11.4869 Y-9.4579 Z25.5000 I1.1986 J0.8774 F60.00
G1 X-11.4869 Y-8.5788 Z25.5000 F60.00
G1 X9.1840 Y12.0921 Z25.5000 F60.00
G1 X7.1334 Y12.0921 Z25.5000 F60.00
G1 X-11.4869 Y-6.5282 Z25.5000 F60.00
G1 X-11.4869 Y-4.4776 Z25.5000 F60.00
G1 X5.0828 Y12.0921 Z25.5000 F60.00
G1 X3.0322 Y12.0921 Z25.5000 F60.00
G1 X-11.4869 Y-2.4270 Z25.5000 F60.00
G1 X-11.4869 Y-0.3764 Z25.5000 F60.00
G1 X0.9816 Y12.0921 Z25.5000 F60.00
G1 X-1.0690 Y12.0921 Z25.5000 F60.00
G1 X-11.4869 Y1.6742 Z25.5000 F60.00
G1 X-11.4869 Y3.7248 Z25.5000 F60.00
G1 X-3.1196 Y12.0921 Z25.5000 F60.00
G1 X-5.1702 Y12.0921 Z25.5000 F60.00
G1 X-11.4869 Y5.7754 Z25.5000 F60.00
G1 X-11.4869 Y7.8260 Z25.5000 F60.00
G1 X-7.2208 Y12.0921 Z25.5000 F60.00
G1 X-9.2714 Y12.0921 Z25.5000 F60.00
G1 X-11.4869 Y9.8766 Z25.5000 F60.00
G2 X-11.4480 Y10.8870 Z25.5000 I4.5030 J0.3327 F60.00
G2 X-9.9369 Y12.0921 Z25.5000 I1.5111 J-0.3449 F60.00
G1 X-9.2714 Y12.0921 Z25.5000 F60.00
G1 X-9.2714 Y12.0921 Z25.5000 F60.00
G1 X10.0631 Y12.0921 Z25.5000 F60.00
G2 X11.6131 Y10.5421 Z25.5000 I-0.0000 J-1.5500 F60.00
G1 X11.6131 Y-9.4579 Z25.5000 F60.00
G2 X10.0631 Y-11.0079 Z25.5000 I-1.5500 J0.0000 F60.00
G1 X-9.9369 Y-11.0079 Z25.5000 F60.00
G2 X-11.4869 Y-9.4579 Z25.5000 I0.0000 J1.5500 F60.00
G1 X-11.4869 Y10.5421 Z25.5000 F60.00
G2 X-9.9369 Y12.0921 Z25.5000 I1.5500 J-0.0000 F60.00
G1 X-9.2714 Y12.0921 Z25.5000 F60.00
G0 Z31.5000
(finish operation: Pocket_Shape)
(begin postamble)
M5
G17 G90
; M2
