(Exported by FreeCAD)
(Post Processor: PathScripts.post.grbl_post)
(Output Time:2020-06-29 11:12:55.130248)
(begin preamble)
G17 G90
G21
M3 S340
(begin operation: Pocket_Shape001)
(Path: Pocket_Shape001)
(Pocket_Shape001)
G0 Z33.0000
G0 X-2.7179 Y6.5148
G0 Z31.0000
G1 X-2.7179 Y6.5148 Z27.1000 F60.00
G2 X-4.8724 Y1.3135 Z27.1000 I-2.1545 J-2.1545 F60.00
G2 X-4.8724 Y7.4073 Z27.1000 I0.0000 J3.0469 F60.00
G2 X-2.7179 Y6.5148 Z27.1000 I-0.0000 J-3.0469 F60.00
G0 X-2.7179 Y6.5148 Z33.0000
G0 X-5.9059 Y7.2203 Z33.0000
G1 X-5.9059 Y7.2203 Z27.1000 F60.00
G1 X-7.7323 Y5.3940 Z27.1000 F60.00
G2 X-5.9059 Y7.2203 Z27.1000 I2.8164 J-0.9900 F60.00
G2 X-4.1659 Y7.3198 Z27.1000 I1.0289 J-2.7291 F60.00
G1 X-7.8318 Y3.6540 Z27.1000 F60.00
G3 X-7.3097 Y2.5356 Z27.1000 I2.8102 J0.6308 F60.00
G1 X-3.0476 Y6.7977 Z27.1000 F60.00
G2 X-2.2686 Y5.9361 Z27.1000 I-1.7185 J-2.3366 F60.00
G1 X-6.4481 Y1.7566 Z27.1000 F60.00
G3 X-5.2275 Y1.3368 Z27.1000 I1.5314 J2.4677 F60.00
G1 X-1.8488 Y4.7155 Z27.1000 F60.00
G2 X-2.7179 Y2.2059 Z27.1000 I-3.0105 J-0.3627 F60.00
G1 X-2.7179 Y2.2059 Z26.2000 F60.00
G3 X-1.8488 Y4.7155 Z26.2000 I-2.1414 J2.1469 F60.00
G1 X-5.2275 Y1.3368 Z26.2000 F60.00
G2 X-6.4481 Y1.7566 Z26.2000 I0.3108 J2.8876 F60.00
G1 X-2.2686 Y5.9361 Z26.2000 F60.00
G3 X-3.0476 Y6.7977 Z26.2000 I-2.4974 J-1.4750 F60.00
G1 X-7.3097 Y2.5356 Z26.2000 F60.00
G2 X-7.8318 Y3.6540 Z26.2000 I2.2881 J1.7492 F60.00
G1 X-4.1659 Y7.3198 Z26.2000 F60.00
G3 X-5.9059 Y7.2203 Z26.2000 I-0.7111 J-2.8286 F60.00
G3 X-7.7323 Y5.3940 Z26.2000 I0.9900 J-2.8164 F60.00
G1 X-5.9059 Y7.2203 Z26.2000 F60.00
G0 X-5.9059 Y7.2203 Z33.0000
G0 X-5.9080 Y7.2259 Z33.0000
G1 X-5.9080 Y7.2259 Z26.2000 F60.00
G2 X-4.8724 Y7.4073 Z26.2000 I1.0356 J-2.8655 F60.00
G2 X-4.8724 Y1.3135 Z26.2000 I-0.0000 J-3.0469 F60.00
G2 X-5.9080 Y7.2259 Z26.2000 I0.0000 J3.0469 F60.00
G1 X-5.9080 Y7.2259 Z25.3000 F60.00
G2 X-4.8724 Y7.4073 Z25.3000 I1.0356 J-2.8655 F60.00
G2 X-4.8724 Y1.3135 Z25.3000 I-0.0000 J-3.0469 F60.00
G2 X-5.9080 Y7.2259 Z25.3000 I0.0000 J3.0469 F60.00
G0 X-5.9080 Y7.2259 Z33.0000
G0 X-5.9059 Y7.2203 Z33.0000
G1 X-5.9059 Y7.2203 Z25.3000 F60.00
G1 X-7.7323 Y5.3940 Z25.3000 F60.00
G2 X-5.9059 Y7.2203 Z25.3000 I2.8164 J-0.9900 F60.00
G2 X-4.1659 Y7.3198 Z25.3000 I1.0289 J-2.7291 F60.00
G1 X-7.8318 Y3.6540 Z25.3000 F60.00
G3 X-7.3097 Y2.5356 Z25.3000 I2.8102 J0.6308 F60.00
G1 X-3.0476 Y6.7977 Z25.3000 F60.00
G2 X-2.2686 Y5.9361 Z25.3000 I-1.7185 J-2.3366 F60.00
G1 X-6.4481 Y1.7566 Z25.3000 F60.00
G3 X-5.2275 Y1.3368 Z25.3000 I1.5314 J2.4677 F60.00
G1 X-1.8488 Y4.7155 Z25.3000 F60.00
G2 X-2.7179 Y2.2059 Z25.3000 I-3.0105 J-0.3627 F60.00
G1 X-2.7179 Y2.2059 Z24.4000 F60.00
G3 X-1.8488 Y4.7155 Z24.4000 I-2.1414 J2.1469 F60.00
G1 X-5.2275 Y1.3368 Z24.4000 F60.00
G2 X-6.4481 Y1.7566 Z24.4000 I0.3108 J2.8876 F60.00
G1 X-2.2686 Y5.9361 Z24.4000 F60.00
G3 X-3.0476 Y6.7977 Z24.4000 I-2.4974 J-1.4750 F60.00
G1 X-7.3097 Y2.5356 Z24.4000 F60.00
G2 X-7.8318 Y3.6540 Z24.4000 I2.2881 J1.7492 F60.00
G1 X-4.1659 Y7.3198 Z24.4000 F60.00
G3 X-5.9059 Y7.2203 Z24.4000 I-0.7111 J-2.8286 F60.00
G3 X-7.7323 Y5.3940 Z24.4000 I0.9900 J-2.8164 F60.00
G1 X-5.9059 Y7.2203 Z24.4000 F60.00
G0 X-5.9059 Y7.2203 Z33.0000
G0 X-5.9080 Y7.2259 Z33.0000
G1 X-5.9080 Y7.2259 Z24.4000 F60.00
G2 X-4.8724 Y7.4073 Z24.4000 I1.0356 J-2.8655 F60.00
G2 X-4.8724 Y1.3135 Z24.4000 I-0.0000 J-3.0469 F60.00
G2 X-5.9080 Y7.2259 Z24.4000 I0.0000 J3.0469 F60.00
G1 X-5.9080 Y7.2259 Z23.5000 F60.00
G2 X-4.8724 Y7.4073 Z23.5000 I1.0356 J-2.8655 F60.00
G2 X-4.8724 Y1.3135 Z23.5000 I-0.0000 J-3.0469 F60.00
G2 X-5.9080 Y7.2259 Z23.5000 I0.0000 J3.0469 F60.00
G0 X-5.9080 Y7.2259 Z33.0000
G0 X-5.9059 Y7.2203 Z33.0000
G1 X-5.9059 Y7.2203 Z23.5000 F60.00
G1 X-7.7323 Y5.3940 Z23.5000 F60.00
G2 X-5.9059 Y7.2203 Z23.5000 I2.8164 J-0.9900 F60.00
G2 X-4.1659 Y7.3198 Z23.5000 I1.0289 J-2.7291 F60.00
G1 X-7.8318 Y3.6540 Z23.5000 F60.00
G3 X-7.3097 Y2.5356 Z23.5000 I2.8102 J0.6308 F60.00
G1 X-3.0476 Y6.7977 Z23.5000 F60.00
G2 X-2.2686 Y5.9361 Z23.5000 I-1.7185 J-2.3366 F60.00
G1 X-6.4481 Y1.7566 Z23.5000 F60.00
G3 X-5.2275 Y1.3368 Z23.5000 I1.5314 J2.4677 F60.00
G1 X-1.8488 Y4.7155 Z23.5000 F60.00
G2 X-2.7179 Y2.2059 Z23.5000 I-3.0105 J-0.3627 F60.00
G1 X-2.7179 Y2.2059 Z23.0000 F60.00
G3 X-1.8488 Y4.7155 Z23.0000 I-2.1414 J2.1469 F60.00
G1 X-5.2275 Y1.3368 Z23.0000 F60.00
G2 X-6.4481 Y1.7566 Z23.0000 I0.3108 J2.8876 F60.00
G1 X-2.2686 Y5.9361 Z23.0000 F60.00
G3 X-3.0476 Y6.7977 Z23.0000 I-2.4974 J-1.4750 F60.00
G1 X-7.3097 Y2.5356 Z23.0000 F60.00
G2 X-7.8318 Y3.6540 Z23.0000 I2.2881 J1.7492 F60.00
G1 X-4.1659 Y7.3198 Z23.0000 F60.00
G3 X-5.9059 Y7.2203 Z23.0000 I-0.7111 J-2.8286 F60.00
G3 X-7.7323 Y5.3940 Z23.0000 I0.9900 J-2.8164 F60.00
G1 X-5.9059 Y7.2203 Z23.0000 F60.00
G0 X-5.9059 Y7.2203 Z33.0000
G0 X-5.9080 Y7.2259 Z33.0000
G1 X-5.9080 Y7.2259 Z23.0000 F60.00
G2 X-4.8724 Y7.4073 Z23.0000 I1.0356 J-2.8655 F60.00
G2 X-4.8724 Y1.3135 Z23.0000 I-0.0000 J-3.0469 F60.00
G2 X-5.9080 Y7.2259 Z23.0000 I0.0000 J3.0469 F60.00
G0 Z33.0000
G0 X-0.8549 Y-4.0356
G0 Z31.0000
G1 X-0.8549 Y-4.0356 Z27.1000 F60.00
G2 X-0.8326 Y-4.0664 Z27.1000 I-0.0566 J-0.0644 F60.00
G2 X-0.9538 Y-4.1255 Z27.1000 I-0.0744 J-0.0012 F60.00
G1 X-6.7909 Y-4.1255 Z27.1000 F60.00
G2 X-6.9122 Y-4.0846 Z27.1000 I-0.0424 J0.0745 F60.00
G2 X-6.7909 Y-4.0255 Z27.1000 I0.0744 J0.0012 F60.00
G1 X-0.9538 Y-4.0255 Z27.1000 F60.00
G2 X-0.8549 Y-4.0356 Z27.1000 I0.0424 J-0.0745 F60.00
G0 X-0.8549 Y-4.0356 Z33.0000
G0 X-0.8469 Y-4.1074 Z33.0000
G1 X-0.8469 Y-4.1074 Z27.1000 F60.00
G3 X-0.8633 Y-4.0357 Z27.1000 I-0.0255 J0.0319 F60.00
G1 X-0.9538 Y-4.0255 Z27.1000 F60.00
G1 X-2.4055 Y-4.0255 Z27.1000 F60.00
G1 X-2.5055 Y-4.1255 Z27.1000 F60.00
G1 X-4.1460 Y-4.1255 Z27.1000 F60.00
G1 X-4.0460 Y-4.0255 Z27.1000 F60.00
G1 X-5.6865 Y-4.0255 Z27.1000 F60.00
G1 X-5.7865 Y-4.1255 Z27.1000 F60.00
G1 X-6.7909 Y-4.1255 Z27.1000 F60.00
G2 X-6.9122 Y-4.0664 Z27.1000 I-0.0468 J0.0579 F60.00
G2 X-6.7909 Y-4.0255 Z27.1000 I0.0789 J-0.0336 F60.00
G1 X-5.6865 Y-4.0255 Z27.1000 F60.00
G1 X-5.6865 Y-4.0255 Z26.2000 F60.00
G1 X-6.7909 Y-4.0255 Z26.2000 F60.00
G3 X-6.9122 Y-4.0664 Z26.2000 I-0.0424 J-0.0745 F60.00
G3 X-6.7909 Y-4.1255 Z26.2000 I0.0744 J-0.0012 F60.00
G1 X-5.7865 Y-4.1255 Z26.2000 F60.00
G1 X-5.6865 Y-4.0255 Z26.2000 F60.00
G1 X-4.0460 Y-4.0255 Z26.2000 F60.00
G1 X-4.1460 Y-4.1255 Z26.2000 F60.00
G1 X-2.5055 Y-4.1255 Z26.2000 F60.00
G1 X-2.4055 Y-4.0255 Z26.2000 F60.00
G1 X-0.9538 Y-4.0255 Z26.2000 F60.00
G1 X-0.8633 Y-4.0357 Z26.2000 F60.00
G2 X-0.8469 Y-4.1074 Z26.2000 I-0.0091 J-0.0398 F60.00
G0 X-0.8469 Y-4.1074 Z33.0000
G0 X-0.8449 Y-4.1087 Z33.0000
G1 X-0.8449 Y-4.1087 Z26.2000 F60.00
G2 X-0.9538 Y-4.1255 Z26.2000 I-0.0621 J0.0411 F60.00
G1 X-6.7909 Y-4.1255 Z26.2000 F60.00
G2 X-6.9122 Y-4.0846 Z26.2000 I-0.0424 J0.0745 F60.00
G2 X-6.7909 Y-4.0255 Z26.2000 I0.0744 J0.0012 F60.00
G1 X-0.9538 Y-4.0255 Z26.2000 F60.00
G2 X-0.8326 Y-4.0664 Z26.2000 I0.0424 J-0.0745 F60.00
G2 X-0.8449 Y-4.1087 Z26.2000 I-0.0744 J-0.0012 F60.00
G1 X-0.8449 Y-4.1087 Z25.3000 F60.00
G2 X-0.9538 Y-4.1255 Z25.3000 I-0.0621 J0.0411 F60.00
G1 X-6.7909 Y-4.1255 Z25.3000 F60.00
G2 X-6.9122 Y-4.0846 Z25.3000 I-0.0424 J0.0745 F60.00
G2 X-6.7909 Y-4.0255 Z25.3000 I0.0744 J0.0012 F60.00
G1 X-0.9538 Y-4.0255 Z25.3000 F60.00
G2 X-0.8326 Y-4.0664 Z25.3000 I0.0424 J-0.0745 F60.00
G2 X-0.8449 Y-4.1087 Z25.3000 I-0.0744 J-0.0012 F60.00
G0 X-0.8449 Y-4.1087 Z33.0000
G0 X-0.8469 Y-4.1074 Z33.0000
G1 X-0.8469 Y-4.1074 Z25.3000 F60.00
G3 X-0.8633 Y-4.0357 Z25.3000 I-0.0255 J0.0319 F60.00
G1 X-0.9538 Y-4.0255 Z25.3000 F60.00
G1 X-2.4055 Y-4.0255 Z25.3000 F60.00
G1 X-2.5055 Y-4.1255 Z25.3000 F60.00
G1 X-4.1460 Y-4.1255 Z25.3000 F60.00
G1 X-4.0460 Y-4.0255 Z25.3000 F60.00
G1 X-5.6865 Y-4.0255 Z25.3000 F60.00
G1 X-5.7865 Y-4.1255 Z25.3000 F60.00
G1 X-6.7909 Y-4.1255 Z25.3000 F60.00
G2 X-6.9122 Y-4.0664 Z25.3000 I-0.0468 J0.0579 F60.00
G2 X-6.7909 Y-4.0255 Z25.3000 I0.0789 J-0.0336 F60.00
G1 X-5.6865 Y-4.0255 Z25.3000 F60.00
G1 X-5.6865 Y-4.0255 Z24.4000 F60.00
G1 X-0.9538 Y-4.0255 Z24.4000 F60.00
G2 X-0.8326 Y-4.0664 Z24.4000 I0.0424 J-0.0745 F60.00
G2 X-0.9538 Y-4.1255 Z24.4000 I-0.0744 J-0.0012 F60.00
G1 X-6.7909 Y-4.1255 Z24.4000 F60.00
G2 X-6.9122 Y-4.0846 Z24.4000 I-0.0424 J0.0745 F60.00
G2 X-6.7909 Y-4.0255 Z24.4000 I0.0744 J0.0012 F60.00
G1 X-5.6865 Y-4.0255 Z24.4000 F60.00
G1 X-5.6865 Y-4.0255 Z24.4000 F60.00
G1 X-6.7909 Y-4.0255 Z24.4000 F60.00
G3 X-6.9122 Y-4.0664 Z24.4000 I-0.0424 J-0.0745 F60.00
G3 X-6.7909 Y-4.1255 Z24.4000 I0.0744 J-0.0012 F60.00
G1 X-5.7865 Y-4.1255 Z24.4000 F60.00
G1 X-5.6865 Y-4.0255 Z24.4000 F60.00
G1 X-4.0460 Y-4.0255 Z24.4000 F60.00
G1 X-4.1460 Y-4.1255 Z24.4000 F60.00
G1 X-2.5055 Y-4.1255 Z24.4000 F60.00
G1 X-2.4055 Y-4.0255 Z24.4000 F60.00
G1 X-0.9538 Y-4.0255 Z24.4000 F60.00
G1 X-0.8633 Y-4.0357 Z24.4000 F60.00
G2 X-0.8469 Y-4.1074 Z24.4000 I-0.0091 J-0.0398 F60.00
G1 X-0.8469 Y-4.1074 Z23.5000 F60.00
G3 X-0.8633 Y-4.0357 Z23.5000 I-0.0255 J0.0319 F60.00
G1 X-0.9538 Y-4.0255 Z23.5000 F60.00
G1 X-2.4055 Y-4.0255 Z23.5000 F60.00
G1 X-2.5055 Y-4.1255 Z23.5000 F60.00
G1 X-4.1460 Y-4.1255 Z23.5000 F60.00
G1 X-4.0460 Y-4.0255 Z23.5000 F60.00
G1 X-5.6865 Y-4.0255 Z23.5000 F60.00
G1 X-5.7865 Y-4.1255 Z23.5000 F60.00
G1 X-6.7909 Y-4.1255 Z23.5000 F60.00
G2 X-6.9122 Y-4.0664 Z23.5000 I-0.0468 J0.0579 F60.00
G2 X-6.7909 Y-4.0255 Z23.5000 I0.0789 J-0.0336 F60.00
G1 X-5.6865 Y-4.0255 Z23.5000 F60.00
G1 X-5.6865 Y-4.0255 Z23.5000 F60.00
G1 X-0.9538 Y-4.0255 Z23.5000 F60.00
G2 X-0.8326 Y-4.0664 Z23.5000 I0.0424 J-0.0745 F60.00
G2 X-0.9538 Y-4.1255 Z23.5000 I-0.0744 J-0.0012 F60.00
G1 X-6.7909 Y-4.1255 Z23.5000 F60.00
G2 X-6.9122 Y-4.0846 Z23.5000 I-0.0424 J0.0745 F60.00
G2 X-6.7909 Y-4.0255 Z23.5000 I0.0744 J0.0012 F60.00
G1 X-5.6865 Y-4.0255 Z23.5000 F60.00
G1 X-5.6865 Y-4.0255 Z23.0000 F60.00
G1 X-0.9538 Y-4.0255 Z23.0000 F60.00
G2 X-0.8326 Y-4.0664 Z23.0000 I0.0424 J-0.0745 F60.00
G2 X-0.9538 Y-4.1255 Z23.0000 I-0.0744 J-0.0012 F60.00
G1 X-6.7909 Y-4.1255 Z23.0000 F60.00
G2 X-6.9122 Y-4.0846 Z23.0000 I-0.0424 J0.0745 F60.00
G2 X-6.7909 Y-4.0255 Z23.0000 I0.0744 J0.0012 F60.00
G1 X-5.6865 Y-4.0255 Z23.0000 F60.00
G1 X-5.6865 Y-4.0255 Z23.0000 F60.00
G1 X-6.7909 Y-4.0255 Z23.0000 F60.00
G3 X-6.9122 Y-4.0664 Z23.0000 I-0.0424 J-0.0745 F60.00
G3 X-6.7909 Y-4.1255 Z23.0000 I0.0744 J-0.0012 F60.00
G1 X-5.7865 Y-4.1255 Z23.0000 F60.00
G1 X-5.6865 Y-4.0255 Z23.0000 F60.00
G1 X-4.0460 Y-4.0255 Z23.0000 F60.00
G1 X-4.1460 Y-4.1255 Z23.0000 F60.00
G1 X-2.5055 Y-4.1255 Z23.0000 F60.00
G1 X-2.4055 Y-4.0255 Z23.0000 F60.00
G1 X-0.9538 Y-4.0255 Z23.0000 F60.00
G1 X-0.8633 Y-4.0357 Z23.0000 F60.00
G2 X-0.8469 Y-4.1074 Z23.0000 I-0.0091 J-0.0398 F60.00
G0 Z33.0000
G0 X6.0162 Y5.9661
G0 Z31.0000
G1 X6.0162 Y5.9661 Z27.1000 F60.00
G1 X6.0162 Y3.8782 Z27.1000 F60.00
G1 X3.9162 Y3.8782 Z27.1000 F60.00
G1 X3.9162 Y5.9661 Z27.1000 F60.00
G1 X6.0162 Y5.9661 Z27.1000 F60.00
G0 X6.0162 Y5.9661 Z33.0000
G0 X6.0162 Y3.8782 Z33.0000
G1 X6.0162 Y3.8782 Z27.1000 F60.00
G1 X6.0162 Y5.5187 Z27.1000 F60.00
G1 X4.3757 Y3.8782 Z27.1000 F60.00
G1 X3.9162 Y3.8782 Z27.1000 F60.00
G1 X3.9162 Y5.0592 Z27.1000 F60.00
G1 X3.9162 Y5.9661 Z27.1000 F60.00
G1 X4.8232 Y5.9661 Z27.1000 F60.00
G1 X3.9162 Y5.0592 Z27.1000 F60.00
G1 X3.9162 Y5.0592 Z26.2000 F60.00
G1 X4.8232 Y5.9661 Z26.2000 F60.00
G1 X3.9162 Y5.9661 Z26.2000 F60.00
G1 X3.9162 Y5.0592 Z26.2000 F60.00
G1 X3.9162 Y3.8782 Z26.2000 F60.00
G1 X4.3757 Y3.8782 Z26.2000 F60.00
G1 X6.0162 Y5.5187 Z26.2000 F60.00
G1 X6.0162 Y3.8782 Z26.2000 F60.00
G1 X6.0162 Y3.8782 Z26.2000 F60.00
G1 X3.9162 Y3.8782 Z26.2000 F60.00
G1 X3.9162 Y5.9661 Z26.2000 F60.00
G1 X6.0162 Y5.9661 Z26.2000 F60.00
G1 X6.0162 Y3.8782 Z26.2000 F60.00
G1 X6.0162 Y3.8782 Z25.3000 F60.00
G1 X3.9162 Y3.8782 Z25.3000 F60.00
G1 X3.9162 Y5.9661 Z25.3000 F60.00
G1 X6.0162 Y5.9661 Z25.3000 F60.00
G1 X6.0162 Y3.8782 Z25.3000 F60.00
G1 X6.0162 Y3.8782 Z25.3000 F60.00
G1 X6.0162 Y5.5187 Z25.3000 F60.00
G1 X4.3757 Y3.8782 Z25.3000 F60.00
G1 X3.9162 Y3.8782 Z25.3000 F60.00
G1 X3.9162 Y5.0592 Z25.3000 F60.00
G1 X3.9162 Y5.9661 Z25.3000 F60.00
G1 X4.8232 Y5.9661 Z25.3000 F60.00
G1 X3.9162 Y5.0592 Z25.3000 F60.00
G1 X3.9162 Y5.0592 Z24.4000 F60.00
G1 X4.8232 Y5.9661 Z24.4000 F60.00
G1 X3.9162 Y5.9661 Z24.4000 F60.00
G1 X3.9162 Y5.0592 Z24.4000 F60.00
G1 X3.9162 Y3.8782 Z24.4000 F60.00
G1 X4.3757 Y3.8782 Z24.4000 F60.00
G1 X6.0162 Y5.5187 Z24.4000 F60.00
G1 X6.0162 Y3.8782 Z24.4000 F60.00
G1 X6.0162 Y3.8782 Z24.4000 F60.00
G1 X3.9162 Y3.8782 Z24.4000 F60.00
G1 X3.9162 Y5.9661 Z24.4000 F60.00
G1 X6.0162 Y5.9661 Z24.4000 F60.00
G1 X6.0162 Y3.8782 Z24.4000 F60.00
G1 X6.0162 Y3.8782 Z23.5000 F60.00
G1 X3.9162 Y3.8782 Z23.5000 F60.00
G1 X3.9162 Y5.9661 Z23.5000 F60.00
G1 X6.0162 Y5.9661 Z23.5000 F60.00
G1 X6.0162 Y3.8782 Z23.5000 F60.00
G1 X6.0162 Y3.8782 Z23.5000 F60.00
G1 X6.0162 Y5.5187 Z23.5000 F60.00
G1 X4.3757 Y3.8782 Z23.5000 F60.00
G1 X3.9162 Y3.8782 Z23.5000 F60.00
G1 X3.9162 Y5.0592 Z23.5000 F60.00
G1 X3.9162 Y5.9661 Z23.5000 F60.00
G1 X4.8232 Y5.9661 Z23.5000 F60.00
G1 X3.9162 Y5.0592 Z23.5000 F60.00
G1 X3.9162 Y5.0592 Z23.0000 F60.00
G1 X4.8232 Y5.9661 Z23.0000 F60.00
G1 X3.9162 Y5.9661 Z23.0000 F60.00
G1 X3.9162 Y5.0592 Z23.0000 F60.00
G1 X3.9162 Y3.8782 Z23.0000 F60.00
G1 X4.3757 Y3.8782 Z23.0000 F60.00
G1 X6.0162 Y5.5187 Z23.0000 F60.00
G1 X6.0162 Y3.8782 Z23.0000 F60.00
G1 X6.0162 Y3.8782 Z23.0000 F60.00
G1 X3.9162 Y3.8782 Z23.0000 F60.00
G1 X3.9162 Y5.9661 Z23.0000 F60.00
G1 X6.0162 Y5.9661 Z23.0000 F60.00
G1 X6.0162 Y3.8782 Z23.0000 F60.00
G0 Z33.0000
(finish operation: Pocket_Shape001)
(begin postamble)
M5
G17 G90
; M2
